{
 "compressionlevel": -1,
 "width": 362,
 "height": 27,
 "tilewidth": 16,
 "tileheight": 16,
 "infinite": false,
 "orientation": "orthogonal",
 "renderorder": "right-down",
 "tiledversion": "1.11.0",
 "type": "map",
 "version": "1.10",
 "nextlayerid": 3,
 "nextobjectid": 114,
 "tilesets": [],
 "properties": [
  {
   "name": "name",
   "type": "string",
   "value": "The Stroller"
  },
  {
   "name": "backgroundColor",
   "type": "string",
   "value": "0x241826"
  },
  {
   "name": "groundRow",
   "type": "string",
   "value": "20"
  },
  {
   "name": "autoScroll",
   "type": "string",
   "value": "86"
  },
  {
   "name": "backdrop",
   "type": "string",
   "value": "dusk"
  }
 ],
 "layers": [
  {
   "id": 1,
   "name": "solids",
   "type": "objectgroup",
   "draworder": "index",
   "opacity": 1,
   "visible": true,
   "x": 0,
   "y": 0,
   "objects": [
    {
     "id": 1,
     "name": "",
     "class": "",
     "x": 0,
     "y": 320,
     "width": 640,
     "height": 112,
     "rotation": 0,
     "visible": true,
     "properties": [
      {
       "name": "kind",
       "type": "string",
       "value": "ground"
      }
     ]
    },
    {
     "id": 2,
     "name": "",
     "class": "",
     "x": 688,
     "y": 320,
     "width": 256,
     "height": 112,
     "rotation": 0,
     "visible": true,
     "properties": [
      {
       "name": "kind",
       "type": "string",
       "value": "ground"
      }
     ]
    },
    {
     "id": 3,
     "name": "",
     "class": "",
     "x": 992,
     "y": 320,
     "width": 288,
     "height": 112,
     "rotation": 0,
     "visible": true,
     "properties": [
      {
       "name": "kind",
       "type": "string",
       "value": "ground"
      }
     ]
    },
    {
     "id": 4,
     "name": "",
     "class": "",
     "x": 1328,
     "y": 320,
     "width": 240,
     "height": 112,
     "rotation": 0,
     "visible": true,
     "properties": [
      {
       "name": "kind",
       "type": "string",
       "value": "ground"
      }
     ]
    },
    {
     "id": 5,
     "name": "",
     "class": "",
     "x": 1616,
     "y": 320,
     "width": 320,
     "height": 112,
     "rotation": 0,
     "visible": true,
     "properties": [
      {
       "name": "kind",
       "type": "string",
       "value": "ground"
      }
     ]
    },
    {
     "id": 6,
     "name": "",
     "class": "",
     "x": 1984,
     "y": 320,
     "width": 480,
     "height": 112,
     "rotation": 0,
     "visible": true,
     "properties": [
      {
       "name": "kind",
       "type": "string",
       "value": "ground"
      }
     ]
    },
    {
     "id": 7,
     "name": "",
     "class": "",
     "x": 1984,
     "y": 192,
     "width": 480,
     "height": 16,
     "rotation": 0,
     "visible": true,
     "properties": [
      {
       "name": "kind",
       "type": "string",
       "value": "platform"
      }
     ]
    },
    {
     "id": 8,
     "name": "",
     "class": "",
     "x": 2512,
     "y": 320,
     "width": 416,
     "height": 112,
     "rotation": 0,
     "visible": true,
     "properties": [
      {
       "name": "kind",
       "type": "string",
       "value": "ground"
      }
     ]
    },
    {
     "id": 9,
     "name": "",
     "class": "",
     "x": 2976,
     "y": 320,
     "width": 464,
     "height": 112,
     "rotation": 0,
     "visible": true,
     "properties": [
      {
       "name": "kind",
       "type": "string",
       "value": "ground"
      }
     ]
    },
    {
     "id": 10,
     "name": "",
     "class": "",
     "x": 3488,
     "y": 320,
     "width": 352,
     "height": 112,
     "rotation": 0,
     "visible": true,
     "properties": [
      {
       "name": "kind",
       "type": "string",
       "value": "ground"
      }
     ]
    },
    {
     "id": 11,
     "name": "",
     "class": "",
     "x": 3888,
     "y": 320,
     "width": 320,
     "height": 112,
     "rotation": 0,
     "visible": true,
     "properties": [
      {
       "name": "kind",
       "type": "string",
       "value": "ground"
      }
     ]
    },
    {
     "id": 12,
     "name": "",
     "class": "",
     "x": 4256,
     "y": 320,
     "width": 384,
     "height": 112,
     "rotation": 0,
     "visible": true,
     "properties": [
      {
       "name": "kind",
       "type": "string",
       "value": "ground"
      }
     ]
    },
    {
     "id": 13,
     "name": "",
     "class": "",
     "x": 4688,
     "y": 320,
     "width": 544,
     "height": 112,
     "rotation": 0,
     "visible": true,
     "properties": [
      {
       "name": "kind",
       "type": "string",
       "value": "ground"
      }
     ]
    },
    {
     "id": 14,
     "name": "",
     "class": "",
     "x": 4688,
     "y": 192,
     "width": 544,
     "height": 16,
     "rotation": 0,
     "visible": true,
     "properties": [
      {
       "name": "kind",
       "type": "string",
       "value": "platform"
      }
     ]
    },
    {
     "id": 15,
     "name": "",
     "class": "",
     "x": 5280,
     "y": 320,
     "width": 512,
     "height": 112,
     "rotation": 0,
     "visible": true,
     "properties": [
      {
       "name": "kind",
       "type": "string",
       "value": "ground"
      }
     ]
    }
   ]
  },
  {
   "id": 2,
   "name": "entities",
   "type": "objectgroup",
   "draworder": "index",
   "opacity": 1,
   "visible": true,
   "x": 0,
   "y": 0,
   "objects": [
    {
     "id": 16,
     "name": "",
     "class": "spawn",
     "x": 160,
     "y": 320,
     "width": 16,
     "height": 16,
     "rotation": 0,
     "visible": true
    },
    {
     "id": 17,
     "name": "",
     "class": "goal",
     "x": 5696,
     "y": 320,
     "width": 16,
     "height": 16,
     "rotation": 0,
     "visible": true
    },
    {
     "id": 18,
     "name": "",
     "class": "checkpoint",
     "x": 1120,
     "y": 320,
     "width": 16,
     "height": 16,
     "rotation": 0,
     "visible": true
    },
    {
     "id": 19,
     "name": "",
     "class": "checkpoint",
     "x": 2400,
     "y": 320,
     "width": 16,
     "height": 16,
     "rotation": 0,
     "visible": true
    },
    {
     "id": 20,
     "name": "",
     "class": "checkpoint",
     "x": 4128,
     "y": 320,
     "width": 16,
     "height": 16,
     "rotation": 0,
     "visible": true
    },
    {
     "id": 21,
     "name": "",
     "class": "checkpoint",
     "x": 5184,
     "y": 320,
     "width": 16,
     "height": 16,
     "rotation": 0,
     "visible": true
    },
    {
     "id": 22,
     "name": "",
     "class": "coin",
     "x": 192,
     "y": 288,
     "width": 16,
     "height": 16,
     "rotation": 0,
     "visible": true
    },
    {
     "id": 23,
     "name": "",
     "class": "coin",
     "x": 208,
     "y": 288,
     "width": 16,
     "height": 16,
     "rotation": 0,
     "visible": true
    },
    {
     "id": 24,
     "name": "",
     "class": "coin",
     "x": 224,
     "y": 288,
     "width": 16,
     "height": 16,
     "rotation": 0,
     "visible": true
    },
    {
     "id": 25,
     "name": "",
     "class": "coin",
     "x": 240,
     "y": 288,
     "width": 16,
     "height": 16,
     "rotation": 0,
     "visible": true
    },
    {
     "id": 26,
     "name": "",
     "class": "coin",
     "x": 256,
     "y": 288,
     "width": 16,
     "height": 16,
     "rotation": 0,
     "visible": true
    },
    {
     "id": 27,
     "name": "",
     "class": "coin",
     "x": 272,
     "y": 288,
     "width": 16,
     "height": 16,
     "rotation": 0,
     "visible": true
    },
    {
     "id": 28,
     "name": "",
     "class": "coin",
     "x": 416,
     "y": 224,
     "width": 16,
     "height": 16,
     "rotation": 0,
     "visible": true
    },
    {
     "id": 29,
     "name": "",
     "class": "coin",
     "x": 432,
     "y": 224,
     "width": 16,
     "height": 16,
     "rotation": 0,
     "visible": true
    },
    {
     "id": 30,
     "name": "",
     "class": "coin",
     "x": 448,
     "y": 224,
     "width": 16,
     "height": 16,
     "rotation": 0,
     "visible": true
    },
    {
     "id": 31,
     "name": "",
     "class": "coin",
     "x": 688,
     "y": 288,
     "width": 16,
     "height": 16,
     "rotation": 0,
     "visible": true
    },
    {
     "id": 32,
     "name": "",
     "class": "coin",
     "x": 704,
     "y": 272,
     "width": 16,
     "height": 16,
     "rotation": 0,
     "visible": true
    },
    {
     "id": 33,
     "name": "",
     "class": "coin",
     "x": 720,
     "y": 256,
     "width": 16,
     "height": 16,
     "rotation": 0,
     "visible": true
    },
    {
     "id": 34,
     "name": "",
     "class": "coin",
     "x": 736,
     "y": 256,
     "width": 16,
     "height": 16,
     "rotation": 0,
     "visible": true
    },
    {
     "id": 35,
     "name": "",
     "class": "coin",
     "x": 752,
     "y": 256,
     "width": 16,
     "height": 16,
     "rotation": 0,
     "visible": true
    },
    {
     "id": 36,
     "name": "",
     "class": "coin",
     "x": 768,
     "y": 256,
     "width": 16,
     "height": 16,
     "rotation": 0,
     "visible": true
    },
    {
     "id": 37,
     "name": "",
     "class": "coin",
     "x": 1408,
     "y": 240,
     "width": 16,
     "height": 16,
     "rotation": 0,
     "visible": true
    },
    {
     "id": 38,
     "name": "",
     "class": "coin",
     "x": 1424,
     "y": 240,
     "width": 16,
     "height": 16,
     "rotation": 0,
     "visible": true
    },
    {
     "id": 39,
     "name": "",
     "class": "coin",
     "x": 1440,
     "y": 240,
     "width": 16,
     "height": 16,
     "rotation": 0,
     "visible": true
    },
    {
     "id": 40,
     "name": "",
     "class": "coin",
     "x": 2112,
     "y": 288,
     "width": 16,
     "height": 16,
     "rotation": 0,
     "visible": true
    },
    {
     "id": 41,
     "name": "",
     "class": "coin",
     "x": 2128,
     "y": 288,
     "width": 16,
     "height": 16,
     "rotation": 0,
     "visible": true
    },
    {
     "id": 42,
     "name": "",
     "class": "coin",
     "x": 2144,
     "y": 288,
     "width": 16,
     "height": 16,
     "rotation": 0,
     "visible": true
    },
    {
     "id": 43,
     "name": "",
     "class": "coin",
     "x": 2160,
     "y": 288,
     "width": 16,
     "height": 16,
     "rotation": 0,
     "visible": true
    },
    {
     "id": 44,
     "name": "",
     "class": "coin",
     "x": 2640,
     "y": 288,
     "width": 16,
     "height": 16,
     "rotation": 0,
     "visible": true
    },
    {
     "id": 45,
     "name": "",
     "class": "coin",
     "x": 2656,
     "y": 288,
     "width": 16,
     "height": 16,
     "rotation": 0,
     "visible": true
    },
    {
     "id": 46,
     "name": "",
     "class": "coin",
     "x": 2672,
     "y": 288,
     "width": 16,
     "height": 16,
     "rotation": 0,
     "visible": true
    },
    {
     "id": 47,
     "name": "",
     "class": "coin",
     "x": 2688,
     "y": 288,
     "width": 16,
     "height": 16,
     "rotation": 0,
     "visible": true
    },
    {
     "id": 48,
     "name": "",
     "class": "coin",
     "x": 3040,
     "y": 288,
     "width": 16,
     "height": 16,
     "rotation": 0,
     "visible": true
    },
    {
     "id": 49,
     "name": "",
     "class": "coin",
     "x": 3056,
     "y": 288,
     "width": 16,
     "height": 16,
     "rotation": 0,
     "visible": true
    },
    {
     "id": 50,
     "name": "",
     "class": "coin",
     "x": 3072,
     "y": 288,
     "width": 16,
     "height": 16,
     "rotation": 0,
     "visible": true
    },
    {
     "id": 51,
     "name": "",
     "class": "coin",
     "x": 3088,
     "y": 288,
     "width": 16,
     "height": 16,
     "rotation": 0,
     "visible": true
    },
    {
     "id": 52,
     "name": "",
     "class": "coin",
     "x": 3104,
     "y": 288,
     "width": 16,
     "height": 16,
     "rotation": 0,
     "visible": true
    },
    {
     "id": 53,
     "name": "",
     "class": "coin",
     "x": 3552,
     "y": 288,
     "width": 16,
     "height": 16,
     "rotation": 0,
     "visible": true
    },
    {
     "id": 54,
     "name": "",
     "class": "coin",
     "x": 3568,
     "y": 288,
     "width": 16,
     "height": 16,
     "rotation": 0,
     "visible": true
    },
    {
     "id": 55,
     "name": "",
     "class": "coin",
     "x": 3584,
     "y": 288,
     "width": 16,
     "height": 16,
     "rotation": 0,
     "visible": true
    },
    {
     "id": 56,
     "name": "",
     "class": "coin",
     "x": 3600,
     "y": 288,
     "width": 16,
     "height": 16,
     "rotation": 0,
     "visible": true
    },
    {
     "id": 57,
     "name": "",
     "class": "coin",
     "x": 4352,
     "y": 224,
     "width": 16,
     "height": 16,
     "rotation": 0,
     "visible": true
    },
    {
     "id": 58,
     "name": "",
     "class": "coin",
     "x": 4368,
     "y": 224,
     "width": 16,
     "height": 16,
     "rotation": 0,
     "visible": true
    },
    {
     "id": 59,
     "name": "",
     "class": "coin",
     "x": 4384,
     "y": 224,
     "width": 16,
     "height": 16,
     "rotation": 0,
     "visible": true
    },
    {
     "id": 60,
     "name": "",
     "class": "coin",
     "x": 4880,
     "y": 288,
     "width": 16,
     "height": 16,
     "rotation": 0,
     "visible": true
    },
    {
     "id": 61,
     "name": "",
     "class": "coin",
     "x": 4896,
     "y": 288,
     "width": 16,
     "height": 16,
     "rotation": 0,
     "visible": true
    },
    {
     "id": 62,
     "name": "",
     "class": "coin",
     "x": 4912,
     "y": 288,
     "width": 16,
     "height": 16,
     "rotation": 0,
     "visible": true
    },
    {
     "id": 63,
     "name": "",
     "class": "coin",
     "x": 4928,
     "y": 288,
     "width": 16,
     "height": 16,
     "rotation": 0,
     "visible": true
    },
    {
     "id": 64,
     "name": "",
     "class": "coin",
     "x": 4944,
     "y": 288,
     "width": 16,
     "height": 16,
     "rotation": 0,
     "visible": true
    },
    {
     "id": 65,
     "name": "",
     "class": "coin",
     "x": 4960,
     "y": 288,
     "width": 16,
     "height": 16,
     "rotation": 0,
     "visible": true
    },
    {
     "id": 66,
     "name": "",
     "class": "coin",
     "x": 5344,
     "y": 288,
     "width": 16,
     "height": 16,
     "rotation": 0,
     "visible": true
    },
    {
     "id": 67,
     "name": "",
     "class": "coin",
     "x": 5360,
     "y": 288,
     "width": 16,
     "height": 16,
     "rotation": 0,
     "visible": true
    },
    {
     "id": 68,
     "name": "",
     "class": "coin",
     "x": 5376,
     "y": 288,
     "width": 16,
     "height": 16,
     "rotation": 0,
     "visible": true
    },
    {
     "id": 69,
     "name": "",
     "class": "coin",
     "x": 5392,
     "y": 288,
     "width": 16,
     "height": 16,
     "rotation": 0,
     "visible": true
    },
    {
     "id": 70,
     "name": "",
     "class": "coin",
     "x": 5408,
     "y": 288,
     "width": 16,
     "height": 16,
     "rotation": 0,
     "visible": true
    },
    {
     "id": 71,
     "name": "",
     "class": "coin",
     "x": 5424,
     "y": 288,
     "width": 16,
     "height": 16,
     "rotation": 0,
     "visible": true
    },
    {
     "id": 72,
     "name": "",
     "class": "coin",
     "x": 5440,
     "y": 288,
     "width": 16,
     "height": 16,
     "rotation": 0,
     "visible": true
    },
    {
     "id": 73,
     "name": "",
     "class": "coin",
     "x": 5456,
     "y": 288,
     "width": 16,
     "height": 16,
     "rotation": 0,
     "visible": true
    },
    {
     "id": 74,
     "name": "",
     "class": "block",
     "x": 1760,
     "y": 256,
     "width": 16,
     "height": 16,
     "rotation": 0,
     "visible": true,
     "properties": [
      {
       "name": "block",
       "type": "string",
       "value": "mystery"
      },
      {
       "name": "contents",
       "type": "string",
       "value": "cholent"
      }
     ]
    },
    {
     "id": 75,
     "name": "",
     "class": "block",
     "x": 2688,
     "y": 256,
     "width": 16,
     "height": 16,
     "rotation": 0,
     "visible": true,
     "properties": [
      {
       "name": "block",
       "type": "string",
       "value": "mystery"
      },
      {
       "name": "contents",
       "type": "string",
       "value": "lchaim"
      }
     ]
    },
    {
     "id": 76,
     "name": "",
     "class": "block",
     "x": 3136,
     "y": 256,
     "width": 16,
     "height": 16,
     "rotation": 0,
     "visible": true,
     "properties": [
      {
       "name": "block",
       "type": "string",
       "value": "mystery"
      },
      {
       "name": "contents",
       "type": "string",
       "value": "cholent"
      }
     ]
    },
    {
     "id": 77,
     "name": "",
     "class": "block",
     "x": 5088,
     "y": 256,
     "width": 16,
     "height": 16,
     "rotation": 0,
     "visible": true,
     "properties": [
      {
       "name": "block",
       "type": "string",
       "value": "mystery"
      },
      {
       "name": "contents",
       "type": "string",
       "value": "lchaim"
      }
     ]
    },
    {
     "id": 78,
     "name": "",
     "class": "enemy",
     "x": 1088,
     "y": 256,
     "width": 16,
     "height": 16,
     "rotation": 0,
     "visible": true,
     "properties": [
      {
       "name": "enemy",
       "type": "string",
       "value": "pigeon"
      }
     ]
    },
    {
     "id": 79,
     "name": "",
     "class": "enemy",
     "x": 1696,
     "y": 256,
     "width": 16,
     "height": 16,
     "rotation": 0,
     "visible": true,
     "properties": [
      {
       "name": "enemy",
       "type": "string",
       "value": "pigeon"
      }
     ]
    },
    {
     "id": 80,
     "name": "",
     "class": "enemy",
     "x": 1824,
     "y": 272,
     "width": 16,
     "height": 16,
     "rotation": 0,
     "visible": true,
     "properties": [
      {
       "name": "enemy",
       "type": "string",
       "value": "pigeon"
      }
     ]
    },
    {
     "id": 81,
     "name": "",
     "class": "enemy",
     "x": 2592,
     "y": 320,
     "width": 16,
     "height": 16,
     "rotation": 0,
     "visible": true,
     "properties": [
      {
       "name": "enemy",
       "type": "string",
       "value": "rat"
      }
     ]
    },
    {
     "id": 82,
     "name": "",
     "class": "enemy",
     "x": 2720,
     "y": 320,
     "width": 16,
     "height": 16,
     "rotation": 0,
     "visible": true,
     "properties": [
      {
       "name": "enemy",
       "type": "string",
       "value": "rat"
      }
     ]
    },
    {
     "id": 83,
     "name": "",
     "class": "enemy",
     "x": 2848,
     "y": 320,
     "width": 16,
     "height": 16,
     "rotation": 0,
     "visible": true,
     "properties": [
      {
       "name": "enemy",
       "type": "string",
       "value": "rat"
      }
     ]
    },
    {
     "id": 84,
     "name": "",
     "class": "enemy",
     "x": 3968,
     "y": 256,
     "width": 16,
     "height": 16,
     "rotation": 0,
     "visible": true,
     "properties": [
      {
       "name": "enemy",
       "type": "string",
       "value": "pigeon"
      }
     ]
    },
    {
     "id": 85,
     "name": "",
     "class": "enemy",
     "x": 4096,
     "y": 272,
     "width": 16,
     "height": 16,
     "rotation": 0,
     "visible": true,
     "properties": [
      {
       "name": "enemy",
       "type": "string",
       "value": "pigeon"
      }
     ]
    },
    {
     "id": 86,
     "name": "",
     "class": "enemy",
     "x": 4448,
     "y": 320,
     "width": 16,
     "height": 16,
     "rotation": 0,
     "visible": true,
     "properties": [
      {
       "name": "enemy",
       "type": "string",
       "value": "rat"
      }
     ]
    },
    {
     "id": 87,
     "name": "",
     "class": "enemy",
     "x": 4544,
     "y": 320,
     "width": 16,
     "height": 16,
     "rotation": 0,
     "visible": true,
     "properties": [
      {
       "name": "enemy",
       "type": "string",
       "value": "rat"
      }
     ]
    },
    {
     "id": 88,
     "name": "",
     "class": "enemy",
     "x": 4800,
     "y": 256,
     "width": 16,
     "height": 16,
     "rotation": 0,
     "visible": true,
     "properties": [
      {
       "name": "enemy",
       "type": "string",
       "value": "pigeon"
      }
     ]
    },
    {
     "id": 89,
     "name": "",
     "class": "enemy",
     "x": 4992,
     "y": 256,
     "width": 16,
     "height": 16,
     "rotation": 0,
     "visible": true,
     "properties": [
      {
       "name": "enemy",
       "type": "string",
       "value": "pigeon"
      }
     ]
    },
    {
     "id": 90,
     "name": "",
     "class": "enemy",
     "x": 5504,
     "y": 256,
     "width": 16,
     "height": 16,
     "rotation": 0,
     "visible": true,
     "properties": [
      {
       "name": "enemy",
       "type": "string",
       "value": "pigeon"
      }
     ]
    },
    {
     "id": 91,
     "name": "",
     "class": "stroller",
     "x": 16,
     "y": 320,
     "width": 16,
     "height": 16,
     "rotation": 0,
     "visible": true,
     "properties": [
      {
       "name": "direction",
       "type": "int",
       "value": 1
      }
     ]
    },
    {
     "id": 92,
     "name": "",
     "class": "pipe",
     "x": 2080,
     "y": 192,
     "width": 16,
     "height": 16,
     "rotation": 0,
     "visible": true,
     "properties": [
      {
       "name": "direction",
       "type": "int",
       "value": -1
      }
     ]
    },
    {
     "id": 93,
     "name": "",
     "class": "pipe",
     "x": 2192,
     "y": 192,
     "width": 16,
     "height": 16,
     "rotation": 0,
     "visible": true,
     "properties": [
      {
       "name": "direction",
       "type": "int",
       "value": -1
      }
     ]
    },
    {
     "id": 94,
     "name": "",
     "class": "pipe",
     "x": 2304,
     "y": 192,
     "width": 16,
     "height": 16,
     "rotation": 0,
     "visible": true,
     "properties": [
      {
       "name": "direction",
       "type": "int",
       "value": -1
      }
     ]
    },
    {
     "id": 95,
     "name": "",
     "class": "pipe",
     "x": 2400,
     "y": 192,
     "width": 16,
     "height": 16,
     "rotation": 0,
     "visible": true,
     "properties": [
      {
       "name": "direction",
       "type": "int",
       "value": -1
      }
     ]
    },
    {
     "id": 96,
     "name": "",
     "class": "cart",
     "x": 3360,
     "y": 320,
     "width": 16,
     "height": 16,
     "rotation": 0,
     "visible": true,
     "properties": [
      {
       "name": "direction",
       "type": "int",
       "value": -1
      }
     ]
    },
    {
     "id": 97,
     "name": "",
     "class": "van",
     "x": 3712,
     "y": 320,
     "width": 16,
     "height": 16,
     "rotation": 0,
     "visible": true,
     "properties": [
      {
       "name": "direction",
       "type": "int",
       "value": -1
      }
     ]
    },
    {
     "id": 98,
     "name": "",
     "class": "cart",
     "x": 4576,
     "y": 320,
     "width": 16,
     "height": 16,
     "rotation": 0,
     "visible": true,
     "properties": [
      {
       "name": "direction",
       "type": "int",
       "value": -1
      }
     ]
    },
    {
     "id": 99,
     "name": "",
     "class": "cart",
     "x": 4624,
     "y": 320,
     "width": 16,
     "height": 16,
     "rotation": 0,
     "visible": true,
     "properties": [
      {
       "name": "direction",
       "type": "int",
       "value": -1
      }
     ]
    },
    {
     "id": 100,
     "name": "",
     "class": "pipe",
     "x": 4752,
     "y": 192,
     "width": 16,
     "height": 16,
     "rotation": 0,
     "visible": true,
     "properties": [
      {
       "name": "direction",
       "type": "int",
       "value": -1
      }
     ]
    },
    {
     "id": 101,
     "name": "",
     "class": "pipe",
     "x": 4848,
     "y": 192,
     "width": 16,
     "height": 16,
     "rotation": 0,
     "visible": true,
     "properties": [
      {
       "name": "direction",
       "type": "int",
       "value": -1
      }
     ]
    },
    {
     "id": 102,
     "name": "",
     "class": "pipe",
     "x": 4944,
     "y": 192,
     "width": 16,
     "height": 16,
     "rotation": 0,
     "visible": true,
     "properties": [
      {
       "name": "direction",
       "type": "int",
       "value": -1
      }
     ]
    },
    {
     "id": 103,
     "name": "",
     "class": "pipe",
     "x": 5040,
     "y": 192,
     "width": 16,
     "height": 16,
     "rotation": 0,
     "visible": true,
     "properties": [
      {
       "name": "direction",
       "type": "int",
       "value": -1
      }
     ]
    },
    {
     "id": 104,
     "name": "",
     "class": "pipe",
     "x": 5136,
     "y": 192,
     "width": 16,
     "height": 16,
     "rotation": 0,
     "visible": true,
     "properties": [
      {
       "name": "direction",
       "type": "int",
       "value": -1
      }
     ]
    },
    {
     "id": 105,
     "name": "",
     "class": "bounce",
     "x": 416,
     "y": 272,
     "width": 48,
     "height": 16,
     "rotation": 0,
     "visible": true
    },
    {
     "id": 106,
     "name": "",
     "class": "bounce",
     "x": 1408,
     "y": 304,
     "width": 48,
     "height": 16,
     "rotation": 0,
     "visible": true
    },
    {
     "id": 107,
     "name": "",
     "class": "bounce",
     "x": 2784,
     "y": 272,
     "width": 48,
     "height": 16,
     "rotation": 0,
     "visible": true
    },
    {
     "id": 108,
     "name": "",
     "class": "bounce",
     "x": 4352,
     "y": 272,
     "width": 48,
     "height": 16,
     "rotation": 0,
     "visible": true
    },
    {
     "id": 109,
     "name": "",
     "class": "label",
     "x": 160,
     "y": 240,
     "width": 16,
     "height": 16,
     "rotation": 0,
     "visible": true,
     "properties": [
      {
       "name": "text",
       "type": "string",
       "value": "RUN."
      }
     ]
    },
    {
     "id": 110,
     "name": "",
     "class": "label",
     "x": 160,
     "y": 256,
     "width": 16,
     "height": 16,
     "rotation": 0,
     "visible": true,
     "properties": [
      {
       "name": "text",
       "type": "string",
       "value": "the stroller does not get tired and neither does the screen."
      }
     ]
    },
    {
     "id": 111,
     "name": "",
     "class": "label",
     "x": 2000,
     "y": 256,
     "width": 16,
     "height": 16,
     "rotation": 0,
     "visible": true,
     "properties": [
      {
       "name": "text",
       "type": "string",
       "value": "SCAFFOLDING — WATCH THE GROUND"
      }
     ]
    },
    {
     "id": 112,
     "name": "",
     "class": "label",
     "x": 3504,
     "y": 256,
     "width": 16,
     "height": 16,
     "rotation": 0,
     "visible": true,
     "properties": [
      {
       "name": "text",
       "type": "string",
       "value": "OVER THE ROOF"
      }
     ]
    },
    {
     "id": 113,
     "name": "",
     "class": "label",
     "x": 5536,
     "y": 256,
     "width": 16,
     "height": 16,
     "rotation": 0,
     "visible": true,
     "properties": [
      {
       "name": "text",
       "type": "string",
       "value": "ALMOST"
      }
     ]
    }
   ]
  }
 ]
}
