{
 "compressionlevel": -1,
 "width": 312,
 "height": 27,
 "tilewidth": 16,
 "tileheight": 16,
 "infinite": false,
 "orientation": "orthogonal",
 "renderorder": "right-down",
 "tiledversion": "1.11.0",
 "type": "map",
 "version": "1.10",
 "nextlayerid": 3,
 "nextobjectid": 127,
 "tilesets": [],
 "properties": [
  {
   "name": "name",
   "type": "string",
   "value": "Backyards"
  },
  {
   "name": "backgroundColor",
   "type": "string",
   "value": "0x1d1b2a"
  },
  {
   "name": "groundRow",
   "type": "string",
   "value": "20"
  },
  {
   "name": "backdrop",
   "type": "string",
   "value": "five_towns_dusk"
  }
 ],
 "layers": [
  {
   "id": 1,
   "name": "solids",
   "type": "objectgroup",
   "draworder": "index",
   "opacity": 1,
   "visible": true,
   "x": 0,
   "y": 0,
   "objects": [
    {
     "id": 1,
     "name": "",
     "class": "",
     "x": 0,
     "y": 320,
     "width": 544,
     "height": 112,
     "rotation": 0,
     "visible": true,
     "properties": [
      {
       "name": "kind",
       "type": "string",
       "value": "ground"
      }
     ]
    },
    {
     "id": 2,
     "name": "",
     "class": "",
     "x": 352,
     "y": 240,
     "width": 16,
     "height": 80,
     "rotation": 0,
     "visible": true,
     "properties": [
      {
       "name": "kind",
       "type": "string",
       "value": "wall"
      }
     ]
    },
    {
     "id": 3,
     "name": "",
     "class": "",
     "x": 592,
     "y": 320,
     "width": 640,
     "height": 112,
     "rotation": 0,
     "visible": true,
     "properties": [
      {
       "name": "kind",
       "type": "string",
       "value": "ground"
      }
     ]
    },
    {
     "id": 4,
     "name": "",
     "class": "",
     "x": 960,
     "y": 208,
     "width": 224,
     "height": 16,
     "rotation": 0,
     "visible": true,
     "properties": [
      {
       "name": "kind",
       "type": "string",
       "value": "platform"
      }
     ]
    },
    {
     "id": 5,
     "name": "",
     "class": "",
     "x": 1120,
     "y": 288,
     "width": 80,
     "height": 32,
     "rotation": 0,
     "visible": true,
     "properties": [
      {
       "name": "kind",
       "type": "string",
       "value": "platform"
      }
     ]
    },
    {
     "id": 6,
     "name": "",
     "class": "",
     "x": 1280,
     "y": 320,
     "width": 416,
     "height": 112,
     "rotation": 0,
     "visible": true,
     "properties": [
      {
       "name": "kind",
       "type": "string",
       "value": "ground"
      }
     ]
    },
    {
     "id": 7,
     "name": "",
     "class": "",
     "x": 1744,
     "y": 320,
     "width": 480,
     "height": 112,
     "rotation": 0,
     "visible": true,
     "properties": [
      {
       "name": "kind",
       "type": "string",
       "value": "ground"
      }
     ]
    },
    {
     "id": 8,
     "name": "",
     "class": "",
     "x": 2016,
     "y": 288,
     "width": 64,
     "height": 32,
     "rotation": 0,
     "visible": true,
     "properties": [
      {
       "name": "kind",
       "type": "string",
       "value": "platform"
      }
     ]
    },
    {
     "id": 9,
     "name": "",
     "class": "",
     "x": 2144,
     "y": 288,
     "width": 64,
     "height": 32,
     "rotation": 0,
     "visible": true,
     "properties": [
      {
       "name": "kind",
       "type": "string",
       "value": "platform"
      }
     ]
    },
    {
     "id": 10,
     "name": "",
     "class": "",
     "x": 2272,
     "y": 320,
     "width": 976,
     "height": 112,
     "rotation": 0,
     "visible": true,
     "properties": [
      {
       "name": "kind",
       "type": "string",
       "value": "ground"
      }
     ]
    },
    {
     "id": 11,
     "name": "",
     "class": "",
     "x": 2400,
     "y": 240,
     "width": 16,
     "height": 80,
     "rotation": 0,
     "visible": true,
     "properties": [
      {
       "name": "kind",
       "type": "string",
       "value": "wall"
      }
     ]
    },
    {
     "id": 12,
     "name": "",
     "class": "",
     "x": 2688,
     "y": 240,
     "width": 16,
     "height": 80,
     "rotation": 0,
     "visible": true,
     "properties": [
      {
       "name": "kind",
       "type": "string",
       "value": "wall"
      }
     ]
    },
    {
     "id": 13,
     "name": "",
     "class": "",
     "x": 2976,
     "y": 240,
     "width": 16,
     "height": 80,
     "rotation": 0,
     "visible": true,
     "properties": [
      {
       "name": "kind",
       "type": "string",
       "value": "wall"
      }
     ]
    },
    {
     "id": 14,
     "name": "",
     "class": "",
     "x": 3296,
     "y": 320,
     "width": 656,
     "height": 112,
     "rotation": 0,
     "visible": true,
     "properties": [
      {
       "name": "kind",
       "type": "string",
       "value": "ground"
      }
     ]
    },
    {
     "id": 15,
     "name": "",
     "class": "",
     "x": 3680,
     "y": 208,
     "width": 192,
     "height": 16,
     "rotation": 0,
     "visible": true,
     "properties": [
      {
       "name": "kind",
       "type": "string",
       "value": "platform"
      }
     ]
    },
    {
     "id": 16,
     "name": "",
     "class": "",
     "x": 4000,
     "y": 320,
     "width": 992,
     "height": 112,
     "rotation": 0,
     "visible": true,
     "properties": [
      {
       "name": "kind",
       "type": "string",
       "value": "ground"
      }
     ]
    },
    {
     "id": 17,
     "name": "",
     "class": "",
     "x": 4192,
     "y": 208,
     "width": 192,
     "height": 16,
     "rotation": 0,
     "visible": true,
     "properties": [
      {
       "name": "kind",
       "type": "string",
       "value": "platform"
      }
     ]
    },
    {
     "id": 18,
     "name": "",
     "class": "",
     "x": 4400,
     "y": 144,
     "width": 128,
     "height": 16,
     "rotation": 0,
     "visible": true,
     "properties": [
      {
       "name": "kind",
       "type": "string",
       "value": "platform"
      }
     ]
    }
   ]
  },
  {
   "id": 2,
   "name": "entities",
   "type": "objectgroup",
   "draworder": "index",
   "opacity": 1,
   "visible": true,
   "x": 0,
   "y": 0,
   "objects": [
    {
     "id": 19,
     "name": "",
     "class": "spawn",
     "x": 48,
     "y": 320,
     "width": 16,
     "height": 16,
     "rotation": 0,
     "visible": true
    },
    {
     "id": 20,
     "name": "",
     "class": "goal",
     "x": 4896,
     "y": 320,
     "width": 16,
     "height": 16,
     "rotation": 0,
     "visible": true
    },
    {
     "id": 21,
     "name": "",
     "class": "checkpoint",
     "x": 496,
     "y": 320,
     "width": 16,
     "height": 16,
     "rotation": 0,
     "visible": true
    },
    {
     "id": 22,
     "name": "",
     "class": "checkpoint",
     "x": 1792,
     "y": 320,
     "width": 16,
     "height": 16,
     "rotation": 0,
     "visible": true
    },
    {
     "id": 23,
     "name": "",
     "class": "checkpoint",
     "x": 3168,
     "y": 320,
     "width": 16,
     "height": 16,
     "rotation": 0,
     "visible": true
    },
    {
     "id": 24,
     "name": "",
     "class": "coin",
     "x": 112,
     "y": 288,
     "width": 16,
     "height": 16,
     "rotation": 0,
     "visible": true
    },
    {
     "id": 25,
     "name": "",
     "class": "coin",
     "x": 128,
     "y": 288,
     "width": 16,
     "height": 16,
     "rotation": 0,
     "visible": true
    },
    {
     "id": 26,
     "name": "",
     "class": "coin",
     "x": 144,
     "y": 288,
     "width": 16,
     "height": 16,
     "rotation": 0,
     "visible": true
    },
    {
     "id": 27,
     "name": "",
     "class": "coin",
     "x": 160,
     "y": 288,
     "width": 16,
     "height": 16,
     "rotation": 0,
     "visible": true
    },
    {
     "id": 28,
     "name": "",
     "class": "coin",
     "x": 288,
     "y": 208,
     "width": 16,
     "height": 16,
     "rotation": 0,
     "visible": true
    },
    {
     "id": 29,
     "name": "",
     "class": "coin",
     "x": 304,
     "y": 208,
     "width": 16,
     "height": 16,
     "rotation": 0,
     "visible": true
    },
    {
     "id": 30,
     "name": "",
     "class": "coin",
     "x": 320,
     "y": 208,
     "width": 16,
     "height": 16,
     "rotation": 0,
     "visible": true
    },
    {
     "id": 31,
     "name": "",
     "class": "coin",
     "x": 384,
     "y": 288,
     "width": 16,
     "height": 16,
     "rotation": 0,
     "visible": true
    },
    {
     "id": 32,
     "name": "",
     "class": "coin",
     "x": 400,
     "y": 288,
     "width": 16,
     "height": 16,
     "rotation": 0,
     "visible": true
    },
    {
     "id": 33,
     "name": "",
     "class": "coin",
     "x": 416,
     "y": 288,
     "width": 16,
     "height": 16,
     "rotation": 0,
     "visible": true
    },
    {
     "id": 34,
     "name": "",
     "class": "coin",
     "x": 432,
     "y": 288,
     "width": 16,
     "height": 16,
     "rotation": 0,
     "visible": true
    },
    {
     "id": 35,
     "name": "",
     "class": "coin",
     "x": 992,
     "y": 176,
     "width": 16,
     "height": 16,
     "rotation": 0,
     "visible": true
    },
    {
     "id": 36,
     "name": "",
     "class": "coin",
     "x": 1008,
     "y": 176,
     "width": 16,
     "height": 16,
     "rotation": 0,
     "visible": true
    },
    {
     "id": 37,
     "name": "",
     "class": "coin",
     "x": 1024,
     "y": 176,
     "width": 16,
     "height": 16,
     "rotation": 0,
     "visible": true
    },
    {
     "id": 38,
     "name": "",
     "class": "coin",
     "x": 1040,
     "y": 176,
     "width": 16,
     "height": 16,
     "rotation": 0,
     "visible": true
    },
    {
     "id": 39,
     "name": "",
     "class": "coin",
     "x": 1056,
     "y": 176,
     "width": 16,
     "height": 16,
     "rotation": 0,
     "visible": true
    },
    {
     "id": 40,
     "name": "",
     "class": "coin",
     "x": 1072,
     "y": 176,
     "width": 16,
     "height": 16,
     "rotation": 0,
     "visible": true
    },
    {
     "id": 41,
     "name": "",
     "class": "coin",
     "x": 1504,
     "y": 288,
     "width": 16,
     "height": 16,
     "rotation": 0,
     "visible": true
    },
    {
     "id": 42,
     "name": "",
     "class": "coin",
     "x": 1520,
     "y": 288,
     "width": 16,
     "height": 16,
     "rotation": 0,
     "visible": true
    },
    {
     "id": 43,
     "name": "",
     "class": "coin",
     "x": 1536,
     "y": 288,
     "width": 16,
     "height": 16,
     "rotation": 0,
     "visible": true
    },
    {
     "id": 44,
     "name": "",
     "class": "coin",
     "x": 1552,
     "y": 288,
     "width": 16,
     "height": 16,
     "rotation": 0,
     "visible": true
    },
    {
     "id": 45,
     "name": "",
     "class": "coin",
     "x": 1568,
     "y": 288,
     "width": 16,
     "height": 16,
     "rotation": 0,
     "visible": true
    },
    {
     "id": 46,
     "name": "",
     "class": "coin",
     "x": 1584,
     "y": 288,
     "width": 16,
     "height": 16,
     "rotation": 0,
     "visible": true
    },
    {
     "id": 47,
     "name": "",
     "class": "coin",
     "x": 2016,
     "y": 256,
     "width": 16,
     "height": 16,
     "rotation": 0,
     "visible": true
    },
    {
     "id": 48,
     "name": "",
     "class": "coin",
     "x": 2032,
     "y": 256,
     "width": 16,
     "height": 16,
     "rotation": 0,
     "visible": true
    },
    {
     "id": 49,
     "name": "",
     "class": "coin",
     "x": 2048,
     "y": 256,
     "width": 16,
     "height": 16,
     "rotation": 0,
     "visible": true
    },
    {
     "id": 50,
     "name": "",
     "class": "coin",
     "x": 2064,
     "y": 256,
     "width": 16,
     "height": 16,
     "rotation": 0,
     "visible": true
    },
    {
     "id": 51,
     "name": "",
     "class": "coin",
     "x": 2144,
     "y": 256,
     "width": 16,
     "height": 16,
     "rotation": 0,
     "visible": true
    },
    {
     "id": 52,
     "name": "",
     "class": "coin",
     "x": 2160,
     "y": 256,
     "width": 16,
     "height": 16,
     "rotation": 0,
     "visible": true
    },
    {
     "id": 53,
     "name": "",
     "class": "coin",
     "x": 2176,
     "y": 256,
     "width": 16,
     "height": 16,
     "rotation": 0,
     "visible": true
    },
    {
     "id": 54,
     "name": "",
     "class": "coin",
     "x": 2192,
     "y": 256,
     "width": 16,
     "height": 16,
     "rotation": 0,
     "visible": true
    },
    {
     "id": 55,
     "name": "",
     "class": "coin",
     "x": 2336,
     "y": 192,
     "width": 16,
     "height": 16,
     "rotation": 0,
     "visible": true
    },
    {
     "id": 56,
     "name": "",
     "class": "coin",
     "x": 2352,
     "y": 192,
     "width": 16,
     "height": 16,
     "rotation": 0,
     "visible": true
    },
    {
     "id": 57,
     "name": "",
     "class": "coin",
     "x": 2368,
     "y": 192,
     "width": 16,
     "height": 16,
     "rotation": 0,
     "visible": true
    },
    {
     "id": 58,
     "name": "",
     "class": "coin",
     "x": 2624,
     "y": 192,
     "width": 16,
     "height": 16,
     "rotation": 0,
     "visible": true
    },
    {
     "id": 59,
     "name": "",
     "class": "coin",
     "x": 2640,
     "y": 192,
     "width": 16,
     "height": 16,
     "rotation": 0,
     "visible": true
    },
    {
     "id": 60,
     "name": "",
     "class": "coin",
     "x": 2656,
     "y": 192,
     "width": 16,
     "height": 16,
     "rotation": 0,
     "visible": true
    },
    {
     "id": 61,
     "name": "",
     "class": "coin",
     "x": 2912,
     "y": 192,
     "width": 16,
     "height": 16,
     "rotation": 0,
     "visible": true
    },
    {
     "id": 62,
     "name": "",
     "class": "coin",
     "x": 2928,
     "y": 192,
     "width": 16,
     "height": 16,
     "rotation": 0,
     "visible": true
    },
    {
     "id": 63,
     "name": "",
     "class": "coin",
     "x": 2944,
     "y": 192,
     "width": 16,
     "height": 16,
     "rotation": 0,
     "visible": true
    },
    {
     "id": 64,
     "name": "",
     "class": "coin",
     "x": 3424,
     "y": 288,
     "width": 16,
     "height": 16,
     "rotation": 0,
     "visible": true
    },
    {
     "id": 65,
     "name": "",
     "class": "coin",
     "x": 3440,
     "y": 288,
     "width": 16,
     "height": 16,
     "rotation": 0,
     "visible": true
    },
    {
     "id": 66,
     "name": "",
     "class": "coin",
     "x": 3456,
     "y": 288,
     "width": 16,
     "height": 16,
     "rotation": 0,
     "visible": true
    },
    {
     "id": 67,
     "name": "",
     "class": "coin",
     "x": 3472,
     "y": 288,
     "width": 16,
     "height": 16,
     "rotation": 0,
     "visible": true
    },
    {
     "id": 68,
     "name": "",
     "class": "coin",
     "x": 3488,
     "y": 288,
     "width": 16,
     "height": 16,
     "rotation": 0,
     "visible": true
    },
    {
     "id": 69,
     "name": "",
     "class": "coin",
     "x": 3504,
     "y": 288,
     "width": 16,
     "height": 16,
     "rotation": 0,
     "visible": true
    },
    {
     "id": 70,
     "name": "",
     "class": "coin",
     "x": 3520,
     "y": 288,
     "width": 16,
     "height": 16,
     "rotation": 0,
     "visible": true
    },
    {
     "id": 71,
     "name": "",
     "class": "coin",
     "x": 3536,
     "y": 288,
     "width": 16,
     "height": 16,
     "rotation": 0,
     "visible": true
    },
    {
     "id": 72,
     "name": "",
     "class": "coin",
     "x": 3712,
     "y": 176,
     "width": 16,
     "height": 16,
     "rotation": 0,
     "visible": true
    },
    {
     "id": 73,
     "name": "",
     "class": "coin",
     "x": 3728,
     "y": 176,
     "width": 16,
     "height": 16,
     "rotation": 0,
     "visible": true
    },
    {
     "id": 74,
     "name": "",
     "class": "coin",
     "x": 3744,
     "y": 176,
     "width": 16,
     "height": 16,
     "rotation": 0,
     "visible": true
    },
    {
     "id": 75,
     "name": "",
     "class": "coin",
     "x": 3760,
     "y": 176,
     "width": 16,
     "height": 16,
     "rotation": 0,
     "visible": true
    },
    {
     "id": 76,
     "name": "",
     "class": "coin",
     "x": 3776,
     "y": 176,
     "width": 16,
     "height": 16,
     "rotation": 0,
     "visible": true
    },
    {
     "id": 77,
     "name": "",
     "class": "coin",
     "x": 3792,
     "y": 176,
     "width": 16,
     "height": 16,
     "rotation": 0,
     "visible": true
    },
    {
     "id": 78,
     "name": "",
     "class": "coin",
     "x": 4224,
     "y": 176,
     "width": 16,
     "height": 16,
     "rotation": 0,
     "visible": true
    },
    {
     "id": 79,
     "name": "",
     "class": "coin",
     "x": 4240,
     "y": 176,
     "width": 16,
     "height": 16,
     "rotation": 0,
     "visible": true
    },
    {
     "id": 80,
     "name": "",
     "class": "coin",
     "x": 4256,
     "y": 176,
     "width": 16,
     "height": 16,
     "rotation": 0,
     "visible": true
    },
    {
     "id": 81,
     "name": "",
     "class": "coin",
     "x": 4272,
     "y": 176,
     "width": 16,
     "height": 16,
     "rotation": 0,
     "visible": true
    },
    {
     "id": 82,
     "name": "",
     "class": "coin",
     "x": 4288,
     "y": 176,
     "width": 16,
     "height": 16,
     "rotation": 0,
     "visible": true
    },
    {
     "id": 83,
     "name": "",
     "class": "coin",
     "x": 4304,
     "y": 176,
     "width": 16,
     "height": 16,
     "rotation": 0,
     "visible": true
    },
    {
     "id": 84,
     "name": "",
     "class": "coin",
     "x": 4576,
     "y": 288,
     "width": 16,
     "height": 16,
     "rotation": 0,
     "visible": true
    },
    {
     "id": 85,
     "name": "",
     "class": "coin",
     "x": 4592,
     "y": 288,
     "width": 16,
     "height": 16,
     "rotation": 0,
     "visible": true
    },
    {
     "id": 86,
     "name": "",
     "class": "coin",
     "x": 4608,
     "y": 288,
     "width": 16,
     "height": 16,
     "rotation": 0,
     "visible": true
    },
    {
     "id": 87,
     "name": "",
     "class": "coin",
     "x": 4624,
     "y": 288,
     "width": 16,
     "height": 16,
     "rotation": 0,
     "visible": true
    },
    {
     "id": 88,
     "name": "",
     "class": "coin",
     "x": 4640,
     "y": 288,
     "width": 16,
     "height": 16,
     "rotation": 0,
     "visible": true
    },
    {
     "id": 89,
     "name": "",
     "class": "coin",
     "x": 4656,
     "y": 288,
     "width": 16,
     "height": 16,
     "rotation": 0,
     "visible": true
    },
    {
     "id": 90,
     "name": "",
     "class": "block",
     "x": 1088,
     "y": 176,
     "width": 16,
     "height": 16,
     "rotation": 0,
     "visible": true,
     "properties": [
      {
       "name": "block",
       "type": "string",
       "value": "mystery"
      },
      {
       "name": "contents",
       "type": "string",
       "value": "lchaim"
      }
     ]
    },
    {
     "id": 91,
     "name": "",
     "class": "block",
     "x": 2528,
     "y": 240,
     "width": 16,
     "height": 16,
     "rotation": 0,
     "visible": true,
     "properties": [
      {
       "name": "block",
       "type": "string",
       "value": "reinforced"
      },
      {
       "name": "contents",
       "type": "string",
       "value": "coin"
      }
     ]
    },
    {
     "id": 92,
     "name": "",
     "class": "block",
     "x": 2544,
     "y": 240,
     "width": 16,
     "height": 16,
     "rotation": 0,
     "visible": true,
     "properties": [
      {
       "name": "block",
       "type": "string",
       "value": "mystery"
      },
      {
       "name": "contents",
       "type": "string",
       "value": "lchaim"
      }
     ]
    },
    {
     "id": 93,
     "name": "",
     "class": "block",
     "x": 4448,
     "y": 112,
     "width": 16,
     "height": 16,
     "rotation": 0,
     "visible": true,
     "properties": [
      {
       "name": "block",
       "type": "string",
       "value": "mystery"
      },
      {
       "name": "contents",
       "type": "string",
       "value": "lchaim"
      }
     ]
    },
    {
     "id": 94,
     "name": "",
     "class": "enemy",
     "x": 464,
     "y": 320,
     "width": 16,
     "height": 16,
     "rotation": 0,
     "visible": true,
     "properties": [
      {
       "name": "enemy",
       "type": "string",
       "value": "chipmunk"
      }
     ]
    },
    {
     "id": 95,
     "name": "",
     "class": "enemy",
     "x": 1056,
     "y": 320,
     "width": 16,
     "height": 16,
     "rotation": 0,
     "visible": true,
     "properties": [
      {
       "name": "enemy",
       "type": "string",
       "value": "goose"
      }
     ]
    },
    {
     "id": 96,
     "name": "",
     "class": "enemy",
     "x": 1856,
     "y": 320,
     "width": 16,
     "height": 16,
     "rotation": 0,
     "visible": true,
     "properties": [
      {
       "name": "enemy",
       "type": "string",
       "value": "chipmunk"
      }
     ]
    },
    {
     "id": 97,
     "name": "",
     "class": "enemy",
     "x": 1984,
     "y": 320,
     "width": 16,
     "height": 16,
     "rotation": 0,
     "visible": true,
     "properties": [
      {
       "name": "enemy",
       "type": "string",
       "value": "goose"
      }
     ]
    },
    {
     "id": 98,
     "name": "",
     "class": "enemy",
     "x": 2496,
     "y": 320,
     "width": 16,
     "height": 16,
     "rotation": 0,
     "visible": true,
     "properties": [
      {
       "name": "enemy",
       "type": "string",
       "value": "goose"
      }
     ]
    },
    {
     "id": 99,
     "name": "",
     "class": "enemy",
     "x": 2784,
     "y": 320,
     "width": 16,
     "height": 16,
     "rotation": 0,
     "visible": true,
     "properties": [
      {
       "name": "enemy",
       "type": "string",
       "value": "goose"
      }
     ]
    },
    {
     "id": 100,
     "name": "",
     "class": "enemy",
     "x": 3072,
     "y": 320,
     "width": 16,
     "height": 16,
     "rotation": 0,
     "visible": true,
     "properties": [
      {
       "name": "enemy",
       "type": "string",
       "value": "chipmunk"
      }
     ]
    },
    {
     "id": 101,
     "name": "",
     "class": "enemy",
     "x": 3808,
     "y": 320,
     "width": 16,
     "height": 16,
     "rotation": 0,
     "visible": true,
     "properties": [
      {
       "name": "enemy",
       "type": "string",
       "value": "goose"
      }
     ]
    },
    {
     "id": 102,
     "name": "",
     "class": "enemy",
     "x": 4544,
     "y": 320,
     "width": 16,
     "height": 16,
     "rotation": 0,
     "visible": true,
     "properties": [
      {
       "name": "enemy",
       "type": "string",
       "value": "goose"
      }
     ]
    },
    {
     "id": 103,
     "name": "",
     "class": "enemy",
     "x": 4672,
     "y": 320,
     "width": 16,
     "height": 16,
     "rotation": 0,
     "visible": true,
     "properties": [
      {
       "name": "enemy",
       "type": "string",
       "value": "chipmunk"
      }
     ]
    },
    {
     "id": 104,
     "name": "",
     "class": "blower",
     "x": 1472,
     "y": 240,
     "width": 192,
     "height": 80,
     "rotation": 0,
     "visible": true,
     "properties": [
      {
       "name": "direction",
       "type": "int",
       "value": -1
      }
     ]
    },
    {
     "id": 105,
     "name": "",
     "class": "mower",
     "x": 2112,
     "y": 320,
     "width": 16,
     "height": 16,
     "rotation": 0,
     "visible": true,
     "properties": [
      {
       "name": "direction",
       "type": "int",
       "value": 1
      }
     ]
    },
    {
     "id": 106,
     "name": "",
     "class": "mower",
     "x": 2176,
     "y": 320,
     "width": 16,
     "height": 16,
     "rotation": 0,
     "visible": true,
     "properties": [
      {
       "name": "direction",
       "type": "int",
       "value": -1
      }
     ]
    },
    {
     "id": 107,
     "name": "",
     "class": "blower",
     "x": 3392,
     "y": 208,
     "width": 352,
     "height": 112,
     "rotation": 0,
     "visible": true,
     "properties": [
      {
       "name": "direction",
       "type": "int",
       "value": -1
      }
     ]
    },
    {
     "id": 108,
     "name": "",
     "class": "bounce",
     "x": 288,
     "y": 304,
     "width": 48,
     "height": 16,
     "rotation": 0,
     "visible": true,
     "properties": [
      {
       "name": "kind",
       "type": "string",
       "value": "trampoline"
      }
     ]
    },
    {
     "id": 109,
     "name": "",
     "class": "bounce",
     "x": 704,
     "y": 304,
     "width": 16,
     "height": 16,
     "rotation": 0,
     "visible": true,
     "properties": [
      {
       "name": "kind",
       "type": "string",
       "value": "sprinkler"
      },
      {
       "name": "periodMs",
       "type": "string",
       "value": "2600"
      },
      {
       "name": "offsetMs",
       "type": "string",
       "value": "0"
      }
     ]
    },
    {
     "id": 110,
     "name": "",
     "class": "bounce",
     "x": 800,
     "y": 304,
     "width": 16,
     "height": 16,
     "rotation": 0,
     "visible": true,
     "properties": [
      {
       "name": "kind",
       "type": "string",
       "value": "sprinkler"
      },
      {
       "name": "periodMs",
       "type": "string",
       "value": "2600"
      },
      {
       "name": "offsetMs",
       "type": "string",
       "value": "700"
      }
     ]
    },
    {
     "id": 111,
     "name": "",
     "class": "bounce",
     "x": 896,
     "y": 304,
     "width": 16,
     "height": 16,
     "rotation": 0,
     "visible": true,
     "properties": [
      {
       "name": "kind",
       "type": "string",
       "value": "sprinkler"
      },
      {
       "name": "periodMs",
       "type": "string",
       "value": "2600"
      },
      {
       "name": "offsetMs",
       "type": "string",
       "value": "1400"
      }
     ]
    },
    {
     "id": 112,
     "name": "",
     "class": "bounce",
     "x": 2336,
     "y": 304,
     "width": 48,
     "height": 16,
     "rotation": 0,
     "visible": true,
     "properties": [
      {
       "name": "kind",
       "type": "string",
       "value": "trampoline"
      }
     ]
    },
    {
     "id": 113,
     "name": "",
     "class": "bounce",
     "x": 2624,
     "y": 304,
     "width": 48,
     "height": 16,
     "rotation": 0,
     "visible": true,
     "properties": [
      {
       "name": "kind",
       "type": "string",
       "value": "trampoline"
      }
     ]
    },
    {
     "id": 114,
     "name": "",
     "class": "bounce",
     "x": 2912,
     "y": 304,
     "width": 48,
     "height": 16,
     "rotation": 0,
     "visible": true,
     "properties": [
      {
       "name": "kind",
       "type": "string",
       "value": "trampoline"
      }
     ]
    },
    {
     "id": 115,
     "name": "",
     "class": "bounce",
     "x": 3584,
     "y": 304,
     "width": 48,
     "height": 16,
     "rotation": 0,
     "visible": true,
     "properties": [
      {
       "name": "kind",
       "type": "string",
       "value": "trampoline"
      }
     ]
    },
    {
     "id": 116,
     "name": "",
     "class": "bounce",
     "x": 4064,
     "y": 304,
     "width": 16,
     "height": 16,
     "rotation": 0,
     "visible": true,
     "properties": [
      {
       "name": "kind",
       "type": "string",
       "value": "sprinkler"
      },
      {
       "name": "periodMs",
       "type": "string",
       "value": "2400"
      },
      {
       "name": "offsetMs",
       "type": "string",
       "value": "0"
      }
     ]
    },
    {
     "id": 117,
     "name": "",
     "class": "bounce",
     "x": 4128,
     "y": 304,
     "width": 16,
     "height": 16,
     "rotation": 0,
     "visible": true,
     "properties": [
      {
       "name": "kind",
       "type": "string",
       "value": "sprinkler"
      },
      {
       "name": "periodMs",
       "type": "string",
       "value": "2400"
      },
      {
       "name": "offsetMs",
       "type": "string",
       "value": "800"
      }
     ]
    },
    {
     "id": 118,
     "name": "",
     "class": "label",
     "x": 48,
     "y": 240,
     "width": 16,
     "height": 16,
     "rotation": 0,
     "visible": true,
     "properties": [
      {
       "name": "text",
       "type": "string",
       "value": "BACKYARDS"
      }
     ]
    },
    {
     "id": 119,
     "name": "",
     "class": "label",
     "x": 48,
     "y": 256,
     "width": 16,
     "height": 16,
     "rotation": 0,
     "visible": true,
     "properties": [
      {
       "name": "text",
       "type": "string",
       "value": "the fences do not have gates."
      }
     ]
    },
    {
     "id": 120,
     "name": "",
     "class": "label",
     "x": 608,
     "y": 256,
     "width": 16,
     "height": 16,
     "rotation": 0,
     "visible": true,
     "properties": [
      {
       "name": "text",
       "type": "string",
       "value": "THEY COME UP ON A TIMER. RIDE ONE."
      }
     ]
    },
    {
     "id": 121,
     "name": "",
     "class": "label",
     "x": 1296,
     "y": 256,
     "width": 16,
     "height": 16,
     "rotation": 0,
     "visible": true,
     "properties": [
      {
       "name": "text",
       "type": "string",
       "value": "BEREL DOES NOT FEEL THE WIND."
      }
     ]
    },
    {
     "id": 122,
     "name": "",
     "class": "label",
     "x": 2080,
     "y": 256,
     "width": 16,
     "height": 16,
     "rotation": 0,
     "visible": true,
     "properties": [
      {
       "name": "text",
       "type": "string",
       "value": "THE MOWERS ARE NOT WATCHING WHERE THEY GO"
      }
     ]
    },
    {
     "id": 123,
     "name": "",
     "class": "label",
     "x": 2464,
     "y": 208,
     "width": 16,
     "height": 16,
     "rotation": 0,
     "visible": true,
     "properties": [
      {
       "name": "text",
       "type": "string",
       "value": "BEREL BREAKS THE GREY ONE"
      }
     ]
    },
    {
     "id": 124,
     "name": "",
     "class": "label",
     "x": 3312,
     "y": 256,
     "width": 16,
     "height": 16,
     "rotation": 0,
     "visible": true,
     "properties": [
      {
       "name": "text",
       "type": "string",
       "value": "A LONG WAY TO BE PUSHED"
      }
     ]
    },
    {
     "id": 125,
     "name": "",
     "class": "label",
     "x": 4224,
     "y": 176,
     "width": 16,
     "height": 16,
     "rotation": 0,
     "visible": true,
     "properties": [
      {
       "name": "text",
       "type": "string",
       "value": "MENDY JUMPS HIGHER"
      }
     ]
    },
    {
     "id": 126,
     "name": "",
     "class": "label",
     "x": 4768,
     "y": 256,
     "width": 16,
     "height": 16,
     "rotation": 0,
     "visible": true,
     "properties": [
      {
       "name": "text",
       "type": "string",
       "value": "TOUCH THE POST"
      }
     ]
    }
   ]
  }
 ]
}
