{
 "compressionlevel": -1,
 "width": 330,
 "height": 29,
 "tilewidth": 16,
 "tileheight": 16,
 "infinite": false,
 "orientation": "orthogonal",
 "renderorder": "right-down",
 "tiledversion": "1.11.0",
 "type": "map",
 "version": "1.10",
 "nextlayerid": 3,
 "nextobjectid": 226,
 "tilesets": [],
 "properties": [
  {
   "name": "name",
   "type": "string",
   "value": "The Pool"
  },
  {
   "name": "backgroundColor",
   "type": "string",
   "value": "0x122530"
  },
  {
   "name": "groundRow",
   "type": "string",
   "value": "20"
  },
  {
   "name": "backdrop",
   "type": "string",
   "value": "five_towns_dusk"
  }
 ],
 "layers": [
  {
   "id": 1,
   "name": "solids",
   "type": "objectgroup",
   "draworder": "index",
   "opacity": 1,
   "visible": true,
   "x": 0,
   "y": 0,
   "objects": [
    {
     "id": 1,
     "name": "",
     "class": "",
     "x": 0,
     "y": 320,
     "width": 608,
     "height": 144,
     "rotation": 0,
     "visible": true,
     "properties": [
      {
       "name": "kind",
       "type": "string",
       "value": "ground"
      }
     ]
    },
    {
     "id": 2,
     "name": "",
     "class": "",
     "x": 416,
     "y": 288,
     "width": 80,
     "height": 32,
     "rotation": 0,
     "visible": true,
     "properties": [
      {
       "name": "kind",
       "type": "string",
       "value": "platform"
      }
     ]
    },
    {
     "id": 3,
     "name": "",
     "class": "",
     "x": 608,
     "y": 384,
     "width": 192,
     "height": 80,
     "rotation": 0,
     "visible": true,
     "properties": [
      {
       "name": "kind",
       "type": "string",
       "value": "pool"
      }
     ]
    },
    {
     "id": 4,
     "name": "",
     "class": "",
     "x": 800,
     "y": 320,
     "width": 256,
     "height": 144,
     "rotation": 0,
     "visible": true,
     "properties": [
      {
       "name": "kind",
       "type": "string",
       "value": "ground"
      }
     ]
    },
    {
     "id": 5,
     "name": "",
     "class": "",
     "x": 896,
     "y": 288,
     "width": 80,
     "height": 32,
     "rotation": 0,
     "visible": true,
     "properties": [
      {
       "name": "kind",
       "type": "string",
       "value": "platform"
      }
     ]
    },
    {
     "id": 6,
     "name": "",
     "class": "",
     "x": 1056,
     "y": 416,
     "width": 320,
     "height": 48,
     "rotation": 0,
     "visible": true,
     "properties": [
      {
       "name": "kind",
       "type": "string",
       "value": "pool"
      }
     ]
    },
    {
     "id": 7,
     "name": "",
     "class": "",
     "x": 1376,
     "y": 320,
     "width": 224,
     "height": 144,
     "rotation": 0,
     "visible": true,
     "properties": [
      {
       "name": "kind",
       "type": "string",
       "value": "ground"
      }
     ]
    },
    {
     "id": 8,
     "name": "",
     "class": "",
     "x": 1536,
     "y": 208,
     "width": 160,
     "height": 16,
     "rotation": 0,
     "visible": true,
     "properties": [
      {
       "name": "kind",
       "type": "string",
       "value": "platform"
      }
     ]
    },
    {
     "id": 9,
     "name": "",
     "class": "",
     "x": 1600,
     "y": 432,
     "width": 416,
     "height": 32,
     "rotation": 0,
     "visible": true,
     "properties": [
      {
       "name": "kind",
       "type": "string",
       "value": "pool"
      }
     ]
    },
    {
     "id": 10,
     "name": "",
     "class": "",
     "x": 1728,
     "y": 384,
     "width": 96,
     "height": 48,
     "rotation": 0,
     "visible": true,
     "properties": [
      {
       "name": "kind",
       "type": "string",
       "value": "pool"
      }
     ]
    },
    {
     "id": 11,
     "name": "",
     "class": "",
     "x": 2016,
     "y": 320,
     "width": 256,
     "height": 144,
     "rotation": 0,
     "visible": true,
     "properties": [
      {
       "name": "kind",
       "type": "string",
       "value": "ground"
      }
     ]
    },
    {
     "id": 12,
     "name": "",
     "class": "",
     "x": 2048,
     "y": 288,
     "width": 64,
     "height": 32,
     "rotation": 0,
     "visible": true,
     "properties": [
      {
       "name": "kind",
       "type": "string",
       "value": "platform"
      }
     ]
    },
    {
     "id": 13,
     "name": "",
     "class": "",
     "x": 2272,
     "y": 416,
     "width": 576,
     "height": 48,
     "rotation": 0,
     "visible": true,
     "properties": [
      {
       "name": "kind",
       "type": "string",
       "value": "pool"
      }
     ]
    },
    {
     "id": 14,
     "name": "",
     "class": "",
     "x": 2272,
     "y": 320,
     "width": 112,
     "height": 16,
     "rotation": 0,
     "visible": true,
     "properties": [
      {
       "name": "kind",
       "type": "string",
       "value": "platform"
      }
     ]
    },
    {
     "id": 15,
     "name": "",
     "class": "",
     "x": 2480,
     "y": 320,
     "width": 304,
     "height": 16,
     "rotation": 0,
     "visible": true,
     "properties": [
      {
       "name": "kind",
       "type": "string",
       "value": "platform"
      }
     ]
    },
    {
     "id": 16,
     "name": "",
     "class": "",
     "x": 2496,
     "y": 224,
     "width": 16,
     "height": 96,
     "rotation": 0,
     "visible": true,
     "properties": [
      {
       "name": "kind",
       "type": "string",
       "value": "wall"
      }
     ]
    },
    {
     "id": 17,
     "name": "",
     "class": "",
     "x": 2528,
     "y": 336,
     "width": 64,
     "height": 32,
     "rotation": 0,
     "visible": true,
     "properties": [
      {
       "name": "kind",
       "type": "string",
       "value": "pool"
      }
     ]
    },
    {
     "id": 18,
     "name": "",
     "class": "",
     "x": 2656,
     "y": 384,
     "width": 64,
     "height": 32,
     "rotation": 0,
     "visible": true,
     "properties": [
      {
       "name": "kind",
       "type": "string",
       "value": "pool"
      }
     ]
    },
    {
     "id": 19,
     "name": "",
     "class": "",
     "x": 2848,
     "y": 320,
     "width": 288,
     "height": 144,
     "rotation": 0,
     "visible": true,
     "properties": [
      {
       "name": "kind",
       "type": "string",
       "value": "ground"
      }
     ]
    },
    {
     "id": 20,
     "name": "",
     "class": "",
     "x": 3136,
     "y": 432,
     "width": 544,
     "height": 32,
     "rotation": 0,
     "visible": true,
     "properties": [
      {
       "name": "kind",
       "type": "string",
       "value": "pool"
      }
     ]
    },
    {
     "id": 21,
     "name": "",
     "class": "",
     "x": 3296,
     "y": 368,
     "width": 80,
     "height": 16,
     "rotation": 0,
     "visible": true,
     "properties": [
      {
       "name": "kind",
       "type": "string",
       "value": "pool"
      }
     ]
    },
    {
     "id": 22,
     "name": "",
     "class": "",
     "x": 3456,
     "y": 368,
     "width": 80,
     "height": 16,
     "rotation": 0,
     "visible": true,
     "properties": [
      {
       "name": "kind",
       "type": "string",
       "value": "pool"
      }
     ]
    },
    {
     "id": 23,
     "name": "",
     "class": "",
     "x": 3680,
     "y": 320,
     "width": 320,
     "height": 144,
     "rotation": 0,
     "visible": true,
     "properties": [
      {
       "name": "kind",
       "type": "string",
       "value": "ground"
      }
     ]
    },
    {
     "id": 24,
     "name": "",
     "class": "",
     "x": 3728,
     "y": 272,
     "width": 96,
     "height": 16,
     "rotation": 0,
     "visible": true,
     "properties": [
      {
       "name": "kind",
       "type": "string",
       "value": "platform"
      }
     ]
    },
    {
     "id": 25,
     "name": "",
     "class": "",
     "x": 3856,
     "y": 208,
     "width": 96,
     "height": 16,
     "rotation": 0,
     "visible": true,
     "properties": [
      {
       "name": "kind",
       "type": "string",
       "value": "platform"
      }
     ]
    },
    {
     "id": 26,
     "name": "",
     "class": "",
     "x": 4000,
     "y": 416,
     "width": 480,
     "height": 48,
     "rotation": 0,
     "visible": true,
     "properties": [
      {
       "name": "kind",
       "type": "string",
       "value": "pool"
      }
     ]
    },
    {
     "id": 27,
     "name": "",
     "class": "",
     "x": 4480,
     "y": 320,
     "width": 800,
     "height": 144,
     "rotation": 0,
     "visible": true,
     "properties": [
      {
       "name": "kind",
       "type": "string",
       "value": "ground"
      }
     ]
    },
    {
     "id": 28,
     "name": "",
     "class": "",
     "x": 4736,
     "y": 288,
     "width": 96,
     "height": 32,
     "rotation": 0,
     "visible": true,
     "properties": [
      {
       "name": "kind",
       "type": "string",
       "value": "platform"
      }
     ]
    }
   ]
  },
  {
   "id": 2,
   "name": "entities",
   "type": "objectgroup",
   "draworder": "index",
   "opacity": 1,
   "visible": true,
   "x": 0,
   "y": 0,
   "objects": [
    {
     "id": 29,
     "name": "",
     "class": "spawn",
     "x": 48,
     "y": 320,
     "width": 16,
     "height": 16,
     "rotation": 0,
     "visible": true
    },
    {
     "id": 30,
     "name": "",
     "class": "goal",
     "x": 5184,
     "y": 320,
     "width": 16,
     "height": 16,
     "rotation": 0,
     "visible": true
    },
    {
     "id": 31,
     "name": "",
     "class": "checkpoint",
     "x": 832,
     "y": 320,
     "width": 16,
     "height": 16,
     "rotation": 0,
     "visible": true
    },
    {
     "id": 32,
     "name": "",
     "class": "checkpoint",
     "x": 1536,
     "y": 320,
     "width": 16,
     "height": 16,
     "rotation": 0,
     "visible": true
    },
    {
     "id": 33,
     "name": "",
     "class": "checkpoint",
     "x": 2208,
     "y": 320,
     "width": 16,
     "height": 16,
     "rotation": 0,
     "visible": true
    },
    {
     "id": 34,
     "name": "",
     "class": "checkpoint",
     "x": 2912,
     "y": 320,
     "width": 16,
     "height": 16,
     "rotation": 0,
     "visible": true
    },
    {
     "id": 35,
     "name": "",
     "class": "checkpoint",
     "x": 3904,
     "y": 320,
     "width": 16,
     "height": 16,
     "rotation": 0,
     "visible": true
    },
    {
     "id": 36,
     "name": "",
     "class": "checkpoint",
     "x": 4576,
     "y": 320,
     "width": 16,
     "height": 16,
     "rotation": 0,
     "visible": true
    },
    {
     "id": 37,
     "name": "",
     "class": "coin",
     "x": 128,
     "y": 288,
     "width": 16,
     "height": 16,
     "rotation": 0,
     "visible": true
    },
    {
     "id": 38,
     "name": "",
     "class": "coin",
     "x": 144,
     "y": 288,
     "width": 16,
     "height": 16,
     "rotation": 0,
     "visible": true
    },
    {
     "id": 39,
     "name": "",
     "class": "coin",
     "x": 160,
     "y": 288,
     "width": 16,
     "height": 16,
     "rotation": 0,
     "visible": true
    },
    {
     "id": 40,
     "name": "",
     "class": "coin",
     "x": 176,
     "y": 288,
     "width": 16,
     "height": 16,
     "rotation": 0,
     "visible": true
    },
    {
     "id": 41,
     "name": "",
     "class": "coin",
     "x": 192,
     "y": 288,
     "width": 16,
     "height": 16,
     "rotation": 0,
     "visible": true
    },
    {
     "id": 42,
     "name": "",
     "class": "coin",
     "x": 240,
     "y": 272,
     "width": 16,
     "height": 16,
     "rotation": 0,
     "visible": true
    },
    {
     "id": 43,
     "name": "",
     "class": "coin",
     "x": 256,
     "y": 256,
     "width": 16,
     "height": 16,
     "rotation": 0,
     "visible": true
    },
    {
     "id": 44,
     "name": "",
     "class": "coin",
     "x": 272,
     "y": 240,
     "width": 16,
     "height": 16,
     "rotation": 0,
     "visible": true
    },
    {
     "id": 45,
     "name": "",
     "class": "coin",
     "x": 288,
     "y": 240,
     "width": 16,
     "height": 16,
     "rotation": 0,
     "visible": true
    },
    {
     "id": 46,
     "name": "",
     "class": "coin",
     "x": 304,
     "y": 240,
     "width": 16,
     "height": 16,
     "rotation": 0,
     "visible": true
    },
    {
     "id": 47,
     "name": "",
     "class": "coin",
     "x": 320,
     "y": 240,
     "width": 16,
     "height": 16,
     "rotation": 0,
     "visible": true
    },
    {
     "id": 48,
     "name": "",
     "class": "coin",
     "x": 416,
     "y": 256,
     "width": 16,
     "height": 16,
     "rotation": 0,
     "visible": true
    },
    {
     "id": 49,
     "name": "",
     "class": "coin",
     "x": 432,
     "y": 256,
     "width": 16,
     "height": 16,
     "rotation": 0,
     "visible": true
    },
    {
     "id": 50,
     "name": "",
     "class": "coin",
     "x": 448,
     "y": 256,
     "width": 16,
     "height": 16,
     "rotation": 0,
     "visible": true
    },
    {
     "id": 51,
     "name": "",
     "class": "coin",
     "x": 464,
     "y": 256,
     "width": 16,
     "height": 16,
     "rotation": 0,
     "visible": true
    },
    {
     "id": 52,
     "name": "",
     "class": "coin",
     "x": 480,
     "y": 256,
     "width": 16,
     "height": 16,
     "rotation": 0,
     "visible": true
    },
    {
     "id": 53,
     "name": "",
     "class": "coin",
     "x": 640,
     "y": 352,
     "width": 16,
     "height": 16,
     "rotation": 0,
     "visible": true
    },
    {
     "id": 54,
     "name": "",
     "class": "coin",
     "x": 656,
     "y": 352,
     "width": 16,
     "height": 16,
     "rotation": 0,
     "visible": true
    },
    {
     "id": 55,
     "name": "",
     "class": "coin",
     "x": 672,
     "y": 352,
     "width": 16,
     "height": 16,
     "rotation": 0,
     "visible": true
    },
    {
     "id": 56,
     "name": "",
     "class": "coin",
     "x": 688,
     "y": 352,
     "width": 16,
     "height": 16,
     "rotation": 0,
     "visible": true
    },
    {
     "id": 57,
     "name": "",
     "class": "coin",
     "x": 704,
     "y": 352,
     "width": 16,
     "height": 16,
     "rotation": 0,
     "visible": true
    },
    {
     "id": 58,
     "name": "",
     "class": "coin",
     "x": 720,
     "y": 352,
     "width": 16,
     "height": 16,
     "rotation": 0,
     "visible": true
    },
    {
     "id": 59,
     "name": "",
     "class": "coin",
     "x": 736,
     "y": 352,
     "width": 16,
     "height": 16,
     "rotation": 0,
     "visible": true
    },
    {
     "id": 60,
     "name": "",
     "class": "coin",
     "x": 752,
     "y": 352,
     "width": 16,
     "height": 16,
     "rotation": 0,
     "visible": true
    },
    {
     "id": 61,
     "name": "",
     "class": "coin",
     "x": 704,
     "y": 336,
     "width": 16,
     "height": 16,
     "rotation": 0,
     "visible": true
    },
    {
     "id": 62,
     "name": "",
     "class": "coin",
     "x": 720,
     "y": 336,
     "width": 16,
     "height": 16,
     "rotation": 0,
     "visible": true
    },
    {
     "id": 63,
     "name": "",
     "class": "coin",
     "x": 896,
     "y": 256,
     "width": 16,
     "height": 16,
     "rotation": 0,
     "visible": true
    },
    {
     "id": 64,
     "name": "",
     "class": "coin",
     "x": 912,
     "y": 256,
     "width": 16,
     "height": 16,
     "rotation": 0,
     "visible": true
    },
    {
     "id": 65,
     "name": "",
     "class": "coin",
     "x": 928,
     "y": 256,
     "width": 16,
     "height": 16,
     "rotation": 0,
     "visible": true
    },
    {
     "id": 66,
     "name": "",
     "class": "coin",
     "x": 944,
     "y": 256,
     "width": 16,
     "height": 16,
     "rotation": 0,
     "visible": true
    },
    {
     "id": 67,
     "name": "",
     "class": "coin",
     "x": 960,
     "y": 256,
     "width": 16,
     "height": 16,
     "rotation": 0,
     "visible": true
    },
    {
     "id": 68,
     "name": "",
     "class": "coin",
     "x": 1104,
     "y": 384,
     "width": 16,
     "height": 16,
     "rotation": 0,
     "visible": true
    },
    {
     "id": 69,
     "name": "",
     "class": "coin",
     "x": 1120,
     "y": 384,
     "width": 16,
     "height": 16,
     "rotation": 0,
     "visible": true
    },
    {
     "id": 70,
     "name": "",
     "class": "coin",
     "x": 1136,
     "y": 384,
     "width": 16,
     "height": 16,
     "rotation": 0,
     "visible": true
    },
    {
     "id": 71,
     "name": "",
     "class": "coin",
     "x": 1152,
     "y": 384,
     "width": 16,
     "height": 16,
     "rotation": 0,
     "visible": true
    },
    {
     "id": 72,
     "name": "",
     "class": "coin",
     "x": 1168,
     "y": 384,
     "width": 16,
     "height": 16,
     "rotation": 0,
     "visible": true
    },
    {
     "id": 73,
     "name": "",
     "class": "coin",
     "x": 1184,
     "y": 384,
     "width": 16,
     "height": 16,
     "rotation": 0,
     "visible": true
    },
    {
     "id": 74,
     "name": "",
     "class": "coin",
     "x": 1232,
     "y": 384,
     "width": 16,
     "height": 16,
     "rotation": 0,
     "visible": true
    },
    {
     "id": 75,
     "name": "",
     "class": "coin",
     "x": 1248,
     "y": 384,
     "width": 16,
     "height": 16,
     "rotation": 0,
     "visible": true
    },
    {
     "id": 76,
     "name": "",
     "class": "coin",
     "x": 1264,
     "y": 384,
     "width": 16,
     "height": 16,
     "rotation": 0,
     "visible": true
    },
    {
     "id": 77,
     "name": "",
     "class": "coin",
     "x": 1280,
     "y": 384,
     "width": 16,
     "height": 16,
     "rotation": 0,
     "visible": true
    },
    {
     "id": 78,
     "name": "",
     "class": "coin",
     "x": 1296,
     "y": 384,
     "width": 16,
     "height": 16,
     "rotation": 0,
     "visible": true
    },
    {
     "id": 79,
     "name": "",
     "class": "coin",
     "x": 1312,
     "y": 384,
     "width": 16,
     "height": 16,
     "rotation": 0,
     "visible": true
    },
    {
     "id": 80,
     "name": "",
     "class": "coin",
     "x": 1552,
     "y": 176,
     "width": 16,
     "height": 16,
     "rotation": 0,
     "visible": true
    },
    {
     "id": 81,
     "name": "",
     "class": "coin",
     "x": 1568,
     "y": 176,
     "width": 16,
     "height": 16,
     "rotation": 0,
     "visible": true
    },
    {
     "id": 82,
     "name": "",
     "class": "coin",
     "x": 1584,
     "y": 176,
     "width": 16,
     "height": 16,
     "rotation": 0,
     "visible": true
    },
    {
     "id": 83,
     "name": "",
     "class": "coin",
     "x": 1600,
     "y": 176,
     "width": 16,
     "height": 16,
     "rotation": 0,
     "visible": true
    },
    {
     "id": 84,
     "name": "",
     "class": "coin",
     "x": 1616,
     "y": 176,
     "width": 16,
     "height": 16,
     "rotation": 0,
     "visible": true
    },
    {
     "id": 85,
     "name": "",
     "class": "coin",
     "x": 1632,
     "y": 176,
     "width": 16,
     "height": 16,
     "rotation": 0,
     "visible": true
    },
    {
     "id": 86,
     "name": "",
     "class": "coin",
     "x": 1728,
     "y": 368,
     "width": 16,
     "height": 16,
     "rotation": 0,
     "visible": true
    },
    {
     "id": 87,
     "name": "",
     "class": "coin",
     "x": 1744,
     "y": 368,
     "width": 16,
     "height": 16,
     "rotation": 0,
     "visible": true
    },
    {
     "id": 88,
     "name": "",
     "class": "coin",
     "x": 1760,
     "y": 368,
     "width": 16,
     "height": 16,
     "rotation": 0,
     "visible": true
    },
    {
     "id": 89,
     "name": "",
     "class": "coin",
     "x": 1776,
     "y": 368,
     "width": 16,
     "height": 16,
     "rotation": 0,
     "visible": true
    },
    {
     "id": 90,
     "name": "",
     "class": "coin",
     "x": 1792,
     "y": 368,
     "width": 16,
     "height": 16,
     "rotation": 0,
     "visible": true
    },
    {
     "id": 91,
     "name": "",
     "class": "coin",
     "x": 1808,
     "y": 368,
     "width": 16,
     "height": 16,
     "rotation": 0,
     "visible": true
    },
    {
     "id": 92,
     "name": "",
     "class": "coin",
     "x": 1856,
     "y": 400,
     "width": 16,
     "height": 16,
     "rotation": 0,
     "visible": true
    },
    {
     "id": 93,
     "name": "",
     "class": "coin",
     "x": 1872,
     "y": 400,
     "width": 16,
     "height": 16,
     "rotation": 0,
     "visible": true
    },
    {
     "id": 94,
     "name": "",
     "class": "coin",
     "x": 1888,
     "y": 400,
     "width": 16,
     "height": 16,
     "rotation": 0,
     "visible": true
    },
    {
     "id": 95,
     "name": "",
     "class": "coin",
     "x": 1904,
     "y": 400,
     "width": 16,
     "height": 16,
     "rotation": 0,
     "visible": true
    },
    {
     "id": 96,
     "name": "",
     "class": "coin",
     "x": 1920,
     "y": 400,
     "width": 16,
     "height": 16,
     "rotation": 0,
     "visible": true
    },
    {
     "id": 97,
     "name": "",
     "class": "coin",
     "x": 1888,
     "y": 384,
     "width": 16,
     "height": 16,
     "rotation": 0,
     "visible": true
    },
    {
     "id": 98,
     "name": "",
     "class": "coin",
     "x": 2048,
     "y": 256,
     "width": 16,
     "height": 16,
     "rotation": 0,
     "visible": true
    },
    {
     "id": 99,
     "name": "",
     "class": "coin",
     "x": 2064,
     "y": 256,
     "width": 16,
     "height": 16,
     "rotation": 0,
     "visible": true
    },
    {
     "id": 100,
     "name": "",
     "class": "coin",
     "x": 2080,
     "y": 256,
     "width": 16,
     "height": 16,
     "rotation": 0,
     "visible": true
    },
    {
     "id": 101,
     "name": "",
     "class": "coin",
     "x": 2096,
     "y": 256,
     "width": 16,
     "height": 16,
     "rotation": 0,
     "visible": true
    },
    {
     "id": 102,
     "name": "",
     "class": "coin",
     "x": 2528,
     "y": 384,
     "width": 16,
     "height": 16,
     "rotation": 0,
     "visible": true
    },
    {
     "id": 103,
     "name": "",
     "class": "coin",
     "x": 2544,
     "y": 384,
     "width": 16,
     "height": 16,
     "rotation": 0,
     "visible": true
    },
    {
     "id": 104,
     "name": "",
     "class": "coin",
     "x": 2560,
     "y": 384,
     "width": 16,
     "height": 16,
     "rotation": 0,
     "visible": true
    },
    {
     "id": 105,
     "name": "",
     "class": "coin",
     "x": 2576,
     "y": 384,
     "width": 16,
     "height": 16,
     "rotation": 0,
     "visible": true
    },
    {
     "id": 106,
     "name": "",
     "class": "coin",
     "x": 2656,
     "y": 352,
     "width": 16,
     "height": 16,
     "rotation": 0,
     "visible": true
    },
    {
     "id": 107,
     "name": "",
     "class": "coin",
     "x": 2672,
     "y": 352,
     "width": 16,
     "height": 16,
     "rotation": 0,
     "visible": true
    },
    {
     "id": 108,
     "name": "",
     "class": "coin",
     "x": 2688,
     "y": 352,
     "width": 16,
     "height": 16,
     "rotation": 0,
     "visible": true
    },
    {
     "id": 109,
     "name": "",
     "class": "coin",
     "x": 2704,
     "y": 352,
     "width": 16,
     "height": 16,
     "rotation": 0,
     "visible": true
    },
    {
     "id": 110,
     "name": "",
     "class": "coin",
     "x": 2720,
     "y": 368,
     "width": 16,
     "height": 16,
     "rotation": 0,
     "visible": true
    },
    {
     "id": 111,
     "name": "",
     "class": "coin",
     "x": 2736,
     "y": 368,
     "width": 16,
     "height": 16,
     "rotation": 0,
     "visible": true
    },
    {
     "id": 112,
     "name": "",
     "class": "coin",
     "x": 2752,
     "y": 368,
     "width": 16,
     "height": 16,
     "rotation": 0,
     "visible": true
    },
    {
     "id": 113,
     "name": "",
     "class": "coin",
     "x": 2768,
     "y": 368,
     "width": 16,
     "height": 16,
     "rotation": 0,
     "visible": true
    },
    {
     "id": 114,
     "name": "",
     "class": "coin",
     "x": 2992,
     "y": 288,
     "width": 16,
     "height": 16,
     "rotation": 0,
     "visible": true
    },
    {
     "id": 115,
     "name": "",
     "class": "coin",
     "x": 3008,
     "y": 288,
     "width": 16,
     "height": 16,
     "rotation": 0,
     "visible": true
    },
    {
     "id": 116,
     "name": "",
     "class": "coin",
     "x": 3024,
     "y": 288,
     "width": 16,
     "height": 16,
     "rotation": 0,
     "visible": true
    },
    {
     "id": 117,
     "name": "",
     "class": "coin",
     "x": 3040,
     "y": 288,
     "width": 16,
     "height": 16,
     "rotation": 0,
     "visible": true
    },
    {
     "id": 118,
     "name": "",
     "class": "coin",
     "x": 3056,
     "y": 288,
     "width": 16,
     "height": 16,
     "rotation": 0,
     "visible": true
    },
    {
     "id": 119,
     "name": "",
     "class": "coin",
     "x": 3072,
     "y": 288,
     "width": 16,
     "height": 16,
     "rotation": 0,
     "visible": true
    },
    {
     "id": 120,
     "name": "",
     "class": "coin",
     "x": 3088,
     "y": 288,
     "width": 16,
     "height": 16,
     "rotation": 0,
     "visible": true
    },
    {
     "id": 121,
     "name": "",
     "class": "coin",
     "x": 3232,
     "y": 400,
     "width": 16,
     "height": 16,
     "rotation": 0,
     "visible": true
    },
    {
     "id": 122,
     "name": "",
     "class": "coin",
     "x": 3248,
     "y": 400,
     "width": 16,
     "height": 16,
     "rotation": 0,
     "visible": true
    },
    {
     "id": 123,
     "name": "",
     "class": "coin",
     "x": 3264,
     "y": 400,
     "width": 16,
     "height": 16,
     "rotation": 0,
     "visible": true
    },
    {
     "id": 124,
     "name": "",
     "class": "coin",
     "x": 3280,
     "y": 400,
     "width": 16,
     "height": 16,
     "rotation": 0,
     "visible": true
    },
    {
     "id": 125,
     "name": "",
     "class": "coin",
     "x": 3296,
     "y": 400,
     "width": 16,
     "height": 16,
     "rotation": 0,
     "visible": true
    },
    {
     "id": 126,
     "name": "",
     "class": "coin",
     "x": 3312,
     "y": 400,
     "width": 16,
     "height": 16,
     "rotation": 0,
     "visible": true
    },
    {
     "id": 127,
     "name": "",
     "class": "coin",
     "x": 3392,
     "y": 400,
     "width": 16,
     "height": 16,
     "rotation": 0,
     "visible": true
    },
    {
     "id": 128,
     "name": "",
     "class": "coin",
     "x": 3408,
     "y": 400,
     "width": 16,
     "height": 16,
     "rotation": 0,
     "visible": true
    },
    {
     "id": 129,
     "name": "",
     "class": "coin",
     "x": 3424,
     "y": 400,
     "width": 16,
     "height": 16,
     "rotation": 0,
     "visible": true
    },
    {
     "id": 130,
     "name": "",
     "class": "coin",
     "x": 3440,
     "y": 400,
     "width": 16,
     "height": 16,
     "rotation": 0,
     "visible": true
    },
    {
     "id": 131,
     "name": "",
     "class": "coin",
     "x": 3456,
     "y": 400,
     "width": 16,
     "height": 16,
     "rotation": 0,
     "visible": true
    },
    {
     "id": 132,
     "name": "",
     "class": "coin",
     "x": 3472,
     "y": 400,
     "width": 16,
     "height": 16,
     "rotation": 0,
     "visible": true
    },
    {
     "id": 133,
     "name": "",
     "class": "coin",
     "x": 3552,
     "y": 400,
     "width": 16,
     "height": 16,
     "rotation": 0,
     "visible": true
    },
    {
     "id": 134,
     "name": "",
     "class": "coin",
     "x": 3568,
     "y": 400,
     "width": 16,
     "height": 16,
     "rotation": 0,
     "visible": true
    },
    {
     "id": 135,
     "name": "",
     "class": "coin",
     "x": 3584,
     "y": 400,
     "width": 16,
     "height": 16,
     "rotation": 0,
     "visible": true
    },
    {
     "id": 136,
     "name": "",
     "class": "coin",
     "x": 3600,
     "y": 400,
     "width": 16,
     "height": 16,
     "rotation": 0,
     "visible": true
    },
    {
     "id": 137,
     "name": "",
     "class": "coin",
     "x": 3616,
     "y": 400,
     "width": 16,
     "height": 16,
     "rotation": 0,
     "visible": true
    },
    {
     "id": 138,
     "name": "",
     "class": "coin",
     "x": 3632,
     "y": 400,
     "width": 16,
     "height": 16,
     "rotation": 0,
     "visible": true
    },
    {
     "id": 139,
     "name": "",
     "class": "coin",
     "x": 3728,
     "y": 240,
     "width": 16,
     "height": 16,
     "rotation": 0,
     "visible": true
    },
    {
     "id": 140,
     "name": "",
     "class": "coin",
     "x": 3744,
     "y": 240,
     "width": 16,
     "height": 16,
     "rotation": 0,
     "visible": true
    },
    {
     "id": 141,
     "name": "",
     "class": "coin",
     "x": 3760,
     "y": 240,
     "width": 16,
     "height": 16,
     "rotation": 0,
     "visible": true
    },
    {
     "id": 142,
     "name": "",
     "class": "coin",
     "x": 3776,
     "y": 240,
     "width": 16,
     "height": 16,
     "rotation": 0,
     "visible": true
    },
    {
     "id": 143,
     "name": "",
     "class": "coin",
     "x": 3792,
     "y": 240,
     "width": 16,
     "height": 16,
     "rotation": 0,
     "visible": true
    },
    {
     "id": 144,
     "name": "",
     "class": "coin",
     "x": 3808,
     "y": 240,
     "width": 16,
     "height": 16,
     "rotation": 0,
     "visible": true
    },
    {
     "id": 145,
     "name": "",
     "class": "coin",
     "x": 3968,
     "y": 192,
     "width": 16,
     "height": 16,
     "rotation": 0,
     "visible": true
    },
    {
     "id": 146,
     "name": "",
     "class": "coin",
     "x": 3984,
     "y": 176,
     "width": 16,
     "height": 16,
     "rotation": 0,
     "visible": true
    },
    {
     "id": 147,
     "name": "",
     "class": "coin",
     "x": 4000,
     "y": 160,
     "width": 16,
     "height": 16,
     "rotation": 0,
     "visible": true
    },
    {
     "id": 148,
     "name": "",
     "class": "coin",
     "x": 4016,
     "y": 160,
     "width": 16,
     "height": 16,
     "rotation": 0,
     "visible": true
    },
    {
     "id": 149,
     "name": "",
     "class": "coin",
     "x": 4032,
     "y": 160,
     "width": 16,
     "height": 16,
     "rotation": 0,
     "visible": true
    },
    {
     "id": 150,
     "name": "",
     "class": "coin",
     "x": 4048,
     "y": 160,
     "width": 16,
     "height": 16,
     "rotation": 0,
     "visible": true
    },
    {
     "id": 151,
     "name": "",
     "class": "coin",
     "x": 4064,
     "y": 176,
     "width": 16,
     "height": 16,
     "rotation": 0,
     "visible": true
    },
    {
     "id": 152,
     "name": "",
     "class": "coin",
     "x": 4080,
     "y": 192,
     "width": 16,
     "height": 16,
     "rotation": 0,
     "visible": true
    },
    {
     "id": 153,
     "name": "",
     "class": "coin",
     "x": 4032,
     "y": 352,
     "width": 16,
     "height": 16,
     "rotation": 0,
     "visible": true
    },
    {
     "id": 154,
     "name": "",
     "class": "coin",
     "x": 4048,
     "y": 352,
     "width": 16,
     "height": 16,
     "rotation": 0,
     "visible": true
    },
    {
     "id": 155,
     "name": "",
     "class": "coin",
     "x": 4064,
     "y": 352,
     "width": 16,
     "height": 16,
     "rotation": 0,
     "visible": true
    },
    {
     "id": 156,
     "name": "",
     "class": "coin",
     "x": 4080,
     "y": 352,
     "width": 16,
     "height": 16,
     "rotation": 0,
     "visible": true
    },
    {
     "id": 157,
     "name": "",
     "class": "coin",
     "x": 4096,
     "y": 352,
     "width": 16,
     "height": 16,
     "rotation": 0,
     "visible": true
    },
    {
     "id": 158,
     "name": "",
     "class": "coin",
     "x": 4112,
     "y": 352,
     "width": 16,
     "height": 16,
     "rotation": 0,
     "visible": true
    },
    {
     "id": 159,
     "name": "",
     "class": "coin",
     "x": 4192,
     "y": 368,
     "width": 16,
     "height": 16,
     "rotation": 0,
     "visible": true
    },
    {
     "id": 160,
     "name": "",
     "class": "coin",
     "x": 4208,
     "y": 368,
     "width": 16,
     "height": 16,
     "rotation": 0,
     "visible": true
    },
    {
     "id": 161,
     "name": "",
     "class": "coin",
     "x": 4224,
     "y": 368,
     "width": 16,
     "height": 16,
     "rotation": 0,
     "visible": true
    },
    {
     "id": 162,
     "name": "",
     "class": "coin",
     "x": 4240,
     "y": 368,
     "width": 16,
     "height": 16,
     "rotation": 0,
     "visible": true
    },
    {
     "id": 163,
     "name": "",
     "class": "coin",
     "x": 4256,
     "y": 368,
     "width": 16,
     "height": 16,
     "rotation": 0,
     "visible": true
    },
    {
     "id": 164,
     "name": "",
     "class": "coin",
     "x": 4272,
     "y": 368,
     "width": 16,
     "height": 16,
     "rotation": 0,
     "visible": true
    },
    {
     "id": 165,
     "name": "",
     "class": "coin",
     "x": 4320,
     "y": 336,
     "width": 16,
     "height": 16,
     "rotation": 0,
     "visible": true
    },
    {
     "id": 166,
     "name": "",
     "class": "coin",
     "x": 4336,
     "y": 336,
     "width": 16,
     "height": 16,
     "rotation": 0,
     "visible": true
    },
    {
     "id": 167,
     "name": "",
     "class": "coin",
     "x": 4352,
     "y": 336,
     "width": 16,
     "height": 16,
     "rotation": 0,
     "visible": true
    },
    {
     "id": 168,
     "name": "",
     "class": "coin",
     "x": 4736,
     "y": 256,
     "width": 16,
     "height": 16,
     "rotation": 0,
     "visible": true
    },
    {
     "id": 169,
     "name": "",
     "class": "coin",
     "x": 4752,
     "y": 256,
     "width": 16,
     "height": 16,
     "rotation": 0,
     "visible": true
    },
    {
     "id": 170,
     "name": "",
     "class": "coin",
     "x": 4768,
     "y": 256,
     "width": 16,
     "height": 16,
     "rotation": 0,
     "visible": true
    },
    {
     "id": 171,
     "name": "",
     "class": "coin",
     "x": 4784,
     "y": 256,
     "width": 16,
     "height": 16,
     "rotation": 0,
     "visible": true
    },
    {
     "id": 172,
     "name": "",
     "class": "coin",
     "x": 4800,
     "y": 256,
     "width": 16,
     "height": 16,
     "rotation": 0,
     "visible": true
    },
    {
     "id": 173,
     "name": "",
     "class": "coin",
     "x": 4816,
     "y": 256,
     "width": 16,
     "height": 16,
     "rotation": 0,
     "visible": true
    },
    {
     "id": 174,
     "name": "",
     "class": "coin",
     "x": 4992,
     "y": 288,
     "width": 16,
     "height": 16,
     "rotation": 0,
     "visible": true
    },
    {
     "id": 175,
     "name": "",
     "class": "coin",
     "x": 5008,
     "y": 288,
     "width": 16,
     "height": 16,
     "rotation": 0,
     "visible": true
    },
    {
     "id": 176,
     "name": "",
     "class": "coin",
     "x": 5024,
     "y": 288,
     "width": 16,
     "height": 16,
     "rotation": 0,
     "visible": true
    },
    {
     "id": 177,
     "name": "",
     "class": "coin",
     "x": 5040,
     "y": 288,
     "width": 16,
     "height": 16,
     "rotation": 0,
     "visible": true
    },
    {
     "id": 178,
     "name": "",
     "class": "coin",
     "x": 5056,
     "y": 288,
     "width": 16,
     "height": 16,
     "rotation": 0,
     "visible": true
    },
    {
     "id": 179,
     "name": "",
     "class": "coin",
     "x": 5072,
     "y": 288,
     "width": 16,
     "height": 16,
     "rotation": 0,
     "visible": true
    },
    {
     "id": 180,
     "name": "",
     "class": "block",
     "x": 352,
     "y": 256,
     "width": 16,
     "height": 16,
     "rotation": 0,
     "visible": true,
     "properties": [
      {
       "name": "block",
       "type": "string",
       "value": "mystery"
      },
      {
       "name": "contents",
       "type": "string",
       "value": "cholent"
      }
     ]
    },
    {
     "id": 181,
     "name": "",
     "class": "block",
     "x": 1200,
     "y": 368,
     "width": 16,
     "height": 16,
     "rotation": 0,
     "visible": true,
     "properties": [
      {
       "name": "block",
       "type": "string",
       "value": "reinforced"
      },
      {
       "name": "contents",
       "type": "string",
       "value": "coin"
      }
     ]
    },
    {
     "id": 182,
     "name": "",
     "class": "block",
     "x": 1216,
     "y": 368,
     "width": 16,
     "height": 16,
     "rotation": 0,
     "visible": true,
     "properties": [
      {
       "name": "block",
       "type": "string",
       "value": "mystery"
      },
      {
       "name": "contents",
       "type": "string",
       "value": "lchaim"
      }
     ]
    },
    {
     "id": 183,
     "name": "",
     "class": "block",
     "x": 1648,
     "y": 176,
     "width": 16,
     "height": 16,
     "rotation": 0,
     "visible": true,
     "properties": [
      {
       "name": "block",
       "type": "string",
       "value": "mystery"
      },
      {
       "name": "contents",
       "type": "string",
       "value": "lchaim"
      }
     ]
    },
    {
     "id": 184,
     "name": "",
     "class": "block",
     "x": 3360,
     "y": 336,
     "width": 16,
     "height": 16,
     "rotation": 0,
     "visible": true,
     "properties": [
      {
       "name": "block",
       "type": "string",
       "value": "mystery"
      },
      {
       "name": "contents",
       "type": "string",
       "value": "lchaim"
      }
     ]
    },
    {
     "id": 185,
     "name": "",
     "class": "block",
     "x": 3904,
     "y": 176,
     "width": 16,
     "height": 16,
     "rotation": 0,
     "visible": true,
     "properties": [
      {
       "name": "block",
       "type": "string",
       "value": "mystery"
      },
      {
       "name": "contents",
       "type": "string",
       "value": "lchaim"
      }
     ]
    },
    {
     "id": 186,
     "name": "",
     "class": "block",
     "x": 4384,
     "y": 352,
     "width": 16,
     "height": 16,
     "rotation": 0,
     "visible": true,
     "properties": [
      {
       "name": "block",
       "type": "string",
       "value": "reinforced"
      },
      {
       "name": "contents",
       "type": "string",
       "value": "coin"
      }
     ]
    },
    {
     "id": 187,
     "name": "",
     "class": "block",
     "x": 4400,
     "y": 352,
     "width": 16,
     "height": 16,
     "rotation": 0,
     "visible": true,
     "properties": [
      {
       "name": "block",
       "type": "string",
       "value": "mystery"
      },
      {
       "name": "contents",
       "type": "string",
       "value": "lchaim"
      }
     ]
    },
    {
     "id": 188,
     "name": "",
     "class": "block",
     "x": 4864,
     "y": 256,
     "width": 16,
     "height": 16,
     "rotation": 0,
     "visible": true,
     "properties": [
      {
       "name": "block",
       "type": "string",
       "value": "mystery"
      },
      {
       "name": "contents",
       "type": "string",
       "value": "menorah"
      }
     ]
    },
    {
     "id": 189,
     "name": "",
     "class": "enemy",
     "x": 512,
     "y": 320,
     "width": 16,
     "height": 16,
     "rotation": 0,
     "visible": true,
     "properties": [
      {
       "name": "enemy",
       "type": "string",
       "value": "chipmunk"
      }
     ]
    },
    {
     "id": 190,
     "name": "",
     "class": "enemy",
     "x": 992,
     "y": 320,
     "width": 16,
     "height": 16,
     "rotation": 0,
     "visible": true,
     "properties": [
      {
       "name": "enemy",
       "type": "string",
       "value": "goose"
      }
     ]
    },
    {
     "id": 191,
     "name": "",
     "class": "enemy",
     "x": 1440,
     "y": 320,
     "width": 16,
     "height": 16,
     "rotation": 0,
     "visible": true,
     "properties": [
      {
       "name": "enemy",
       "type": "string",
       "value": "chipmunk"
      }
     ]
    },
    {
     "id": 192,
     "name": "",
     "class": "enemy",
     "x": 2096,
     "y": 320,
     "width": 16,
     "height": 16,
     "rotation": 0,
     "visible": true,
     "properties": [
      {
       "name": "enemy",
       "type": "string",
       "value": "goose"
      }
     ]
    },
    {
     "id": 193,
     "name": "",
     "class": "enemy",
     "x": 3744,
     "y": 320,
     "width": 16,
     "height": 16,
     "rotation": 0,
     "visible": true,
     "properties": [
      {
       "name": "enemy",
       "type": "string",
       "value": "goose"
      }
     ]
    },
    {
     "id": 194,
     "name": "",
     "class": "enemy",
     "x": 3936,
     "y": 320,
     "width": 16,
     "height": 16,
     "rotation": 0,
     "visible": true,
     "properties": [
      {
       "name": "enemy",
       "type": "string",
       "value": "chipmunk"
      }
     ]
    },
    {
     "id": 195,
     "name": "",
     "class": "enemy",
     "x": 4672,
     "y": 320,
     "width": 16,
     "height": 16,
     "rotation": 0,
     "visible": true,
     "properties": [
      {
       "name": "enemy",
       "type": "string",
       "value": "goose"
      }
     ]
    },
    {
     "id": 196,
     "name": "",
     "class": "enemy",
     "x": 4800,
     "y": 320,
     "width": 16,
     "height": 16,
     "rotation": 0,
     "visible": true,
     "properties": [
      {
       "name": "enemy",
       "type": "string",
       "value": "chipmunk"
      }
     ]
    },
    {
     "id": 197,
     "name": "",
     "class": "enemy",
     "x": 4928,
     "y": 320,
     "width": 16,
     "height": 16,
     "rotation": 0,
     "visible": true,
     "properties": [
      {
       "name": "enemy",
       "type": "string",
       "value": "goose"
      }
     ]
    },
    {
     "id": 198,
     "name": "",
     "class": "mower",
     "x": 2176,
     "y": 320,
     "width": 16,
     "height": 16,
     "rotation": 0,
     "visible": true,
     "properties": [
      {
       "name": "direction",
       "type": "int",
       "value": -1
      }
     ]
    },
    {
     "id": 199,
     "name": "",
     "class": "blower",
     "x": 2976,
     "y": 240,
     "width": 144,
     "height": 80,
     "rotation": 0,
     "visible": true,
     "properties": [
      {
       "name": "direction",
       "type": "int",
       "value": -1
      }
     ]
    },
    {
     "id": 200,
     "name": "",
     "class": "minivan",
     "x": 3840,
     "y": 320,
     "width": 16,
     "height": 16,
     "rotation": 0,
     "visible": true,
     "properties": [
      {
       "name": "direction",
       "type": "int",
       "value": -1
      }
     ]
    },
    {
     "id": 201,
     "name": "",
     "class": "bounce",
     "x": 1488,
     "y": 304,
     "width": 16,
     "height": 16,
     "rotation": 0,
     "visible": true,
     "properties": [
      {
       "name": "kind",
       "type": "string",
       "value": "sprinkler"
      },
      {
       "name": "periodMs",
       "type": "string",
       "value": "2500"
      },
      {
       "name": "offsetMs",
       "type": "string",
       "value": "0"
      }
     ]
    },
    {
     "id": 202,
     "name": "",
     "class": "water",
     "x": 608,
     "y": 320,
     "width": 192,
     "height": 64,
     "rotation": 0,
     "visible": true
    },
    {
     "id": 203,
     "name": "",
     "class": "water",
     "x": 1056,
     "y": 320,
     "width": 320,
     "height": 96,
     "rotation": 0,
     "visible": true
    },
    {
     "id": 204,
     "name": "",
     "class": "water",
     "x": 1600,
     "y": 320,
     "width": 416,
     "height": 112,
     "rotation": 0,
     "visible": true
    },
    {
     "id": 205,
     "name": "",
     "class": "water",
     "x": 2272,
     "y": 320,
     "width": 576,
     "height": 96,
     "rotation": 0,
     "visible": true
    },
    {
     "id": 206,
     "name": "",
     "class": "water",
     "x": 3136,
     "y": 320,
     "width": 544,
     "height": 112,
     "rotation": 0,
     "visible": true
    },
    {
     "id": 207,
     "name": "",
     "class": "water",
     "x": 4000,
     "y": 320,
     "width": 480,
     "height": 96,
     "rotation": 0,
     "visible": true
    },
    {
     "id": 208,
     "name": "",
     "class": "current",
     "x": 1088,
     "y": 352,
     "width": 256,
     "height": 64,
     "rotation": 0,
     "visible": true,
     "properties": [
      {
       "name": "dx",
       "type": "int",
       "value": 1
      },
      {
       "name": "dy",
       "type": "int",
       "value": 0
      }
     ]
    },
    {
     "id": 209,
     "name": "",
     "class": "current",
     "x": 1648,
     "y": 336,
     "width": 48,
     "height": 96,
     "rotation": 0,
     "visible": true,
     "properties": [
      {
       "name": "dx",
       "type": "int",
       "value": 0
      },
      {
       "name": "dy",
       "type": "int",
       "value": -1
      }
     ]
    },
    {
     "id": 210,
     "name": "",
     "class": "current",
     "x": 1856,
     "y": 352,
     "width": 80,
     "height": 80,
     "rotation": 0,
     "visible": true,
     "properties": [
      {
       "name": "dx",
       "type": "int",
       "value": 0
      },
      {
       "name": "dy",
       "type": "int",
       "value": 1
      },
      {
       "name": "force",
       "type": "int",
       "value": 320
      }
     ]
    },
    {
     "id": 211,
     "name": "",
     "class": "current",
     "x": 2496,
     "y": 336,
     "width": 96,
     "height": 80,
     "rotation": 0,
     "visible": true,
     "properties": [
      {
       "name": "dx",
       "type": "int",
       "value": 1
      },
      {
       "name": "dy",
       "type": "int",
       "value": 0
      }
     ]
    },
    {
     "id": 212,
     "name": "",
     "class": "current",
     "x": 2624,
     "y": 368,
     "width": 48,
     "height": 48,
     "rotation": 0,
     "visible": true,
     "properties": [
      {
       "name": "dx",
       "type": "int",
       "value": 0
      },
      {
       "name": "dy",
       "type": "int",
       "value": 1
      },
      {
       "name": "force",
       "type": "int",
       "value": 300
      }
     ]
    },
    {
     "id": 213,
     "name": "",
     "class": "current",
     "x": 3200,
     "y": 384,
     "width": 416,
     "height": 48,
     "rotation": 0,
     "visible": true,
     "properties": [
      {
       "name": "dx",
       "type": "int",
       "value": -1
      },
      {
       "name": "dy",
       "type": "int",
       "value": 0
      },
      {
       "name": "force",
       "type": "int",
       "value": 300
      }
     ]
    },
    {
     "id": 214,
     "name": "",
     "class": "current",
     "x": 4320,
     "y": 336,
     "width": 48,
     "height": 80,
     "rotation": 0,
     "visible": true,
     "properties": [
      {
       "name": "dx",
       "type": "int",
       "value": 0
      },
      {
       "name": "dy",
       "type": "int",
       "value": -1
      }
     ]
    },
    {
     "id": 215,
     "name": "",
     "class": "label",
     "x": 48,
     "y": 240,
     "width": 16,
     "height": 16,
     "rotation": 0,
     "visible": true,
     "properties": [
      {
       "name": "text",
       "type": "string",
       "value": "THE POOL"
      }
     ]
    },
    {
     "id": 216,
     "name": "",
     "class": "label",
     "x": 48,
     "y": 256,
     "width": 16,
     "height": 16,
     "rotation": 0,
     "visible": true,
     "properties": [
      {
       "name": "text",
       "type": "string",
       "value": "the water is the way through, not the thing in the way."
      }
     ]
    },
    {
     "id": 217,
     "name": "",
     "class": "label",
     "x": 544,
     "y": 256,
     "width": 16,
     "height": 16,
     "rotation": 0,
     "visible": true,
     "properties": [
      {
       "name": "text",
       "type": "string",
       "value": "JUMP TO SWIM UP. KEEP ASKING."
      }
     ]
    },
    {
     "id": 218,
     "name": "",
     "class": "label",
     "x": 848,
     "y": 256,
     "width": 16,
     "height": 16,
     "rotation": 0,
     "visible": true,
     "properties": [
      {
       "name": "text",
       "type": "string",
       "value": "A GOOSE ON THE DECK IS STILL A GOOSE"
      }
     ]
    },
    {
     "id": 219,
     "name": "",
     "class": "label",
     "x": 1008,
     "y": 240,
     "width": 16,
     "height": 16,
     "rotation": 0,
     "visible": true,
     "properties": [
      {
       "name": "text",
       "type": "string",
       "value": "BEREL BREAKS GREY ONES UNDER WATER TOO"
      }
     ]
    },
    {
     "id": 220,
     "name": "",
     "class": "label",
     "x": 1392,
     "y": 256,
     "width": 16,
     "height": 16,
     "rotation": 0,
     "visible": true,
     "properties": [
      {
       "name": "text",
       "type": "string",
       "value": "THE FILTER MOVES THE WATER. THE TOP IS STILL."
      }
     ]
    },
    {
     "id": 221,
     "name": "",
     "class": "label",
     "x": 2176,
     "y": 256,
     "width": 16,
     "height": 16,
     "rotation": 0,
     "visible": true,
     "properties": [
      {
       "name": "text",
       "type": "string",
       "value": "THE COVER RUNS OUT. KEEP GOING."
      }
     ]
    },
    {
     "id": 222,
     "name": "",
     "class": "label",
     "x": 2864,
     "y": 256,
     "width": 16,
     "height": 16,
     "rotation": 0,
     "visible": true,
     "properties": [
      {
       "name": "text",
       "type": "string",
       "value": "BEREL DOES NOT FEEL THE WIND. HE STILL HAS TO SWIM."
      }
     ]
    },
    {
     "id": 223,
     "name": "",
     "class": "label",
     "x": 3808,
     "y": 192,
     "width": 16,
     "height": 16,
     "rotation": 0,
     "visible": true,
     "properties": [
      {
       "name": "text",
       "type": "string",
       "value": "MENDY ONLY"
      }
     ]
    },
    {
     "id": 224,
     "name": "",
     "class": "label",
     "x": 4832,
     "y": 288,
     "width": 16,
     "height": 16,
     "rotation": 0,
     "visible": true,
     "properties": [
      {
       "name": "text",
       "type": "string",
       "value": "MENORAH — PRESS X"
      }
     ]
    },
    {
     "id": 225,
     "name": "",
     "class": "label",
     "x": 5056,
     "y": 256,
     "width": 16,
     "height": 16,
     "rotation": 0,
     "visible": true,
     "properties": [
      {
       "name": "text",
       "type": "string",
       "value": "TOUCH THE POST"
      }
     ]
    }
   ]
  }
 ]
}
