{
 "compressionlevel": -1,
 "width": 56,
 "height": 27,
 "tilewidth": 16,
 "tileheight": 16,
 "infinite": false,
 "orientation": "orthogonal",
 "renderorder": "right-down",
 "tiledversion": "1.11.0",
 "type": "map",
 "version": "1.10",
 "nextlayerid": 3,
 "nextobjectid": 48,
 "tilesets": [],
 "properties": [
  {
   "name": "name",
   "type": "string",
   "value": "The Escalade"
  },
  {
   "name": "backgroundColor",
   "type": "string",
   "value": "0x161d2b"
  },
  {
   "name": "groundRow",
   "type": "string",
   "value": "20"
  },
  {
   "name": "backdrop",
   "type": "string",
   "value": "five_towns_dusk"
  }
 ],
 "layers": [
  {
   "id": 1,
   "name": "solids",
   "type": "objectgroup",
   "draworder": "index",
   "opacity": 1,
   "visible": true,
   "x": 0,
   "y": 0,
   "objects": [
    {
     "id": 1,
     "name": "",
     "class": "",
     "x": 0,
     "y": 320,
     "width": 896,
     "height": 112,
     "rotation": 0,
     "visible": true,
     "properties": [
      {
       "name": "kind",
       "type": "string",
       "value": "ground"
      }
     ]
    },
    {
     "id": 2,
     "name": "",
     "class": "",
     "x": 96,
     "y": 272,
     "width": 96,
     "height": 48,
     "rotation": 0,
     "visible": true,
     "properties": [
      {
       "name": "kind",
       "type": "string",
       "value": "platform"
      }
     ]
    },
    {
     "id": 3,
     "name": "",
     "class": "",
     "x": 192,
     "y": 288,
     "width": 16,
     "height": 32,
     "rotation": 0,
     "visible": true,
     "properties": [
      {
       "name": "kind",
       "type": "string",
       "value": "wall"
      }
     ]
    },
    {
     "id": 4,
     "name": "",
     "class": "",
     "x": 688,
     "y": 288,
     "width": 16,
     "height": 32,
     "rotation": 0,
     "visible": true,
     "properties": [
      {
       "name": "kind",
       "type": "string",
       "value": "wall"
      }
     ]
    },
    {
     "id": 5,
     "name": "",
     "class": "",
     "x": 704,
     "y": 272,
     "width": 128,
     "height": 48,
     "rotation": 0,
     "visible": true,
     "properties": [
      {
       "name": "kind",
       "type": "string",
       "value": "platform"
      }
     ]
    }
   ]
  },
  {
   "id": 2,
   "name": "entities",
   "type": "objectgroup",
   "draworder": "index",
   "opacity": 1,
   "visible": true,
   "x": 0,
   "y": 0,
   "objects": [
    {
     "id": 6,
     "name": "",
     "class": "spawn",
     "x": 64,
     "y": 320,
     "width": 16,
     "height": 16,
     "rotation": 0,
     "visible": true
    },
    {
     "id": 7,
     "name": "",
     "class": "coin",
     "x": 96,
     "y": 240,
     "width": 16,
     "height": 16,
     "rotation": 0,
     "visible": true
    },
    {
     "id": 8,
     "name": "",
     "class": "coin",
     "x": 112,
     "y": 240,
     "width": 16,
     "height": 16,
     "rotation": 0,
     "visible": true
    },
    {
     "id": 9,
     "name": "",
     "class": "coin",
     "x": 128,
     "y": 240,
     "width": 16,
     "height": 16,
     "rotation": 0,
     "visible": true
    },
    {
     "id": 10,
     "name": "",
     "class": "coin",
     "x": 144,
     "y": 240,
     "width": 16,
     "height": 16,
     "rotation": 0,
     "visible": true
    },
    {
     "id": 11,
     "name": "",
     "class": "coin",
     "x": 160,
     "y": 240,
     "width": 16,
     "height": 16,
     "rotation": 0,
     "visible": true
    },
    {
     "id": 12,
     "name": "",
     "class": "coin",
     "x": 176,
     "y": 240,
     "width": 16,
     "height": 16,
     "rotation": 0,
     "visible": true
    },
    {
     "id": 13,
     "name": "",
     "class": "coin",
     "x": 256,
     "y": 224,
     "width": 16,
     "height": 16,
     "rotation": 0,
     "visible": true
    },
    {
     "id": 14,
     "name": "",
     "class": "coin",
     "x": 272,
     "y": 224,
     "width": 16,
     "height": 16,
     "rotation": 0,
     "visible": true
    },
    {
     "id": 15,
     "name": "",
     "class": "coin",
     "x": 288,
     "y": 224,
     "width": 16,
     "height": 16,
     "rotation": 0,
     "visible": true
    },
    {
     "id": 16,
     "name": "",
     "class": "coin",
     "x": 304,
     "y": 224,
     "width": 16,
     "height": 16,
     "rotation": 0,
     "visible": true
    },
    {
     "id": 17,
     "name": "",
     "class": "coin",
     "x": 320,
     "y": 224,
     "width": 16,
     "height": 16,
     "rotation": 0,
     "visible": true
    },
    {
     "id": 18,
     "name": "",
     "class": "coin",
     "x": 384,
     "y": 240,
     "width": 16,
     "height": 16,
     "rotation": 0,
     "visible": true
    },
    {
     "id": 19,
     "name": "",
     "class": "coin",
     "x": 400,
     "y": 224,
     "width": 16,
     "height": 16,
     "rotation": 0,
     "visible": true
    },
    {
     "id": 20,
     "name": "",
     "class": "coin",
     "x": 416,
     "y": 208,
     "width": 16,
     "height": 16,
     "rotation": 0,
     "visible": true
    },
    {
     "id": 21,
     "name": "",
     "class": "coin",
     "x": 432,
     "y": 208,
     "width": 16,
     "height": 16,
     "rotation": 0,
     "visible": true
    },
    {
     "id": 22,
     "name": "",
     "class": "coin",
     "x": 448,
     "y": 208,
     "width": 16,
     "height": 16,
     "rotation": 0,
     "visible": true
    },
    {
     "id": 23,
     "name": "",
     "class": "coin",
     "x": 464,
     "y": 208,
     "width": 16,
     "height": 16,
     "rotation": 0,
     "visible": true
    },
    {
     "id": 24,
     "name": "",
     "class": "coin",
     "x": 480,
     "y": 224,
     "width": 16,
     "height": 16,
     "rotation": 0,
     "visible": true
    },
    {
     "id": 25,
     "name": "",
     "class": "coin",
     "x": 496,
     "y": 240,
     "width": 16,
     "height": 16,
     "rotation": 0,
     "visible": true
    },
    {
     "id": 26,
     "name": "",
     "class": "coin",
     "x": 576,
     "y": 224,
     "width": 16,
     "height": 16,
     "rotation": 0,
     "visible": true
    },
    {
     "id": 27,
     "name": "",
     "class": "coin",
     "x": 592,
     "y": 224,
     "width": 16,
     "height": 16,
     "rotation": 0,
     "visible": true
    },
    {
     "id": 28,
     "name": "",
     "class": "coin",
     "x": 608,
     "y": 224,
     "width": 16,
     "height": 16,
     "rotation": 0,
     "visible": true
    },
    {
     "id": 29,
     "name": "",
     "class": "coin",
     "x": 624,
     "y": 224,
     "width": 16,
     "height": 16,
     "rotation": 0,
     "visible": true
    },
    {
     "id": 30,
     "name": "",
     "class": "coin",
     "x": 640,
     "y": 224,
     "width": 16,
     "height": 16,
     "rotation": 0,
     "visible": true
    },
    {
     "id": 31,
     "name": "",
     "class": "coin",
     "x": 704,
     "y": 240,
     "width": 16,
     "height": 16,
     "rotation": 0,
     "visible": true
    },
    {
     "id": 32,
     "name": "",
     "class": "coin",
     "x": 720,
     "y": 240,
     "width": 16,
     "height": 16,
     "rotation": 0,
     "visible": true
    },
    {
     "id": 33,
     "name": "",
     "class": "coin",
     "x": 736,
     "y": 240,
     "width": 16,
     "height": 16,
     "rotation": 0,
     "visible": true
    },
    {
     "id": 34,
     "name": "",
     "class": "coin",
     "x": 752,
     "y": 240,
     "width": 16,
     "height": 16,
     "rotation": 0,
     "visible": true
    },
    {
     "id": 35,
     "name": "",
     "class": "coin",
     "x": 768,
     "y": 240,
     "width": 16,
     "height": 16,
     "rotation": 0,
     "visible": true
    },
    {
     "id": 36,
     "name": "",
     "class": "coin",
     "x": 784,
     "y": 240,
     "width": 16,
     "height": 16,
     "rotation": 0,
     "visible": true
    },
    {
     "id": 37,
     "name": "",
     "class": "coin",
     "x": 800,
     "y": 240,
     "width": 16,
     "height": 16,
     "rotation": 0,
     "visible": true
    },
    {
     "id": 38,
     "name": "",
     "class": "coin",
     "x": 816,
     "y": 240,
     "width": 16,
     "height": 16,
     "rotation": 0,
     "visible": true
    },
    {
     "id": 39,
     "name": "",
     "class": "bounce",
     "x": 32,
     "y": 304,
     "width": 16,
     "height": 16,
     "rotation": 0,
     "visible": true,
     "properties": [
      {
       "name": "kind",
       "type": "string",
       "value": "sprinkler"
      },
      {
       "name": "periodMs",
       "type": "string",
       "value": "2600"
      },
      {
       "name": "offsetMs",
       "type": "string",
       "value": "0"
      }
     ]
    },
    {
     "id": 40,
     "name": "",
     "class": "bounce",
     "x": 848,
     "y": 304,
     "width": 16,
     "height": 16,
     "rotation": 0,
     "visible": true,
     "properties": [
      {
       "name": "kind",
       "type": "string",
       "value": "sprinkler"
      },
      {
       "name": "periodMs",
       "type": "string",
       "value": "2600"
      },
      {
       "name": "offsetMs",
       "type": "string",
       "value": "1300"
      }
     ]
    },
    {
     "id": 41,
     "name": "",
     "class": "boss",
     "x": 288,
     "y": 320,
     "width": 16,
     "height": 16,
     "rotation": 0,
     "visible": true,
     "properties": [
      {
       "name": "kind",
       "type": "string",
       "value": "escalade"
      }
     ]
    },
    {
     "id": 42,
     "name": "",
     "class": "label",
     "x": 32,
     "y": 240,
     "width": 16,
     "height": 16,
     "rotation": 0,
     "visible": true,
     "properties": [
      {
       "name": "text",
       "type": "string",
       "value": "THE CUL-DE-SAC"
      }
     ]
    },
    {
     "id": 43,
     "name": "",
     "class": "label",
     "x": 32,
     "y": 256,
     "width": 16,
     "height": 16,
     "rotation": 0,
     "visible": true,
     "properties": [
      {
       "name": "text",
       "type": "string",
       "value": "she is on the phone. she has not noticed you."
      }
     ]
    },
    {
     "id": 44,
     "name": "",
     "class": "label",
     "x": 32,
     "y": 272,
     "width": 16,
     "height": 16,
     "rotation": 0,
     "visible": true,
     "properties": [
      {
       "name": "text",
       "type": "string",
       "value": "GET ON THE ROOF WHEN IT CRASHES."
      }
     ]
    },
    {
     "id": 45,
     "name": "",
     "class": "label",
     "x": 32,
     "y": 288,
     "width": 16,
     "height": 16,
     "rotation": 0,
     "visible": true,
     "properties": [
      {
       "name": "text",
       "type": "string",
       "value": "THEN BEREL: JUMP, AND PRESS DOWN."
      }
     ]
    },
    {
     "id": 46,
     "name": "",
     "class": "label",
     "x": 736,
     "y": 240,
     "width": 16,
     "height": 16,
     "rotation": 0,
     "visible": true,
     "properties": [
      {
       "name": "text",
       "type": "string",
       "value": "WAIT UP HERE"
      }
     ]
    },
    {
     "id": 47,
     "name": "",
     "class": "label",
     "x": 720,
     "y": 176,
     "width": 16,
     "height": 16,
     "rotation": 0,
     "visible": true,
     "properties": [
      {
       "name": "text",
       "type": "string",
       "value": "SWAP IS FREE. USE IT."
      }
     ]
    }
   ]
  }
 ]
}
