{
 "compressionlevel": -1,
 "width": 252,
 "height": 30,
 "tilewidth": 16,
 "tileheight": 16,
 "infinite": false,
 "orientation": "orthogonal",
 "renderorder": "right-down",
 "tiledversion": "1.11.0",
 "type": "map",
 "version": "1.10",
 "nextlayerid": 3,
 "nextobjectid": 156,
 "tilesets": [],
 "properties": [
  {
   "name": "name",
   "type": "string",
   "value": "The Lake"
  },
  {
   "name": "backgroundColor",
   "type": "string",
   "value": "0x101c26"
  },
  {
   "name": "groundRow",
   "type": "string",
   "value": "22"
  },
  {
   "name": "backdrop",
   "type": "string",
   "value": "catskills_day"
  }
 ],
 "layers": [
  {
   "id": 1,
   "name": "solids",
   "type": "objectgroup",
   "draworder": "index",
   "opacity": 1,
   "visible": true,
   "x": 0,
   "y": 0,
   "objects": [
    {
     "id": 1,
     "name": "",
     "class": "",
     "x": 0,
     "y": 352,
     "width": 416,
     "height": 128,
     "rotation": 0,
     "visible": true,
     "properties": [
      {
       "name": "kind",
       "type": "string",
       "value": "ground"
      }
     ]
    },
    {
     "id": 2,
     "name": "",
     "class": "",
     "x": 416,
     "y": 432,
     "width": 320,
     "height": 48,
     "rotation": 0,
     "visible": true,
     "properties": [
      {
       "name": "kind",
       "type": "string",
       "value": "pool"
      }
     ]
    },
    {
     "id": 3,
     "name": "",
     "class": "",
     "x": 416,
     "y": 320,
     "width": 32,
     "height": 16,
     "rotation": 0,
     "visible": true,
     "properties": [
      {
       "name": "kind",
       "type": "string",
       "value": "platform"
      }
     ]
    },
    {
     "id": 4,
     "name": "",
     "class": "",
     "x": 512,
     "y": 320,
     "width": 48,
     "height": 16,
     "rotation": 0,
     "visible": true,
     "properties": [
      {
       "name": "kind",
       "type": "string",
       "value": "platform"
      }
     ]
    },
    {
     "id": 5,
     "name": "",
     "class": "",
     "x": 704,
     "y": 352,
     "width": 32,
     "height": 80,
     "rotation": 0,
     "visible": true,
     "properties": [
      {
       "name": "kind",
       "type": "string",
       "value": "ground"
      }
     ]
    },
    {
     "id": 6,
     "name": "",
     "class": "",
     "x": 688,
     "y": 368,
     "width": 16,
     "height": 16,
     "rotation": 0,
     "visible": true,
     "properties": [
      {
       "name": "kind",
       "type": "string",
       "value": "pool"
      }
     ]
    },
    {
     "id": 7,
     "name": "",
     "class": "",
     "x": 736,
     "y": 368,
     "width": 16,
     "height": 16,
     "rotation": 0,
     "visible": true,
     "properties": [
      {
       "name": "kind",
       "type": "string",
       "value": "pool"
      }
     ]
    },
    {
     "id": 8,
     "name": "",
     "class": "",
     "x": 736,
     "y": 432,
     "width": 480,
     "height": 48,
     "rotation": 0,
     "visible": true,
     "properties": [
      {
       "name": "kind",
       "type": "string",
       "value": "pool"
      }
     ]
    },
    {
     "id": 9,
     "name": "",
     "class": "",
     "x": 800,
     "y": 320,
     "width": 128,
     "height": 16,
     "rotation": 0,
     "visible": true,
     "properties": [
      {
       "name": "kind",
       "type": "string",
       "value": "platform"
      }
     ]
    },
    {
     "id": 10,
     "name": "",
     "class": "",
     "x": 960,
     "y": 352,
     "width": 32,
     "height": 80,
     "rotation": 0,
     "visible": true,
     "properties": [
      {
       "name": "kind",
       "type": "string",
       "value": "ground"
      }
     ]
    },
    {
     "id": 11,
     "name": "",
     "class": "",
     "x": 944,
     "y": 368,
     "width": 16,
     "height": 16,
     "rotation": 0,
     "visible": true,
     "properties": [
      {
       "name": "kind",
       "type": "string",
       "value": "pool"
      }
     ]
    },
    {
     "id": 12,
     "name": "",
     "class": "",
     "x": 992,
     "y": 368,
     "width": 16,
     "height": 16,
     "rotation": 0,
     "visible": true,
     "properties": [
      {
       "name": "kind",
       "type": "string",
       "value": "pool"
      }
     ]
    },
    {
     "id": 13,
     "name": "",
     "class": "",
     "x": 1088,
     "y": 352,
     "width": 32,
     "height": 80,
     "rotation": 0,
     "visible": true,
     "properties": [
      {
       "name": "kind",
       "type": "string",
       "value": "ground"
      }
     ]
    },
    {
     "id": 14,
     "name": "",
     "class": "",
     "x": 1072,
     "y": 368,
     "width": 16,
     "height": 16,
     "rotation": 0,
     "visible": true,
     "properties": [
      {
       "name": "kind",
       "type": "string",
       "value": "pool"
      }
     ]
    },
    {
     "id": 15,
     "name": "",
     "class": "",
     "x": 1120,
     "y": 368,
     "width": 16,
     "height": 16,
     "rotation": 0,
     "visible": true,
     "properties": [
      {
       "name": "kind",
       "type": "string",
       "value": "pool"
      }
     ]
    },
    {
     "id": 16,
     "name": "",
     "class": "",
     "x": 1120,
     "y": 320,
     "width": 96,
     "height": 16,
     "rotation": 0,
     "visible": true,
     "properties": [
      {
       "name": "kind",
       "type": "string",
       "value": "platform"
      }
     ]
    },
    {
     "id": 17,
     "name": "",
     "class": "",
     "x": 1216,
     "y": 432,
     "width": 544,
     "height": 48,
     "rotation": 0,
     "visible": true,
     "properties": [
      {
       "name": "kind",
       "type": "string",
       "value": "pool"
      }
     ]
    },
    {
     "id": 18,
     "name": "",
     "class": "",
     "x": 1344,
     "y": 352,
     "width": 80,
     "height": 80,
     "rotation": 0,
     "visible": true,
     "properties": [
      {
       "name": "kind",
       "type": "string",
       "value": "ground"
      }
     ]
    },
    {
     "id": 19,
     "name": "",
     "class": "",
     "x": 1328,
     "y": 368,
     "width": 16,
     "height": 16,
     "rotation": 0,
     "visible": true,
     "properties": [
      {
       "name": "kind",
       "type": "string",
       "value": "pool"
      }
     ]
    },
    {
     "id": 20,
     "name": "",
     "class": "",
     "x": 1424,
     "y": 368,
     "width": 16,
     "height": 16,
     "rotation": 0,
     "visible": true,
     "properties": [
      {
       "name": "kind",
       "type": "string",
       "value": "pool"
      }
     ]
    },
    {
     "id": 21,
     "name": "",
     "class": "",
     "x": 1568,
     "y": 352,
     "width": 48,
     "height": 80,
     "rotation": 0,
     "visible": true,
     "properties": [
      {
       "name": "kind",
       "type": "string",
       "value": "ground"
      }
     ]
    },
    {
     "id": 22,
     "name": "",
     "class": "",
     "x": 1552,
     "y": 368,
     "width": 16,
     "height": 16,
     "rotation": 0,
     "visible": true,
     "properties": [
      {
       "name": "kind",
       "type": "string",
       "value": "pool"
      }
     ]
    },
    {
     "id": 23,
     "name": "",
     "class": "",
     "x": 1616,
     "y": 368,
     "width": 16,
     "height": 16,
     "rotation": 0,
     "visible": true,
     "properties": [
      {
       "name": "kind",
       "type": "string",
       "value": "pool"
      }
     ]
    },
    {
     "id": 24,
     "name": "",
     "class": "",
     "x": 1696,
     "y": 352,
     "width": 64,
     "height": 80,
     "rotation": 0,
     "visible": true,
     "properties": [
      {
       "name": "kind",
       "type": "string",
       "value": "ground"
      }
     ]
    },
    {
     "id": 25,
     "name": "",
     "class": "",
     "x": 1680,
     "y": 368,
     "width": 16,
     "height": 16,
     "rotation": 0,
     "visible": true,
     "properties": [
      {
       "name": "kind",
       "type": "string",
       "value": "pool"
      }
     ]
    },
    {
     "id": 26,
     "name": "",
     "class": "",
     "x": 1760,
     "y": 368,
     "width": 16,
     "height": 16,
     "rotation": 0,
     "visible": true,
     "properties": [
      {
       "name": "kind",
       "type": "string",
       "value": "pool"
      }
     ]
    },
    {
     "id": 27,
     "name": "",
     "class": "",
     "x": 1760,
     "y": 352,
     "width": 576,
     "height": 128,
     "rotation": 0,
     "visible": true,
     "properties": [
      {
       "name": "kind",
       "type": "string",
       "value": "ground"
      }
     ]
    },
    {
     "id": 28,
     "name": "",
     "class": "",
     "x": 2048,
     "y": 288,
     "width": 64,
     "height": 16,
     "rotation": 0,
     "visible": true,
     "properties": [
      {
       "name": "kind",
       "type": "string",
       "value": "platform"
      }
     ]
    },
    {
     "id": 29,
     "name": "",
     "class": "",
     "x": 2176,
     "y": 320,
     "width": 64,
     "height": 16,
     "rotation": 0,
     "visible": true,
     "properties": [
      {
       "name": "kind",
       "type": "string",
       "value": "platform"
      }
     ]
    },
    {
     "id": 30,
     "name": "",
     "class": "",
     "x": 2336,
     "y": 432,
     "width": 416,
     "height": 48,
     "rotation": 0,
     "visible": true,
     "properties": [
      {
       "name": "kind",
       "type": "string",
       "value": "pool"
      }
     ]
    },
    {
     "id": 31,
     "name": "",
     "class": "",
     "x": 2336,
     "y": 320,
     "width": 64,
     "height": 16,
     "rotation": 0,
     "visible": true,
     "properties": [
      {
       "name": "kind",
       "type": "string",
       "value": "platform"
      }
     ]
    },
    {
     "id": 32,
     "name": "",
     "class": "",
     "x": 2560,
     "y": 352,
     "width": 32,
     "height": 80,
     "rotation": 0,
     "visible": true,
     "properties": [
      {
       "name": "kind",
       "type": "string",
       "value": "ground"
      }
     ]
    },
    {
     "id": 33,
     "name": "",
     "class": "",
     "x": 2544,
     "y": 368,
     "width": 16,
     "height": 16,
     "rotation": 0,
     "visible": true,
     "properties": [
      {
       "name": "kind",
       "type": "string",
       "value": "pool"
      }
     ]
    },
    {
     "id": 34,
     "name": "",
     "class": "",
     "x": 2592,
     "y": 368,
     "width": 16,
     "height": 16,
     "rotation": 0,
     "visible": true,
     "properties": [
      {
       "name": "kind",
       "type": "string",
       "value": "pool"
      }
     ]
    },
    {
     "id": 35,
     "name": "",
     "class": "",
     "x": 2720,
     "y": 352,
     "width": 32,
     "height": 80,
     "rotation": 0,
     "visible": true,
     "properties": [
      {
       "name": "kind",
       "type": "string",
       "value": "ground"
      }
     ]
    },
    {
     "id": 36,
     "name": "",
     "class": "",
     "x": 2704,
     "y": 368,
     "width": 16,
     "height": 16,
     "rotation": 0,
     "visible": true,
     "properties": [
      {
       "name": "kind",
       "type": "string",
       "value": "pool"
      }
     ]
    },
    {
     "id": 37,
     "name": "",
     "class": "",
     "x": 2752,
     "y": 368,
     "width": 16,
     "height": 16,
     "rotation": 0,
     "visible": true,
     "properties": [
      {
       "name": "kind",
       "type": "string",
       "value": "pool"
      }
     ]
    },
    {
     "id": 38,
     "name": "",
     "class": "",
     "x": 2752,
     "y": 352,
     "width": 1280,
     "height": 128,
     "rotation": 0,
     "visible": true,
     "properties": [
      {
       "name": "kind",
       "type": "string",
       "value": "ground"
      }
     ]
    },
    {
     "id": 39,
     "name": "",
     "class": "",
     "x": 3040,
     "y": 320,
     "width": 80,
     "height": 16,
     "rotation": 0,
     "visible": true,
     "properties": [
      {
       "name": "kind",
       "type": "string",
       "value": "platform"
      }
     ]
    }
   ]
  },
  {
   "id": 2,
   "name": "entities",
   "type": "objectgroup",
   "draworder": "index",
   "opacity": 1,
   "visible": true,
   "x": 0,
   "y": 0,
   "objects": [
    {
     "id": 40,
     "name": "",
     "class": "spawn",
     "x": 48,
     "y": 352,
     "width": 16,
     "height": 16,
     "rotation": 0,
     "visible": true
    },
    {
     "id": 41,
     "name": "",
     "class": "goal",
     "x": 3520,
     "y": 352,
     "width": 16,
     "height": 16,
     "rotation": 0,
     "visible": true
    },
    {
     "id": 42,
     "name": "",
     "class": "checkpoint",
     "x": 384,
     "y": 352,
     "width": 16,
     "height": 16,
     "rotation": 0,
     "visible": true
    },
    {
     "id": 43,
     "name": "",
     "class": "checkpoint",
     "x": 1792,
     "y": 352,
     "width": 16,
     "height": 16,
     "rotation": 0,
     "visible": true
    },
    {
     "id": 44,
     "name": "",
     "class": "coin",
     "x": 128,
     "y": 336,
     "width": 16,
     "height": 16,
     "rotation": 0,
     "visible": true
    },
    {
     "id": 45,
     "name": "",
     "class": "coin",
     "x": 144,
     "y": 336,
     "width": 16,
     "height": 16,
     "rotation": 0,
     "visible": true
    },
    {
     "id": 46,
     "name": "",
     "class": "coin",
     "x": 160,
     "y": 336,
     "width": 16,
     "height": 16,
     "rotation": 0,
     "visible": true
    },
    {
     "id": 47,
     "name": "",
     "class": "coin",
     "x": 176,
     "y": 336,
     "width": 16,
     "height": 16,
     "rotation": 0,
     "visible": true
    },
    {
     "id": 48,
     "name": "",
     "class": "coin",
     "x": 320,
     "y": 336,
     "width": 16,
     "height": 16,
     "rotation": 0,
     "visible": true
    },
    {
     "id": 49,
     "name": "",
     "class": "coin",
     "x": 336,
     "y": 336,
     "width": 16,
     "height": 16,
     "rotation": 0,
     "visible": true
    },
    {
     "id": 50,
     "name": "",
     "class": "coin",
     "x": 352,
     "y": 336,
     "width": 16,
     "height": 16,
     "rotation": 0,
     "visible": true
    },
    {
     "id": 51,
     "name": "",
     "class": "coin",
     "x": 512,
     "y": 304,
     "width": 16,
     "height": 16,
     "rotation": 0,
     "visible": true
    },
    {
     "id": 52,
     "name": "",
     "class": "coin",
     "x": 528,
     "y": 304,
     "width": 16,
     "height": 16,
     "rotation": 0,
     "visible": true
    },
    {
     "id": 53,
     "name": "",
     "class": "coin",
     "x": 544,
     "y": 304,
     "width": 16,
     "height": 16,
     "rotation": 0,
     "visible": true
    },
    {
     "id": 54,
     "name": "",
     "class": "coin",
     "x": 704,
     "y": 336,
     "width": 16,
     "height": 16,
     "rotation": 0,
     "visible": true
    },
    {
     "id": 55,
     "name": "",
     "class": "coin",
     "x": 720,
     "y": 336,
     "width": 16,
     "height": 16,
     "rotation": 0,
     "visible": true
    },
    {
     "id": 56,
     "name": "",
     "class": "coin",
     "x": 816,
     "y": 304,
     "width": 16,
     "height": 16,
     "rotation": 0,
     "visible": true
    },
    {
     "id": 57,
     "name": "",
     "class": "coin",
     "x": 832,
     "y": 304,
     "width": 16,
     "height": 16,
     "rotation": 0,
     "visible": true
    },
    {
     "id": 58,
     "name": "",
     "class": "coin",
     "x": 848,
     "y": 304,
     "width": 16,
     "height": 16,
     "rotation": 0,
     "visible": true
    },
    {
     "id": 59,
     "name": "",
     "class": "coin",
     "x": 864,
     "y": 304,
     "width": 16,
     "height": 16,
     "rotation": 0,
     "visible": true
    },
    {
     "id": 60,
     "name": "",
     "class": "coin",
     "x": 880,
     "y": 304,
     "width": 16,
     "height": 16,
     "rotation": 0,
     "visible": true
    },
    {
     "id": 61,
     "name": "",
     "class": "coin",
     "x": 896,
     "y": 304,
     "width": 16,
     "height": 16,
     "rotation": 0,
     "visible": true
    },
    {
     "id": 62,
     "name": "",
     "class": "coin",
     "x": 960,
     "y": 336,
     "width": 16,
     "height": 16,
     "rotation": 0,
     "visible": true
    },
    {
     "id": 63,
     "name": "",
     "class": "coin",
     "x": 976,
     "y": 336,
     "width": 16,
     "height": 16,
     "rotation": 0,
     "visible": true
    },
    {
     "id": 64,
     "name": "",
     "class": "coin",
     "x": 1120,
     "y": 304,
     "width": 16,
     "height": 16,
     "rotation": 0,
     "visible": true
    },
    {
     "id": 65,
     "name": "",
     "class": "coin",
     "x": 1136,
     "y": 304,
     "width": 16,
     "height": 16,
     "rotation": 0,
     "visible": true
    },
    {
     "id": 66,
     "name": "",
     "class": "coin",
     "x": 1152,
     "y": 304,
     "width": 16,
     "height": 16,
     "rotation": 0,
     "visible": true
    },
    {
     "id": 67,
     "name": "",
     "class": "coin",
     "x": 1280,
     "y": 256,
     "width": 16,
     "height": 16,
     "rotation": 0,
     "visible": true
    },
    {
     "id": 68,
     "name": "",
     "class": "coin",
     "x": 1296,
     "y": 256,
     "width": 16,
     "height": 16,
     "rotation": 0,
     "visible": true
    },
    {
     "id": 69,
     "name": "",
     "class": "coin",
     "x": 1312,
     "y": 256,
     "width": 16,
     "height": 16,
     "rotation": 0,
     "visible": true
    },
    {
     "id": 70,
     "name": "",
     "class": "coin",
     "x": 1344,
     "y": 336,
     "width": 16,
     "height": 16,
     "rotation": 0,
     "visible": true
    },
    {
     "id": 71,
     "name": "",
     "class": "coin",
     "x": 1360,
     "y": 336,
     "width": 16,
     "height": 16,
     "rotation": 0,
     "visible": true
    },
    {
     "id": 72,
     "name": "",
     "class": "coin",
     "x": 1376,
     "y": 336,
     "width": 16,
     "height": 16,
     "rotation": 0,
     "visible": true
    },
    {
     "id": 73,
     "name": "",
     "class": "coin",
     "x": 1392,
     "y": 336,
     "width": 16,
     "height": 16,
     "rotation": 0,
     "visible": true
    },
    {
     "id": 74,
     "name": "",
     "class": "coin",
     "x": 1408,
     "y": 336,
     "width": 16,
     "height": 16,
     "rotation": 0,
     "visible": true
    },
    {
     "id": 75,
     "name": "",
     "class": "coin",
     "x": 1568,
     "y": 336,
     "width": 16,
     "height": 16,
     "rotation": 0,
     "visible": true
    },
    {
     "id": 76,
     "name": "",
     "class": "coin",
     "x": 1584,
     "y": 336,
     "width": 16,
     "height": 16,
     "rotation": 0,
     "visible": true
    },
    {
     "id": 77,
     "name": "",
     "class": "coin",
     "x": 1600,
     "y": 336,
     "width": 16,
     "height": 16,
     "rotation": 0,
     "visible": true
    },
    {
     "id": 78,
     "name": "",
     "class": "coin",
     "x": 1504,
     "y": 416,
     "width": 16,
     "height": 16,
     "rotation": 0,
     "visible": true
    },
    {
     "id": 79,
     "name": "",
     "class": "coin",
     "x": 1568,
     "y": 416,
     "width": 16,
     "height": 16,
     "rotation": 0,
     "visible": true
    },
    {
     "id": 80,
     "name": "",
     "class": "coin",
     "x": 1696,
     "y": 336,
     "width": 16,
     "height": 16,
     "rotation": 0,
     "visible": true
    },
    {
     "id": 81,
     "name": "",
     "class": "coin",
     "x": 1712,
     "y": 336,
     "width": 16,
     "height": 16,
     "rotation": 0,
     "visible": true
    },
    {
     "id": 82,
     "name": "",
     "class": "coin",
     "x": 1728,
     "y": 336,
     "width": 16,
     "height": 16,
     "rotation": 0,
     "visible": true
    },
    {
     "id": 83,
     "name": "",
     "class": "coin",
     "x": 1744,
     "y": 336,
     "width": 16,
     "height": 16,
     "rotation": 0,
     "visible": true
    },
    {
     "id": 84,
     "name": "",
     "class": "coin",
     "x": 1920,
     "y": 304,
     "width": 16,
     "height": 16,
     "rotation": 0,
     "visible": true
    },
    {
     "id": 85,
     "name": "",
     "class": "coin",
     "x": 1936,
     "y": 304,
     "width": 16,
     "height": 16,
     "rotation": 0,
     "visible": true
    },
    {
     "id": 86,
     "name": "",
     "class": "coin",
     "x": 1952,
     "y": 304,
     "width": 16,
     "height": 16,
     "rotation": 0,
     "visible": true
    },
    {
     "id": 87,
     "name": "",
     "class": "coin",
     "x": 1968,
     "y": 304,
     "width": 16,
     "height": 16,
     "rotation": 0,
     "visible": true
    },
    {
     "id": 88,
     "name": "",
     "class": "coin",
     "x": 1984,
     "y": 304,
     "width": 16,
     "height": 16,
     "rotation": 0,
     "visible": true
    },
    {
     "id": 89,
     "name": "",
     "class": "coin",
     "x": 2000,
     "y": 304,
     "width": 16,
     "height": 16,
     "rotation": 0,
     "visible": true
    },
    {
     "id": 90,
     "name": "",
     "class": "coin",
     "x": 2016,
     "y": 304,
     "width": 16,
     "height": 16,
     "rotation": 0,
     "visible": true
    },
    {
     "id": 91,
     "name": "",
     "class": "coin",
     "x": 2048,
     "y": 272,
     "width": 16,
     "height": 16,
     "rotation": 0,
     "visible": true
    },
    {
     "id": 92,
     "name": "",
     "class": "coin",
     "x": 2064,
     "y": 272,
     "width": 16,
     "height": 16,
     "rotation": 0,
     "visible": true
    },
    {
     "id": 93,
     "name": "",
     "class": "coin",
     "x": 2080,
     "y": 272,
     "width": 16,
     "height": 16,
     "rotation": 0,
     "visible": true
    },
    {
     "id": 94,
     "name": "",
     "class": "coin",
     "x": 2096,
     "y": 272,
     "width": 16,
     "height": 16,
     "rotation": 0,
     "visible": true
    },
    {
     "id": 95,
     "name": "",
     "class": "coin",
     "x": 2176,
     "y": 304,
     "width": 16,
     "height": 16,
     "rotation": 0,
     "visible": true
    },
    {
     "id": 96,
     "name": "",
     "class": "coin",
     "x": 2192,
     "y": 304,
     "width": 16,
     "height": 16,
     "rotation": 0,
     "visible": true
    },
    {
     "id": 97,
     "name": "",
     "class": "coin",
     "x": 2208,
     "y": 304,
     "width": 16,
     "height": 16,
     "rotation": 0,
     "visible": true
    },
    {
     "id": 98,
     "name": "",
     "class": "coin",
     "x": 2224,
     "y": 304,
     "width": 16,
     "height": 16,
     "rotation": 0,
     "visible": true
    },
    {
     "id": 99,
     "name": "",
     "class": "coin",
     "x": 2528,
     "y": 240,
     "width": 16,
     "height": 16,
     "rotation": 0,
     "visible": true
    },
    {
     "id": 100,
     "name": "",
     "class": "coin",
     "x": 2544,
     "y": 240,
     "width": 16,
     "height": 16,
     "rotation": 0,
     "visible": true
    },
    {
     "id": 101,
     "name": "",
     "class": "coin",
     "x": 2560,
     "y": 240,
     "width": 16,
     "height": 16,
     "rotation": 0,
     "visible": true
    },
    {
     "id": 102,
     "name": "",
     "class": "coin",
     "x": 2576,
     "y": 240,
     "width": 16,
     "height": 16,
     "rotation": 0,
     "visible": true
    },
    {
     "id": 103,
     "name": "",
     "class": "coin",
     "x": 2560,
     "y": 336,
     "width": 16,
     "height": 16,
     "rotation": 0,
     "visible": true
    },
    {
     "id": 104,
     "name": "",
     "class": "coin",
     "x": 2576,
     "y": 336,
     "width": 16,
     "height": 16,
     "rotation": 0,
     "visible": true
    },
    {
     "id": 105,
     "name": "",
     "class": "coin",
     "x": 2944,
     "y": 336,
     "width": 16,
     "height": 16,
     "rotation": 0,
     "visible": true
    },
    {
     "id": 106,
     "name": "",
     "class": "coin",
     "x": 2960,
     "y": 336,
     "width": 16,
     "height": 16,
     "rotation": 0,
     "visible": true
    },
    {
     "id": 107,
     "name": "",
     "class": "coin",
     "x": 2976,
     "y": 336,
     "width": 16,
     "height": 16,
     "rotation": 0,
     "visible": true
    },
    {
     "id": 108,
     "name": "",
     "class": "coin",
     "x": 2992,
     "y": 336,
     "width": 16,
     "height": 16,
     "rotation": 0,
     "visible": true
    },
    {
     "id": 109,
     "name": "",
     "class": "coin",
     "x": 3040,
     "y": 304,
     "width": 16,
     "height": 16,
     "rotation": 0,
     "visible": true
    },
    {
     "id": 110,
     "name": "",
     "class": "coin",
     "x": 3056,
     "y": 304,
     "width": 16,
     "height": 16,
     "rotation": 0,
     "visible": true
    },
    {
     "id": 111,
     "name": "",
     "class": "coin",
     "x": 3072,
     "y": 304,
     "width": 16,
     "height": 16,
     "rotation": 0,
     "visible": true
    },
    {
     "id": 112,
     "name": "",
     "class": "coin",
     "x": 3088,
     "y": 304,
     "width": 16,
     "height": 16,
     "rotation": 0,
     "visible": true
    },
    {
     "id": 113,
     "name": "",
     "class": "coin",
     "x": 3104,
     "y": 304,
     "width": 16,
     "height": 16,
     "rotation": 0,
     "visible": true
    },
    {
     "id": 114,
     "name": "",
     "class": "coin",
     "x": 3232,
     "y": 304,
     "width": 16,
     "height": 16,
     "rotation": 0,
     "visible": true
    },
    {
     "id": 115,
     "name": "",
     "class": "coin",
     "x": 3248,
     "y": 288,
     "width": 16,
     "height": 16,
     "rotation": 0,
     "visible": true
    },
    {
     "id": 116,
     "name": "",
     "class": "coin",
     "x": 3264,
     "y": 272,
     "width": 16,
     "height": 16,
     "rotation": 0,
     "visible": true
    },
    {
     "id": 117,
     "name": "",
     "class": "coin",
     "x": 3280,
     "y": 272,
     "width": 16,
     "height": 16,
     "rotation": 0,
     "visible": true
    },
    {
     "id": 118,
     "name": "",
     "class": "coin",
     "x": 3296,
     "y": 272,
     "width": 16,
     "height": 16,
     "rotation": 0,
     "visible": true
    },
    {
     "id": 119,
     "name": "",
     "class": "coin",
     "x": 3312,
     "y": 272,
     "width": 16,
     "height": 16,
     "rotation": 0,
     "visible": true
    },
    {
     "id": 120,
     "name": "",
     "class": "coin",
     "x": 3328,
     "y": 288,
     "width": 16,
     "height": 16,
     "rotation": 0,
     "visible": true
    },
    {
     "id": 121,
     "name": "",
     "class": "coin",
     "x": 3344,
     "y": 304,
     "width": 16,
     "height": 16,
     "rotation": 0,
     "visible": true
    },
    {
     "id": 122,
     "name": "",
     "class": "coin",
     "x": 3392,
     "y": 336,
     "width": 16,
     "height": 16,
     "rotation": 0,
     "visible": true
    },
    {
     "id": 123,
     "name": "",
     "class": "coin",
     "x": 3408,
     "y": 336,
     "width": 16,
     "height": 16,
     "rotation": 0,
     "visible": true
    },
    {
     "id": 124,
     "name": "",
     "class": "coin",
     "x": 3424,
     "y": 336,
     "width": 16,
     "height": 16,
     "rotation": 0,
     "visible": true
    },
    {
     "id": 125,
     "name": "",
     "class": "coin",
     "x": 3440,
     "y": 336,
     "width": 16,
     "height": 16,
     "rotation": 0,
     "visible": true
    },
    {
     "id": 126,
     "name": "",
     "class": "coin",
     "x": 3456,
     "y": 336,
     "width": 16,
     "height": 16,
     "rotation": 0,
     "visible": true
    },
    {
     "id": 127,
     "name": "",
     "class": "coin",
     "x": 3472,
     "y": 336,
     "width": 16,
     "height": 16,
     "rotation": 0,
     "visible": true
    },
    {
     "id": 128,
     "name": "",
     "class": "block",
     "x": 1536,
     "y": 416,
     "width": 16,
     "height": 16,
     "rotation": 0,
     "visible": true,
     "properties": [
      {
       "name": "block",
       "type": "string",
       "value": "reinforced"
      },
      {
       "name": "contents",
       "type": "string",
       "value": "lchaim"
      }
     ]
    },
    {
     "id": 129,
     "name": "",
     "class": "block",
     "x": 2112,
     "y": 256,
     "width": 16,
     "height": 16,
     "rotation": 0,
     "visible": true,
     "properties": [
      {
       "name": "block",
       "type": "string",
       "value": "mystery"
      },
      {
       "name": "contents",
       "type": "string",
       "value": "menorah"
      }
     ]
    },
    {
     "id": 130,
     "name": "",
     "class": "enemy",
     "x": 528,
     "y": 320,
     "width": 16,
     "height": 16,
     "rotation": 0,
     "visible": true,
     "properties": [
      {
       "name": "enemy",
       "type": "string",
       "value": "frog"
      }
     ]
    },
    {
     "id": 131,
     "name": "",
     "class": "enemy",
     "x": 864,
     "y": 320,
     "width": 16,
     "height": 16,
     "rotation": 0,
     "visible": true,
     "properties": [
      {
       "name": "enemy",
       "type": "string",
       "value": "frog"
      }
     ]
    },
    {
     "id": 132,
     "name": "",
     "class": "enemy",
     "x": 1888,
     "y": 352,
     "width": 16,
     "height": 16,
     "rotation": 0,
     "visible": true,
     "properties": [
      {
       "name": "enemy",
       "type": "string",
       "value": "frog"
      }
     ]
    },
    {
     "id": 133,
     "name": "",
     "class": "enemy",
     "x": 2368,
     "y": 320,
     "width": 16,
     "height": 16,
     "rotation": 0,
     "visible": true,
     "properties": [
      {
       "name": "enemy",
       "type": "string",
       "value": "frog"
      }
     ]
    },
    {
     "id": 134,
     "name": "",
     "class": "enemy",
     "x": 2912,
     "y": 352,
     "width": 16,
     "height": 16,
     "rotation": 0,
     "visible": true,
     "properties": [
      {
       "name": "enemy",
       "type": "string",
       "value": "frog"
      }
     ]
    },
    {
     "id": 135,
     "name": "",
     "class": "enemy",
     "x": 3136,
     "y": 352,
     "width": 16,
     "height": 16,
     "rotation": 0,
     "visible": true,
     "properties": [
      {
       "name": "enemy",
       "type": "string",
       "value": "frog"
      }
     ]
    },
    {
     "id": 136,
     "name": "",
     "class": "canoe",
     "x": 608,
     "y": 368,
     "width": 16,
     "height": 16,
     "rotation": 0,
     "visible": true,
     "properties": [
      {
       "name": "direction",
       "type": "int",
       "value": 1
      }
     ]
    },
    {
     "id": 137,
     "name": "",
     "class": "canoe",
     "x": 1024,
     "y": 368,
     "width": 16,
     "height": 16,
     "rotation": 0,
     "visible": true,
     "properties": [
      {
       "name": "direction",
       "type": "int",
       "value": -1
      }
     ]
    },
    {
     "id": 138,
     "name": "",
     "class": "canoe",
     "x": 1472,
     "y": 368,
     "width": 16,
     "height": 16,
     "rotation": 0,
     "visible": true,
     "properties": [
      {
       "name": "direction",
       "type": "int",
       "value": 1
      }
     ]
    },
    {
     "id": 139,
     "name": "",
     "class": "canoe",
     "x": 1632,
     "y": 368,
     "width": 16,
     "height": 16,
     "rotation": 0,
     "visible": true,
     "properties": [
      {
       "name": "direction",
       "type": "int",
       "value": -1
      }
     ]
    },
    {
     "id": 140,
     "name": "",
     "class": "canoe",
     "x": 2624,
     "y": 368,
     "width": 16,
     "height": 16,
     "rotation": 0,
     "visible": true,
     "properties": [
      {
       "name": "direction",
       "type": "int",
       "value": 1
      }
     ]
    },
    {
     "id": 141,
     "name": "",
     "class": "water",
     "x": 416,
     "y": 368,
     "width": 320,
     "height": 64,
     "rotation": 0,
     "visible": true
    },
    {
     "id": 142,
     "name": "",
     "class": "water",
     "x": 736,
     "y": 368,
     "width": 480,
     "height": 64,
     "rotation": 0,
     "visible": true
    },
    {
     "id": 143,
     "name": "",
     "class": "water",
     "x": 1216,
     "y": 368,
     "width": 544,
     "height": 64,
     "rotation": 0,
     "visible": true
    },
    {
     "id": 144,
     "name": "",
     "class": "water",
     "x": 2336,
     "y": 368,
     "width": 416,
     "height": 64,
     "rotation": 0,
     "visible": true
    },
    {
     "id": 145,
     "name": "",
     "class": "swing",
     "x": 1184,
     "y": 160,
     "width": 16,
     "height": 16,
     "rotation": 0,
     "visible": true,
     "properties": [
      {
       "name": "length",
       "type": "int",
       "value": 9
      },
      {
       "name": "lean",
       "type": "int",
       "value": -2
      }
     ]
    },
    {
     "id": 146,
     "name": "",
     "class": "swing",
     "x": 2384,
     "y": 160,
     "width": 16,
     "height": 16,
     "rotation": 0,
     "visible": true,
     "properties": [
      {
       "name": "length",
       "type": "int",
       "value": 9
      },
      {
       "name": "lean",
       "type": "int",
       "value": -2
      }
     ]
    },
    {
     "id": 147,
     "name": "",
     "class": "mud",
     "x": 224,
     "y": 352,
     "width": 96,
     "height": 16,
     "rotation": 0,
     "visible": true
    },
    {
     "id": 148,
     "name": "",
     "class": "mud",
     "x": 1920,
     "y": 352,
     "width": 112,
     "height": 16,
     "rotation": 0,
     "visible": true
    },
    {
     "id": 149,
     "name": "",
     "class": "mud",
     "x": 2816,
     "y": 352,
     "width": 80,
     "height": 16,
     "rotation": 0,
     "visible": true
    },
    {
     "id": 150,
     "name": "",
     "class": "label",
     "x": 32,
     "y": 240,
     "width": 16,
     "height": 16,
     "rotation": 0,
     "visible": true,
     "properties": [
      {
       "name": "text",
       "type": "string",
       "value": "THE LAKE"
      }
     ]
    },
    {
     "id": 151,
     "name": "",
     "class": "label",
     "x": 32,
     "y": 256,
     "width": 16,
     "height": 16,
     "rotation": 0,
     "visible": true,
     "properties": [
      {
       "name": "text",
       "type": "string",
       "value": "the mud is slow. your jump is not."
      }
     ]
    },
    {
     "id": 152,
     "name": "",
     "class": "label",
     "x": 32,
     "y": 272,
     "width": 16,
     "height": 16,
     "rotation": 0,
     "visible": true,
     "properties": [
      {
       "name": "text",
       "type": "string",
       "value": "FROGS BOUNCE YOU. CANOES CARRY YOU."
      }
     ]
    },
    {
     "id": 153,
     "name": "",
     "class": "label",
     "x": 224,
     "y": 304,
     "width": 16,
     "height": 16,
     "rotation": 0,
     "visible": true,
     "properties": [
      {
       "name": "text",
       "type": "string",
       "value": "SLOW"
      }
     ]
    },
    {
     "id": 154,
     "name": "",
     "class": "label",
     "x": 480,
     "y": 256,
     "width": 16,
     "height": 16,
     "rotation": 0,
     "visible": true,
     "properties": [
      {
       "name": "text",
       "type": "string",
       "value": "LAND ON IT"
      }
     ]
    },
    {
     "id": 155,
     "name": "",
     "class": "label",
     "x": 1088,
     "y": 240,
     "width": 16,
     "height": 16,
     "rotation": 0,
     "visible": true,
     "properties": [
      {
       "name": "text",
       "type": "string",
       "value": "JUMP FOR THE ROPE. JUMP AGAIN TO LET GO."
      }
     ]
    }
   ]
  }
 ]
}
