{
 "compressionlevel": -1,
 "width": 232,
 "height": 28,
 "tilewidth": 16,
 "tileheight": 16,
 "infinite": false,
 "orientation": "orthogonal",
 "renderorder": "right-down",
 "tiledversion": "1.11.0",
 "type": "map",
 "version": "1.10",
 "nextlayerid": 3,
 "nextobjectid": 144,
 "tilesets": [],
 "properties": [
  {
   "name": "name",
   "type": "string",
   "value": "Lights Out"
  },
  {
   "name": "backgroundColor",
   "type": "string",
   "value": "0x05070d"
  },
  {
   "name": "groundRow",
   "type": "string",
   "value": "21"
  },
  {
   "name": "lightRadius",
   "type": "string",
   "value": "58"
  },
  {
   "name": "backdrop",
   "type": "string",
   "value": "catskills_night"
  }
 ],
 "layers": [
  {
   "id": 1,
   "name": "solids",
   "type": "objectgroup",
   "draworder": "index",
   "opacity": 1,
   "visible": true,
   "x": 0,
   "y": 0,
   "objects": [
    {
     "id": 1,
     "name": "",
     "class": "",
     "x": 0,
     "y": 336,
     "width": 480,
     "height": 112,
     "rotation": 0,
     "visible": true,
     "properties": [
      {
       "name": "kind",
       "type": "string",
       "value": "ground"
      }
     ]
    },
    {
     "id": 2,
     "name": "",
     "class": "",
     "x": 528,
     "y": 336,
     "width": 368,
     "height": 112,
     "rotation": 0,
     "visible": true,
     "properties": [
      {
       "name": "kind",
       "type": "string",
       "value": "ground"
      }
     ]
    },
    {
     "id": 3,
     "name": "",
     "class": "",
     "x": 944,
     "y": 336,
     "width": 528,
     "height": 112,
     "rotation": 0,
     "visible": true,
     "properties": [
      {
       "name": "kind",
       "type": "string",
       "value": "ground"
      }
     ]
    },
    {
     "id": 4,
     "name": "",
     "class": "",
     "x": 1056,
     "y": 272,
     "width": 128,
     "height": 32,
     "rotation": 0,
     "visible": true,
     "properties": [
      {
       "name": "kind",
       "type": "string",
       "value": "roof"
      }
     ]
    },
    {
     "id": 5,
     "name": "",
     "class": "",
     "x": 1024,
     "y": 304,
     "width": 32,
     "height": 32,
     "rotation": 0,
     "visible": true,
     "properties": [
      {
       "name": "kind",
       "type": "string",
       "value": "platform"
      }
     ]
    },
    {
     "id": 6,
     "name": "",
     "class": "",
     "x": 1232,
     "y": 272,
     "width": 128,
     "height": 32,
     "rotation": 0,
     "visible": true,
     "properties": [
      {
       "name": "kind",
       "type": "string",
       "value": "roof"
      }
     ]
    },
    {
     "id": 7,
     "name": "",
     "class": "",
     "x": 1472,
     "y": 336,
     "width": 128,
     "height": 112,
     "rotation": 0,
     "visible": true,
     "properties": [
      {
       "name": "kind",
       "type": "string",
       "value": "ground"
      }
     ]
    },
    {
     "id": 8,
     "name": "",
     "class": "",
     "x": 1600,
     "y": 304,
     "width": 32,
     "height": 16,
     "rotation": 0,
     "visible": true,
     "properties": [
      {
       "name": "kind",
       "type": "string",
       "value": "platform"
      }
     ]
    },
    {
     "id": 9,
     "name": "",
     "class": "",
     "x": 1680,
     "y": 304,
     "width": 32,
     "height": 16,
     "rotation": 0,
     "visible": true,
     "properties": [
      {
       "name": "kind",
       "type": "string",
       "value": "platform"
      }
     ]
    },
    {
     "id": 10,
     "name": "",
     "class": "",
     "x": 1600,
     "y": 336,
     "width": 32,
     "height": 112,
     "rotation": 0,
     "visible": true,
     "properties": [
      {
       "name": "kind",
       "type": "string",
       "value": "ground"
      }
     ]
    },
    {
     "id": 11,
     "name": "",
     "class": "",
     "x": 1680,
     "y": 336,
     "width": 400,
     "height": 112,
     "rotation": 0,
     "visible": true,
     "properties": [
      {
       "name": "kind",
       "type": "string",
       "value": "ground"
      }
     ]
    },
    {
     "id": 12,
     "name": "",
     "class": "",
     "x": 2080,
     "y": 336,
     "width": 192,
     "height": 112,
     "rotation": 0,
     "visible": true,
     "properties": [
      {
       "name": "kind",
       "type": "string",
       "value": "ground"
      }
     ]
    },
    {
     "id": 13,
     "name": "",
     "class": "",
     "x": 2048,
     "y": 304,
     "width": 32,
     "height": 32,
     "rotation": 0,
     "visible": true,
     "properties": [
      {
       "name": "kind",
       "type": "string",
       "value": "platform"
      }
     ]
    },
    {
     "id": 14,
     "name": "",
     "class": "",
     "x": 2080,
     "y": 272,
     "width": 48,
     "height": 32,
     "rotation": 0,
     "visible": true,
     "properties": [
      {
       "name": "kind",
       "type": "string",
       "value": "roof"
      }
     ]
    },
    {
     "id": 15,
     "name": "",
     "class": "",
     "x": 2128,
     "y": 240,
     "width": 144,
     "height": 32,
     "rotation": 0,
     "visible": true,
     "properties": [
      {
       "name": "kind",
       "type": "string",
       "value": "roof"
      }
     ]
    },
    {
     "id": 16,
     "name": "",
     "class": "",
     "x": 2320,
     "y": 336,
     "width": 656,
     "height": 112,
     "rotation": 0,
     "visible": true,
     "properties": [
      {
       "name": "kind",
       "type": "string",
       "value": "ground"
      }
     ]
    },
    {
     "id": 17,
     "name": "",
     "class": "",
     "x": 2816,
     "y": 304,
     "width": 32,
     "height": 32,
     "rotation": 0,
     "visible": true,
     "properties": [
      {
       "name": "kind",
       "type": "string",
       "value": "wall"
      }
     ]
    },
    {
     "id": 18,
     "name": "",
     "class": "",
     "x": 3024,
     "y": 336,
     "width": 336,
     "height": 112,
     "rotation": 0,
     "visible": true,
     "properties": [
      {
       "name": "kind",
       "type": "string",
       "value": "ground"
      }
     ]
    },
    {
     "id": 19,
     "name": "",
     "class": "",
     "x": 3136,
     "y": 304,
     "width": 32,
     "height": 32,
     "rotation": 0,
     "visible": true,
     "properties": [
      {
       "name": "kind",
       "type": "string",
       "value": "wall"
      }
     ]
    },
    {
     "id": 20,
     "name": "",
     "class": "",
     "x": 3408,
     "y": 336,
     "width": 304,
     "height": 112,
     "rotation": 0,
     "visible": true,
     "properties": [
      {
       "name": "kind",
       "type": "string",
       "value": "ground"
      }
     ]
    }
   ]
  },
  {
   "id": 2,
   "name": "entities",
   "type": "objectgroup",
   "draworder": "index",
   "opacity": 1,
   "visible": true,
   "x": 0,
   "y": 0,
   "objects": [
    {
     "id": 21,
     "name": "",
     "class": "spawn",
     "x": 48,
     "y": 336,
     "width": 16,
     "height": 16,
     "rotation": 0,
     "visible": true
    },
    {
     "id": 22,
     "name": "",
     "class": "goal",
     "x": 3616,
     "y": 336,
     "width": 16,
     "height": 16,
     "rotation": 0,
     "visible": true
    },
    {
     "id": 23,
     "name": "",
     "class": "checkpoint",
     "x": 416,
     "y": 336,
     "width": 16,
     "height": 16,
     "rotation": 0,
     "visible": true
    },
    {
     "id": 24,
     "name": "",
     "class": "checkpoint",
     "x": 960,
     "y": 336,
     "width": 16,
     "height": 16,
     "rotation": 0,
     "visible": true
    },
    {
     "id": 25,
     "name": "",
     "class": "checkpoint",
     "x": 1504,
     "y": 336,
     "width": 16,
     "height": 16,
     "rotation": 0,
     "visible": true
    },
    {
     "id": 26,
     "name": "",
     "class": "checkpoint",
     "x": 2016,
     "y": 336,
     "width": 16,
     "height": 16,
     "rotation": 0,
     "visible": true
    },
    {
     "id": 27,
     "name": "",
     "class": "checkpoint",
     "x": 2752,
     "y": 336,
     "width": 16,
     "height": 16,
     "rotation": 0,
     "visible": true
    },
    {
     "id": 28,
     "name": "",
     "class": "coin",
     "x": 128,
     "y": 320,
     "width": 16,
     "height": 16,
     "rotation": 0,
     "visible": true
    },
    {
     "id": 29,
     "name": "",
     "class": "coin",
     "x": 144,
     "y": 320,
     "width": 16,
     "height": 16,
     "rotation": 0,
     "visible": true
    },
    {
     "id": 30,
     "name": "",
     "class": "coin",
     "x": 160,
     "y": 320,
     "width": 16,
     "height": 16,
     "rotation": 0,
     "visible": true
    },
    {
     "id": 31,
     "name": "",
     "class": "coin",
     "x": 176,
     "y": 320,
     "width": 16,
     "height": 16,
     "rotation": 0,
     "visible": true
    },
    {
     "id": 32,
     "name": "",
     "class": "coin",
     "x": 480,
     "y": 288,
     "width": 16,
     "height": 16,
     "rotation": 0,
     "visible": true
    },
    {
     "id": 33,
     "name": "",
     "class": "coin",
     "x": 496,
     "y": 272,
     "width": 16,
     "height": 16,
     "rotation": 0,
     "visible": true
    },
    {
     "id": 34,
     "name": "",
     "class": "coin",
     "x": 512,
     "y": 256,
     "width": 16,
     "height": 16,
     "rotation": 0,
     "visible": true
    },
    {
     "id": 35,
     "name": "",
     "class": "coin",
     "x": 528,
     "y": 256,
     "width": 16,
     "height": 16,
     "rotation": 0,
     "visible": true
    },
    {
     "id": 36,
     "name": "",
     "class": "coin",
     "x": 608,
     "y": 320,
     "width": 16,
     "height": 16,
     "rotation": 0,
     "visible": true
    },
    {
     "id": 37,
     "name": "",
     "class": "coin",
     "x": 624,
     "y": 320,
     "width": 16,
     "height": 16,
     "rotation": 0,
     "visible": true
    },
    {
     "id": 38,
     "name": "",
     "class": "coin",
     "x": 1072,
     "y": 256,
     "width": 16,
     "height": 16,
     "rotation": 0,
     "visible": true
    },
    {
     "id": 39,
     "name": "",
     "class": "coin",
     "x": 1088,
     "y": 256,
     "width": 16,
     "height": 16,
     "rotation": 0,
     "visible": true
    },
    {
     "id": 40,
     "name": "",
     "class": "coin",
     "x": 1104,
     "y": 256,
     "width": 16,
     "height": 16,
     "rotation": 0,
     "visible": true
    },
    {
     "id": 41,
     "name": "",
     "class": "coin",
     "x": 1120,
     "y": 256,
     "width": 16,
     "height": 16,
     "rotation": 0,
     "visible": true
    },
    {
     "id": 42,
     "name": "",
     "class": "coin",
     "x": 1136,
     "y": 256,
     "width": 16,
     "height": 16,
     "rotation": 0,
     "visible": true
    },
    {
     "id": 43,
     "name": "",
     "class": "coin",
     "x": 1152,
     "y": 256,
     "width": 16,
     "height": 16,
     "rotation": 0,
     "visible": true
    },
    {
     "id": 44,
     "name": "",
     "class": "coin",
     "x": 1248,
     "y": 256,
     "width": 16,
     "height": 16,
     "rotation": 0,
     "visible": true
    },
    {
     "id": 45,
     "name": "",
     "class": "coin",
     "x": 1264,
     "y": 256,
     "width": 16,
     "height": 16,
     "rotation": 0,
     "visible": true
    },
    {
     "id": 46,
     "name": "",
     "class": "coin",
     "x": 1280,
     "y": 256,
     "width": 16,
     "height": 16,
     "rotation": 0,
     "visible": true
    },
    {
     "id": 47,
     "name": "",
     "class": "coin",
     "x": 1296,
     "y": 256,
     "width": 16,
     "height": 16,
     "rotation": 0,
     "visible": true
    },
    {
     "id": 48,
     "name": "",
     "class": "coin",
     "x": 1312,
     "y": 256,
     "width": 16,
     "height": 16,
     "rotation": 0,
     "visible": true
    },
    {
     "id": 49,
     "name": "",
     "class": "coin",
     "x": 1376,
     "y": 320,
     "width": 16,
     "height": 16,
     "rotation": 0,
     "visible": true
    },
    {
     "id": 50,
     "name": "",
     "class": "coin",
     "x": 1392,
     "y": 320,
     "width": 16,
     "height": 16,
     "rotation": 0,
     "visible": true
    },
    {
     "id": 51,
     "name": "",
     "class": "coin",
     "x": 1408,
     "y": 320,
     "width": 16,
     "height": 16,
     "rotation": 0,
     "visible": true
    },
    {
     "id": 52,
     "name": "",
     "class": "coin",
     "x": 1632,
     "y": 288,
     "width": 16,
     "height": 16,
     "rotation": 0,
     "visible": true
    },
    {
     "id": 53,
     "name": "",
     "class": "coin",
     "x": 1648,
     "y": 288,
     "width": 16,
     "height": 16,
     "rotation": 0,
     "visible": true
    },
    {
     "id": 54,
     "name": "",
     "class": "coin",
     "x": 1664,
     "y": 288,
     "width": 16,
     "height": 16,
     "rotation": 0,
     "visible": true
    },
    {
     "id": 55,
     "name": "",
     "class": "coin",
     "x": 1792,
     "y": 320,
     "width": 16,
     "height": 16,
     "rotation": 0,
     "visible": true
    },
    {
     "id": 56,
     "name": "",
     "class": "coin",
     "x": 1808,
     "y": 320,
     "width": 16,
     "height": 16,
     "rotation": 0,
     "visible": true
    },
    {
     "id": 57,
     "name": "",
     "class": "coin",
     "x": 1824,
     "y": 320,
     "width": 16,
     "height": 16,
     "rotation": 0,
     "visible": true
    },
    {
     "id": 58,
     "name": "",
     "class": "coin",
     "x": 1840,
     "y": 320,
     "width": 16,
     "height": 16,
     "rotation": 0,
     "visible": true
    },
    {
     "id": 59,
     "name": "",
     "class": "coin",
     "x": 2144,
     "y": 224,
     "width": 16,
     "height": 16,
     "rotation": 0,
     "visible": true
    },
    {
     "id": 60,
     "name": "",
     "class": "coin",
     "x": 2160,
     "y": 224,
     "width": 16,
     "height": 16,
     "rotation": 0,
     "visible": true
    },
    {
     "id": 61,
     "name": "",
     "class": "coin",
     "x": 2176,
     "y": 224,
     "width": 16,
     "height": 16,
     "rotation": 0,
     "visible": true
    },
    {
     "id": 62,
     "name": "",
     "class": "coin",
     "x": 2192,
     "y": 224,
     "width": 16,
     "height": 16,
     "rotation": 0,
     "visible": true
    },
    {
     "id": 63,
     "name": "",
     "class": "coin",
     "x": 2208,
     "y": 224,
     "width": 16,
     "height": 16,
     "rotation": 0,
     "visible": true
    },
    {
     "id": 64,
     "name": "",
     "class": "coin",
     "x": 2224,
     "y": 224,
     "width": 16,
     "height": 16,
     "rotation": 0,
     "visible": true
    },
    {
     "id": 65,
     "name": "",
     "class": "coin",
     "x": 2240,
     "y": 224,
     "width": 16,
     "height": 16,
     "rotation": 0,
     "visible": true
    },
    {
     "id": 66,
     "name": "",
     "class": "coin",
     "x": 2352,
     "y": 304,
     "width": 16,
     "height": 16,
     "rotation": 0,
     "visible": true
    },
    {
     "id": 67,
     "name": "",
     "class": "coin",
     "x": 2368,
     "y": 304,
     "width": 16,
     "height": 16,
     "rotation": 0,
     "visible": true
    },
    {
     "id": 68,
     "name": "",
     "class": "coin",
     "x": 2384,
     "y": 304,
     "width": 16,
     "height": 16,
     "rotation": 0,
     "visible": true
    },
    {
     "id": 69,
     "name": "",
     "class": "coin",
     "x": 2400,
     "y": 304,
     "width": 16,
     "height": 16,
     "rotation": 0,
     "visible": true
    },
    {
     "id": 70,
     "name": "",
     "class": "coin",
     "x": 2848,
     "y": 320,
     "width": 16,
     "height": 16,
     "rotation": 0,
     "visible": true
    },
    {
     "id": 71,
     "name": "",
     "class": "coin",
     "x": 2864,
     "y": 320,
     "width": 16,
     "height": 16,
     "rotation": 0,
     "visible": true
    },
    {
     "id": 72,
     "name": "",
     "class": "coin",
     "x": 2880,
     "y": 320,
     "width": 16,
     "height": 16,
     "rotation": 0,
     "visible": true
    },
    {
     "id": 73,
     "name": "",
     "class": "coin",
     "x": 2896,
     "y": 320,
     "width": 16,
     "height": 16,
     "rotation": 0,
     "visible": true
    },
    {
     "id": 74,
     "name": "",
     "class": "coin",
     "x": 3456,
     "y": 320,
     "width": 16,
     "height": 16,
     "rotation": 0,
     "visible": true
    },
    {
     "id": 75,
     "name": "",
     "class": "coin",
     "x": 3472,
     "y": 320,
     "width": 16,
     "height": 16,
     "rotation": 0,
     "visible": true
    },
    {
     "id": 76,
     "name": "",
     "class": "coin",
     "x": 3488,
     "y": 320,
     "width": 16,
     "height": 16,
     "rotation": 0,
     "visible": true
    },
    {
     "id": 77,
     "name": "",
     "class": "coin",
     "x": 3504,
     "y": 320,
     "width": 16,
     "height": 16,
     "rotation": 0,
     "visible": true
    },
    {
     "id": 78,
     "name": "",
     "class": "coin",
     "x": 3520,
     "y": 320,
     "width": 16,
     "height": 16,
     "rotation": 0,
     "visible": true
    },
    {
     "id": 79,
     "name": "",
     "class": "coin",
     "x": 3536,
     "y": 320,
     "width": 16,
     "height": 16,
     "rotation": 0,
     "visible": true
    },
    {
     "id": 80,
     "name": "",
     "class": "block",
     "x": 640,
     "y": 272,
     "width": 16,
     "height": 16,
     "rotation": 0,
     "visible": true,
     "properties": [
      {
       "name": "block",
       "type": "string",
       "value": "mystery"
      },
      {
       "name": "contents",
       "type": "string",
       "value": "menorah"
      }
     ]
    },
    {
     "id": 81,
     "name": "",
     "class": "block",
     "x": 2656,
     "y": 272,
     "width": 16,
     "height": 16,
     "rotation": 0,
     "visible": true,
     "properties": [
      {
       "name": "block",
       "type": "string",
       "value": "mystery"
      },
      {
       "name": "contents",
       "type": "string",
       "value": "cholent"
      }
     ]
    },
    {
     "id": 82,
     "name": "",
     "class": "enemy",
     "x": 800,
     "y": 256,
     "width": 16,
     "height": 16,
     "rotation": 0,
     "visible": true,
     "properties": [
      {
       "name": "enemy",
       "type": "string",
       "value": "mosquito"
      }
     ]
    },
    {
     "id": 83,
     "name": "",
     "class": "enemy",
     "x": 1408,
     "y": 336,
     "width": 16,
     "height": 16,
     "rotation": 0,
     "visible": true,
     "properties": [
      {
       "name": "enemy",
       "type": "string",
       "value": "raccoon"
      }
     ]
    },
    {
     "id": 84,
     "name": "",
     "class": "enemy",
     "x": 1824,
     "y": 256,
     "width": 16,
     "height": 16,
     "rotation": 0,
     "visible": true,
     "properties": [
      {
       "name": "enemy",
       "type": "string",
       "value": "mosquito"
      }
     ]
    },
    {
     "id": 85,
     "name": "",
     "class": "enemy",
     "x": 2560,
     "y": 336,
     "width": 16,
     "height": 16,
     "rotation": 0,
     "visible": true,
     "properties": [
      {
       "name": "enemy",
       "type": "string",
       "value": "raccoon"
      }
     ]
    },
    {
     "id": 86,
     "name": "",
     "class": "enemy",
     "x": 2912,
     "y": 256,
     "width": 16,
     "height": 16,
     "rotation": 0,
     "visible": true,
     "properties": [
      {
       "name": "enemy",
       "type": "string",
       "value": "mosquito"
      }
     ]
    },
    {
     "id": 87,
     "name": "",
     "class": "enemy",
     "x": 3232,
     "y": 256,
     "width": 16,
     "height": 16,
     "rotation": 0,
     "visible": true,
     "properties": [
      {
       "name": "enemy",
       "type": "string",
       "value": "mosquito"
      }
     ]
    },
    {
     "id": 88,
     "name": "",
     "class": "firefly",
     "x": 96,
     "y": 304,
     "width": 16,
     "height": 16,
     "rotation": 0,
     "visible": true
    },
    {
     "id": 89,
     "name": "",
     "class": "firefly",
     "x": 144,
     "y": 304,
     "width": 16,
     "height": 16,
     "rotation": 0,
     "visible": true
    },
    {
     "id": 90,
     "name": "",
     "class": "firefly",
     "x": 192,
     "y": 304,
     "width": 16,
     "height": 16,
     "rotation": 0,
     "visible": true
    },
    {
     "id": 91,
     "name": "",
     "class": "firefly",
     "x": 240,
     "y": 304,
     "width": 16,
     "height": 16,
     "rotation": 0,
     "visible": true
    },
    {
     "id": 92,
     "name": "",
     "class": "firefly",
     "x": 288,
     "y": 304,
     "width": 16,
     "height": 16,
     "rotation": 0,
     "visible": true
    },
    {
     "id": 93,
     "name": "",
     "class": "firefly",
     "x": 336,
     "y": 304,
     "width": 16,
     "height": 16,
     "rotation": 0,
     "visible": true
    },
    {
     "id": 94,
     "name": "",
     "class": "firefly",
     "x": 528,
     "y": 304,
     "width": 16,
     "height": 16,
     "rotation": 0,
     "visible": true
    },
    {
     "id": 95,
     "name": "",
     "class": "firefly",
     "x": 560,
     "y": 304,
     "width": 16,
     "height": 16,
     "rotation": 0,
     "visible": true
    },
    {
     "id": 96,
     "name": "",
     "class": "firefly",
     "x": 640,
     "y": 240,
     "width": 16,
     "height": 16,
     "rotation": 0,
     "visible": true
    },
    {
     "id": 97,
     "name": "",
     "class": "firefly",
     "x": 944,
     "y": 304,
     "width": 16,
     "height": 16,
     "rotation": 0,
     "visible": true
    },
    {
     "id": 98,
     "name": "",
     "class": "firefly",
     "x": 976,
     "y": 304,
     "width": 16,
     "height": 16,
     "rotation": 0,
     "visible": true
    },
    {
     "id": 99,
     "name": "",
     "class": "firefly",
     "x": 1024,
     "y": 272,
     "width": 16,
     "height": 16,
     "rotation": 0,
     "visible": true
    },
    {
     "id": 100,
     "name": "",
     "class": "firefly",
     "x": 1072,
     "y": 240,
     "width": 16,
     "height": 16,
     "rotation": 0,
     "visible": true
    },
    {
     "id": 101,
     "name": "",
     "class": "firefly",
     "x": 1120,
     "y": 240,
     "width": 16,
     "height": 16,
     "rotation": 0,
     "visible": true
    },
    {
     "id": 102,
     "name": "",
     "class": "firefly",
     "x": 1168,
     "y": 240,
     "width": 16,
     "height": 16,
     "rotation": 0,
     "visible": true
    },
    {
     "id": 103,
     "name": "",
     "class": "firefly",
     "x": 1232,
     "y": 240,
     "width": 16,
     "height": 16,
     "rotation": 0,
     "visible": true
    },
    {
     "id": 104,
     "name": "",
     "class": "firefly",
     "x": 1280,
     "y": 240,
     "width": 16,
     "height": 16,
     "rotation": 0,
     "visible": true
    },
    {
     "id": 105,
     "name": "",
     "class": "firefly",
     "x": 1328,
     "y": 240,
     "width": 16,
     "height": 16,
     "rotation": 0,
     "visible": true
    },
    {
     "id": 106,
     "name": "",
     "class": "firefly",
     "x": 1600,
     "y": 272,
     "width": 16,
     "height": 16,
     "rotation": 0,
     "visible": true
    },
    {
     "id": 107,
     "name": "",
     "class": "firefly",
     "x": 1632,
     "y": 272,
     "width": 16,
     "height": 16,
     "rotation": 0,
     "visible": true
    },
    {
     "id": 108,
     "name": "",
     "class": "firefly",
     "x": 1664,
     "y": 272,
     "width": 16,
     "height": 16,
     "rotation": 0,
     "visible": true
    },
    {
     "id": 109,
     "name": "",
     "class": "firefly",
     "x": 1696,
     "y": 272,
     "width": 16,
     "height": 16,
     "rotation": 0,
     "visible": true
    },
    {
     "id": 110,
     "name": "",
     "class": "firefly",
     "x": 1760,
     "y": 304,
     "width": 16,
     "height": 16,
     "rotation": 0,
     "visible": true
    },
    {
     "id": 111,
     "name": "",
     "class": "firefly",
     "x": 1824,
     "y": 304,
     "width": 16,
     "height": 16,
     "rotation": 0,
     "visible": true
    },
    {
     "id": 112,
     "name": "",
     "class": "firefly",
     "x": 1888,
     "y": 304,
     "width": 16,
     "height": 16,
     "rotation": 0,
     "visible": true
    },
    {
     "id": 113,
     "name": "",
     "class": "firefly",
     "x": 1952,
     "y": 304,
     "width": 16,
     "height": 16,
     "rotation": 0,
     "visible": true
    },
    {
     "id": 114,
     "name": "",
     "class": "firefly",
     "x": 2048,
     "y": 272,
     "width": 16,
     "height": 16,
     "rotation": 0,
     "visible": true
    },
    {
     "id": 115,
     "name": "",
     "class": "firefly",
     "x": 2096,
     "y": 240,
     "width": 16,
     "height": 16,
     "rotation": 0,
     "visible": true
    },
    {
     "id": 116,
     "name": "",
     "class": "firefly",
     "x": 2144,
     "y": 208,
     "width": 16,
     "height": 16,
     "rotation": 0,
     "visible": true
    },
    {
     "id": 117,
     "name": "",
     "class": "firefly",
     "x": 2192,
     "y": 208,
     "width": 16,
     "height": 16,
     "rotation": 0,
     "visible": true
    },
    {
     "id": 118,
     "name": "",
     "class": "firefly",
     "x": 2240,
     "y": 208,
     "width": 16,
     "height": 16,
     "rotation": 0,
     "visible": true
    },
    {
     "id": 119,
     "name": "",
     "class": "firefly",
     "x": 2320,
     "y": 304,
     "width": 16,
     "height": 16,
     "rotation": 0,
     "visible": true
    },
    {
     "id": 120,
     "name": "",
     "class": "firefly",
     "x": 2352,
     "y": 304,
     "width": 16,
     "height": 16,
     "rotation": 0,
     "visible": true
    },
    {
     "id": 121,
     "name": "",
     "class": "firefly",
     "x": 2384,
     "y": 304,
     "width": 16,
     "height": 16,
     "rotation": 0,
     "visible": true
    },
    {
     "id": 122,
     "name": "",
     "class": "firefly",
     "x": 2416,
     "y": 304,
     "width": 16,
     "height": 16,
     "rotation": 0,
     "visible": true
    },
    {
     "id": 123,
     "name": "",
     "class": "firefly",
     "x": 2448,
     "y": 304,
     "width": 16,
     "height": 16,
     "rotation": 0,
     "visible": true
    },
    {
     "id": 124,
     "name": "",
     "class": "firefly",
     "x": 2656,
     "y": 240,
     "width": 16,
     "height": 16,
     "rotation": 0,
     "visible": true
    },
    {
     "id": 125,
     "name": "",
     "class": "firefly",
     "x": 2816,
     "y": 272,
     "width": 16,
     "height": 16,
     "rotation": 0,
     "visible": true
    },
    {
     "id": 126,
     "name": "",
     "class": "firefly",
     "x": 3024,
     "y": 304,
     "width": 16,
     "height": 16,
     "rotation": 0,
     "visible": true
    },
    {
     "id": 127,
     "name": "",
     "class": "firefly",
     "x": 3056,
     "y": 304,
     "width": 16,
     "height": 16,
     "rotation": 0,
     "visible": true
    },
    {
     "id": 128,
     "name": "",
     "class": "firefly",
     "x": 3136,
     "y": 272,
     "width": 16,
     "height": 16,
     "rotation": 0,
     "visible": true
    },
    {
     "id": 129,
     "name": "",
     "class": "firefly",
     "x": 3408,
     "y": 304,
     "width": 16,
     "height": 16,
     "rotation": 0,
     "visible": true
    },
    {
     "id": 130,
     "name": "",
     "class": "firefly",
     "x": 3440,
     "y": 304,
     "width": 16,
     "height": 16,
     "rotation": 0,
     "visible": true
    },
    {
     "id": 131,
     "name": "",
     "class": "firefly",
     "x": 3424,
     "y": 304,
     "width": 16,
     "height": 16,
     "rotation": 0,
     "visible": true
    },
    {
     "id": 132,
     "name": "",
     "class": "firefly",
     "x": 3472,
     "y": 304,
     "width": 16,
     "height": 16,
     "rotation": 0,
     "visible": true
    },
    {
     "id": 133,
     "name": "",
     "class": "firefly",
     "x": 3520,
     "y": 304,
     "width": 16,
     "height": 16,
     "rotation": 0,
     "visible": true
    },
    {
     "id": 134,
     "name": "",
     "class": "firefly",
     "x": 3568,
     "y": 304,
     "width": 16,
     "height": 16,
     "rotation": 0,
     "visible": true
    },
    {
     "id": 135,
     "name": "",
     "class": "firefly",
     "x": 3616,
     "y": 304,
     "width": 16,
     "height": 16,
     "rotation": 0,
     "visible": true
    },
    {
     "id": 136,
     "name": "",
     "class": "clothesline",
     "x": 2272,
     "y": 256,
     "width": 176,
     "height": 16,
     "rotation": 0,
     "visible": true,
     "properties": [
      {
       "name": "drop",
       "type": "int",
       "value": 5
      }
     ]
    },
    {
     "id": 137,
     "name": "",
     "class": "step",
     "x": 1632,
     "y": 304,
     "width": 16,
     "height": 16,
     "rotation": 0,
     "visible": true
    },
    {
     "id": 138,
     "name": "",
     "class": "step",
     "x": 1648,
     "y": 304,
     "width": 16,
     "height": 16,
     "rotation": 0,
     "visible": true
    },
    {
     "id": 139,
     "name": "",
     "class": "step",
     "x": 1664,
     "y": 304,
     "width": 16,
     "height": 16,
     "rotation": 0,
     "visible": true
    },
    {
     "id": 140,
     "name": "",
     "class": "label",
     "x": 16,
     "y": 256,
     "width": 16,
     "height": 16,
     "rotation": 0,
     "visible": true,
     "properties": [
      {
       "name": "text",
       "type": "string",
       "value": "LIGHTS OUT"
      }
     ]
    },
    {
     "id": 141,
     "name": "",
     "class": "label",
     "x": 16,
     "y": 272,
     "width": 16,
     "height": 16,
     "rotation": 0,
     "visible": true,
     "properties": [
      {
       "name": "text",
       "type": "string",
       "value": "the fireflies are over the ground."
      }
     ]
    },
    {
     "id": 142,
     "name": "",
     "class": "label",
     "x": 16,
     "y": 288,
     "width": 16,
     "height": 16,
     "rotation": 0,
     "visible": true,
     "properties": [
      {
       "name": "text",
       "type": "string",
       "value": "ALL OF THEM. ALWAYS. FOLLOW THEM."
      }
     ]
    },
    {
     "id": 143,
     "name": "",
     "class": "label",
     "x": 432,
     "y": 272,
     "width": 16,
     "height": 16,
     "rotation": 0,
     "visible": true,
     "properties": [
      {
       "name": "text",
       "type": "string",
       "value": "JUMP TO THE LIGHTS"
      }
     ]
    }
   ]
  }
 ]
}
