{
 "compressionlevel": -1,
 "width": 172,
 "height": 28,
 "tilewidth": 16,
 "tileheight": 16,
 "infinite": false,
 "orientation": "orthogonal",
 "renderorder": "right-down",
 "tiledversion": "1.11.0",
 "type": "map",
 "version": "1.10",
 "nextlayerid": 3,
 "nextobjectid": 72,
 "tilesets": [],
 "properties": [
  {
   "name": "name",
   "type": "string",
   "value": "The Chavrusa (greybox)"
  },
  {
   "name": "backgroundColor",
   "type": "string",
   "value": "0x151a2c"
  }
 ],
 "layers": [
  {
   "id": 1,
   "name": "solids",
   "type": "objectgroup",
   "draworder": "index",
   "opacity": 1,
   "visible": true,
   "x": 0,
   "y": 0,
   "objects": [
    {
     "id": 1,
     "name": "",
     "class": "",
     "x": 0,
     "y": 320,
     "width": 320,
     "height": 128,
     "rotation": 0,
     "visible": true,
     "properties": [
      {
       "name": "kind",
       "type": "string",
       "value": "ground"
      }
     ]
    },
    {
     "id": 2,
     "name": "",
     "class": "",
     "x": 320,
     "y": 320,
     "width": 320,
     "height": 128,
     "rotation": 0,
     "visible": true,
     "properties": [
      {
       "name": "kind",
       "type": "string",
       "value": "ground"
      }
     ]
    },
    {
     "id": 3,
     "name": "",
     "class": "",
     "x": 432,
     "y": 256,
     "width": 96,
     "height": 64,
     "rotation": 0,
     "visible": true,
     "properties": [
      {
       "name": "kind",
       "type": "string",
       "value": "platform"
      }
     ]
    },
    {
     "id": 4,
     "name": "",
     "class": "",
     "x": 640,
     "y": 320,
     "width": 128,
     "height": 128,
     "rotation": 0,
     "visible": true,
     "properties": [
      {
       "name": "kind",
       "type": "string",
       "value": "ground"
      }
     ]
    },
    {
     "id": 5,
     "name": "",
     "class": "",
     "x": 768,
     "y": 352,
     "width": 96,
     "height": 96,
     "rotation": 0,
     "visible": true,
     "properties": [
      {
       "name": "kind",
       "type": "string",
       "value": "ground"
      }
     ]
    },
    {
     "id": 6,
     "name": "",
     "class": "",
     "x": 864,
     "y": 320,
     "width": 176,
     "height": 128,
     "rotation": 0,
     "visible": true,
     "properties": [
      {
       "name": "kind",
       "type": "string",
       "value": "ground"
      }
     ]
    },
    {
     "id": 7,
     "name": "",
     "class": "",
     "x": 1040,
     "y": 320,
     "width": 320,
     "height": 128,
     "rotation": 0,
     "visible": true,
     "properties": [
      {
       "name": "kind",
       "type": "string",
       "value": "ground"
      }
     ]
    },
    {
     "id": 8,
     "name": "",
     "class": "",
     "x": 1360,
     "y": 320,
     "width": 320,
     "height": 128,
     "rotation": 0,
     "visible": true,
     "properties": [
      {
       "name": "kind",
       "type": "string",
       "value": "ground"
      }
     ]
    },
    {
     "id": 9,
     "name": "",
     "class": "",
     "x": 1472,
     "y": 128,
     "width": 32,
     "height": 176,
     "rotation": 0,
     "visible": true,
     "properties": [
      {
       "name": "kind",
       "type": "string",
       "value": "wall"
      }
     ]
    },
    {
     "id": 10,
     "name": "",
     "class": "",
     "x": 1680,
     "y": 320,
     "width": 400,
     "height": 128,
     "rotation": 0,
     "visible": true,
     "properties": [
      {
       "name": "kind",
       "type": "string",
       "value": "ground"
      }
     ]
    },
    {
     "id": 11,
     "name": "",
     "class": "",
     "x": 1680,
     "y": 240,
     "width": 64,
     "height": 48,
     "rotation": 0,
     "visible": true,
     "properties": [
      {
       "name": "kind",
       "type": "string",
       "value": "wall"
      }
     ]
    },
    {
     "id": 12,
     "name": "",
     "class": "",
     "x": 1744,
     "y": 272,
     "width": 64,
     "height": 16,
     "rotation": 0,
     "visible": true,
     "properties": [
      {
       "name": "kind",
       "type": "string",
       "value": "platform"
      }
     ]
    },
    {
     "id": 13,
     "name": "",
     "class": "",
     "x": 1840,
     "y": 272,
     "width": 128,
     "height": 16,
     "rotation": 0,
     "visible": true,
     "properties": [
      {
       "name": "kind",
       "type": "string",
       "value": "platform"
      }
     ]
    },
    {
     "id": 14,
     "name": "",
     "class": "",
     "x": 1936,
     "y": 288,
     "width": 32,
     "height": 32,
     "rotation": 0,
     "visible": true,
     "properties": [
      {
       "name": "kind",
       "type": "string",
       "value": "wall"
      }
     ]
    },
    {
     "id": 15,
     "name": "",
     "class": "",
     "x": 2080,
     "y": 320,
     "width": 96,
     "height": 16,
     "rotation": 0,
     "visible": true,
     "properties": [
      {
       "name": "kind",
       "type": "string",
       "value": "ground"
      }
     ]
    },
    {
     "id": 16,
     "name": "",
     "class": "",
     "x": 2224,
     "y": 320,
     "width": 96,
     "height": 16,
     "rotation": 0,
     "visible": true,
     "properties": [
      {
       "name": "kind",
       "type": "string",
       "value": "ground"
      }
     ]
    },
    {
     "id": 17,
     "name": "",
     "class": "",
     "x": 2288,
     "y": 160,
     "width": 32,
     "height": 160,
     "rotation": 0,
     "visible": true,
     "properties": [
      {
       "name": "kind",
       "type": "string",
       "value": "wall"
      }
     ]
    },
    {
     "id": 18,
     "name": "",
     "class": "",
     "x": 2080,
     "y": 368,
     "width": 448,
     "height": 80,
     "rotation": 0,
     "visible": true,
     "properties": [
      {
       "name": "kind",
       "type": "string",
       "value": "ground"
      }
     ]
    },
    {
     "id": 19,
     "name": "",
     "class": "",
     "x": 2368,
     "y": 352,
     "width": 32,
     "height": 16,
     "rotation": 0,
     "visible": true,
     "properties": [
      {
       "name": "kind",
       "type": "string",
       "value": "platform"
      }
     ]
    },
    {
     "id": 20,
     "name": "",
     "class": "",
     "x": 2400,
     "y": 320,
     "width": 128,
     "height": 16,
     "rotation": 0,
     "visible": true,
     "properties": [
      {
       "name": "kind",
       "type": "string",
       "value": "ground"
      }
     ]
    },
    {
     "id": 21,
     "name": "",
     "class": "",
     "x": 2528,
     "y": 320,
     "width": 224,
     "height": 128,
     "rotation": 0,
     "visible": true,
     "properties": [
      {
       "name": "kind",
       "type": "string",
       "value": "ground"
      }
     ]
    }
   ]
  },
  {
   "id": 2,
   "name": "entities",
   "type": "objectgroup",
   "draworder": "index",
   "opacity": 1,
   "visible": true,
   "x": 0,
   "y": 0,
   "objects": [
    {
     "id": 22,
     "name": "",
     "class": "spawn",
     "x": 48,
     "y": 320,
     "width": 16,
     "height": 16,
     "rotation": 0,
     "visible": true
    },
    {
     "id": 23,
     "name": "",
     "class": "goal",
     "x": 2688,
     "y": 320,
     "width": 16,
     "height": 16,
     "rotation": 0,
     "visible": true
    },
    {
     "id": 24,
     "name": "",
     "class": "checkpoint",
     "x": 576,
     "y": 320,
     "width": 16,
     "height": 16,
     "rotation": 0,
     "visible": true
    },
    {
     "id": 25,
     "name": "",
     "class": "checkpoint",
     "x": 1312,
     "y": 320,
     "width": 16,
     "height": 16,
     "rotation": 0,
     "visible": true
    },
    {
     "id": 26,
     "name": "",
     "class": "coin",
     "x": 128,
     "y": 288,
     "width": 16,
     "height": 16,
     "rotation": 0,
     "visible": true
    },
    {
     "id": 27,
     "name": "",
     "class": "coin",
     "x": 144,
     "y": 288,
     "width": 16,
     "height": 16,
     "rotation": 0,
     "visible": true
    },
    {
     "id": 28,
     "name": "",
     "class": "coin",
     "x": 160,
     "y": 288,
     "width": 16,
     "height": 16,
     "rotation": 0,
     "visible": true
    },
    {
     "id": 29,
     "name": "",
     "class": "coin",
     "x": 176,
     "y": 288,
     "width": 16,
     "height": 16,
     "rotation": 0,
     "visible": true
    },
    {
     "id": 30,
     "name": "",
     "class": "coin",
     "x": 432,
     "y": 224,
     "width": 16,
     "height": 16,
     "rotation": 0,
     "visible": true
    },
    {
     "id": 31,
     "name": "",
     "class": "coin",
     "x": 448,
     "y": 224,
     "width": 16,
     "height": 16,
     "rotation": 0,
     "visible": true
    },
    {
     "id": 32,
     "name": "",
     "class": "coin",
     "x": 464,
     "y": 224,
     "width": 16,
     "height": 16,
     "rotation": 0,
     "visible": true
    },
    {
     "id": 33,
     "name": "",
     "class": "coin",
     "x": 480,
     "y": 224,
     "width": 16,
     "height": 16,
     "rotation": 0,
     "visible": true
    },
    {
     "id": 34,
     "name": "",
     "class": "coin",
     "x": 496,
     "y": 224,
     "width": 16,
     "height": 16,
     "rotation": 0,
     "visible": true
    },
    {
     "id": 35,
     "name": "",
     "class": "coin",
     "x": 512,
     "y": 224,
     "width": 16,
     "height": 16,
     "rotation": 0,
     "visible": true
    },
    {
     "id": 36,
     "name": "",
     "class": "coin",
     "x": 1536,
     "y": 288,
     "width": 16,
     "height": 16,
     "rotation": 0,
     "visible": true
    },
    {
     "id": 37,
     "name": "",
     "class": "coin",
     "x": 1552,
     "y": 288,
     "width": 16,
     "height": 16,
     "rotation": 0,
     "visible": true
    },
    {
     "id": 38,
     "name": "",
     "class": "coin",
     "x": 1568,
     "y": 288,
     "width": 16,
     "height": 16,
     "rotation": 0,
     "visible": true
    },
    {
     "id": 39,
     "name": "",
     "class": "coin",
     "x": 1856,
     "y": 240,
     "width": 16,
     "height": 16,
     "rotation": 0,
     "visible": true
    },
    {
     "id": 40,
     "name": "",
     "class": "coin",
     "x": 1872,
     "y": 240,
     "width": 16,
     "height": 16,
     "rotation": 0,
     "visible": true
    },
    {
     "id": 41,
     "name": "",
     "class": "coin",
     "x": 1888,
     "y": 240,
     "width": 16,
     "height": 16,
     "rotation": 0,
     "visible": true
    },
    {
     "id": 42,
     "name": "",
     "class": "coin",
     "x": 1904,
     "y": 240,
     "width": 16,
     "height": 16,
     "rotation": 0,
     "visible": true
    },
    {
     "id": 43,
     "name": "",
     "class": "coin",
     "x": 2320,
     "y": 336,
     "width": 16,
     "height": 16,
     "rotation": 0,
     "visible": true
    },
    {
     "id": 44,
     "name": "",
     "class": "coin",
     "x": 2336,
     "y": 336,
     "width": 16,
     "height": 16,
     "rotation": 0,
     "visible": true
    },
    {
     "id": 45,
     "name": "",
     "class": "coin",
     "x": 2352,
     "y": 336,
     "width": 16,
     "height": 16,
     "rotation": 0,
     "visible": true
    },
    {
     "id": 46,
     "name": "",
     "class": "crate",
     "x": 1472,
     "y": 320,
     "width": 16,
     "height": 16,
     "rotation": 0,
     "visible": true
    },
    {
     "id": 47,
     "name": "",
     "class": "block",
     "x": 1808,
     "y": 272,
     "width": 16,
     "height": 16,
     "rotation": 0,
     "visible": true,
     "properties": [
      {
       "name": "block",
       "type": "string",
       "value": "reinforced"
      },
      {
       "name": "contents",
       "type": "string",
       "value": "coin"
      }
     ]
    },
    {
     "id": 48,
     "name": "",
     "class": "block",
     "x": 1824,
     "y": 272,
     "width": 16,
     "height": 16,
     "rotation": 0,
     "visible": true,
     "properties": [
      {
       "name": "block",
       "type": "string",
       "value": "reinforced"
      },
      {
       "name": "contents",
       "type": "string",
       "value": "coin"
      }
     ]
    },
    {
     "id": 49,
     "name": "",
     "class": "block",
     "x": 2176,
     "y": 320,
     "width": 16,
     "height": 16,
     "rotation": 0,
     "visible": true,
     "properties": [
      {
       "name": "block",
       "type": "string",
       "value": "weak"
      },
      {
       "name": "contents",
       "type": "string",
       "value": "coin"
      }
     ]
    },
    {
     "id": 50,
     "name": "",
     "class": "block",
     "x": 2192,
     "y": 320,
     "width": 16,
     "height": 16,
     "rotation": 0,
     "visible": true,
     "properties": [
      {
       "name": "block",
       "type": "string",
       "value": "weak"
      },
      {
       "name": "contents",
       "type": "string",
       "value": "coin"
      }
     ]
    },
    {
     "id": 51,
     "name": "",
     "class": "block",
     "x": 2208,
     "y": 320,
     "width": 16,
     "height": 16,
     "rotation": 0,
     "visible": true,
     "properties": [
      {
       "name": "block",
       "type": "string",
       "value": "weak"
      },
      {
       "name": "contents",
       "type": "string",
       "value": "coin"
      }
     ]
    },
    {
     "id": 52,
     "name": "",
     "class": "enemy",
     "x": 1888,
     "y": 192,
     "width": 16,
     "height": 16,
     "rotation": 0,
     "visible": true,
     "properties": [
      {
       "name": "enemy",
       "type": "string",
       "value": "pigeon"
      }
     ]
    },
    {
     "id": 53,
     "name": "",
     "class": "wind",
     "x": 1088,
     "y": 224,
     "width": 192,
     "height": 96,
     "rotation": 0,
     "visible": true,
     "properties": [
      {
       "name": "direction",
       "type": "int",
       "value": -1
      }
     ]
    },
    {
     "id": 54,
     "name": "",
     "class": "label",
     "x": 32,
     "y": 240,
     "width": 16,
     "height": 16,
     "rotation": 0,
     "visible": true,
     "properties": [
      {
       "name": "text",
       "type": "string",
       "value": "TAB or C SWAPS BROTHERS"
      }
     ]
    },
    {
     "id": 55,
     "name": "",
     "class": "label",
     "x": 32,
     "y": 256,
     "width": 16,
     "height": 16,
     "rotation": 0,
     "visible": true,
     "properties": [
      {
       "name": "text",
       "type": "string",
       "value": "mendy jumps higher and further. berel is stronger."
      }
     ]
    },
    {
     "id": 56,
     "name": "",
     "class": "label",
     "x": 32,
     "y": 272,
     "width": 16,
     "height": 16,
     "rotation": 0,
     "visible": true,
     "properties": [
      {
       "name": "text",
       "type": "string",
       "value": "same spot, same speed, same power-up. free and instant."
      }
     ]
    },
    {
     "id": 57,
     "name": "",
     "class": "label",
     "x": 336,
     "y": 240,
     "width": 16,
     "height": 16,
     "rotation": 0,
     "visible": true,
     "properties": [
      {
       "name": "text",
       "type": "string",
       "value": "B  MENDY ONLY"
      }
     ]
    },
    {
     "id": 58,
     "name": "",
     "class": "label",
     "x": 336,
     "y": 256,
     "width": 16,
     "height": 16,
     "rotation": 0,
     "visible": true,
     "properties": [
      {
       "name": "text",
       "type": "string",
       "value": "four tiles up. berel cannot reach it."
      }
     ]
    },
    {
     "id": 59,
     "name": "",
     "class": "label",
     "x": 656,
     "y": 240,
     "width": 16,
     "height": 16,
     "rotation": 0,
     "visible": true,
     "properties": [
      {
       "name": "text",
       "type": "string",
       "value": "C  MENDY ONLY"
      }
     ]
    },
    {
     "id": 60,
     "name": "",
     "class": "label",
     "x": 656,
     "y": 256,
     "width": 16,
     "height": 16,
     "rotation": 0,
     "visible": true,
     "properties": [
      {
       "name": "text",
       "type": "string",
       "value": "six tiles across. run at it. missing it is survivable."
      }
     ]
    },
    {
     "id": 61,
     "name": "",
     "class": "label",
     "x": 1056,
     "y": 240,
     "width": 16,
     "height": 16,
     "rotation": 0,
     "visible": true,
     "properties": [
      {
       "name": "text",
       "type": "string",
       "value": "D  BEREL ONLY"
      }
     ]
    },
    {
     "id": 62,
     "name": "",
     "class": "label",
     "x": 1056,
     "y": 256,
     "width": 16,
     "height": 16,
     "rotation": 0,
     "visible": true,
     "properties": [
      {
       "name": "text",
       "type": "string",
       "value": "the wind does not move him."
      }
     ]
    },
    {
     "id": 63,
     "name": "",
     "class": "label",
     "x": 1376,
     "y": 240,
     "width": 16,
     "height": 16,
     "rotation": 0,
     "visible": true,
     "properties": [
      {
       "name": "text",
       "type": "string",
       "value": "E  BEREL ONLY"
      }
     ]
    },
    {
     "id": 64,
     "name": "",
     "class": "label",
     "x": 1376,
     "y": 256,
     "width": 16,
     "height": 16,
     "rotation": 0,
     "visible": true,
     "properties": [
      {
       "name": "text",
       "type": "string",
       "value": "shove the crate out of the doorway."
      }
     ]
    },
    {
     "id": 65,
     "name": "",
     "class": "label",
     "x": 1376,
     "y": 272,
     "width": 16,
     "height": 16,
     "rotation": 0,
     "visible": true,
     "properties": [
      {
       "name": "text",
       "type": "string",
       "value": "then hold DOWN to duck through."
      }
     ]
    },
    {
     "id": 66,
     "name": "",
     "class": "label",
     "x": 1696,
     "y": 240,
     "width": 16,
     "height": 16,
     "rotation": 0,
     "visible": true,
     "properties": [
      {
       "name": "text",
       "type": "string",
       "value": "F  BEREL ONLY"
      }
     ]
    },
    {
     "id": 67,
     "name": "",
     "class": "label",
     "x": 1696,
     "y": 256,
     "width": 16,
     "height": 16,
     "rotation": 0,
     "visible": true,
     "properties": [
      {
       "name": "text",
       "type": "string",
       "value": "the grey block only breaks for berel."
      }
     ]
    },
    {
     "id": 68,
     "name": "",
     "class": "label",
     "x": 1696,
     "y": 272,
     "width": 16,
     "height": 16,
     "rotation": 0,
     "visible": true,
     "properties": [
      {
       "name": "text",
       "type": "string",
       "value": "hit it from underneath."
      }
     ]
    },
    {
     "id": 69,
     "name": "",
     "class": "label",
     "x": 2096,
     "y": 240,
     "width": 16,
     "height": 16,
     "rotation": 0,
     "visible": true,
     "properties": [
      {
       "name": "text",
       "type": "string",
       "value": "G  BEREL ONLY"
      }
     ]
    },
    {
     "id": 70,
     "name": "",
     "class": "label",
     "x": 2096,
     "y": 256,
     "width": 16,
     "height": 16,
     "rotation": 0,
     "visible": true,
     "properties": [
      {
       "name": "text",
       "type": "string",
       "value": "jump, then hold DOWN to smash through."
      }
     ]
    },
    {
     "id": 71,
     "name": "",
     "class": "label",
     "x": 2560,
     "y": 240,
     "width": 16,
     "height": 16,
     "rotation": 0,
     "visible": true,
     "properties": [
      {
       "name": "text",
       "type": "string",
       "value": "H  END"
      }
     ]
    }
   ]
  }
 ]
}
