{
 "compressionlevel": -1,
 "width": 104,
 "height": 27,
 "tilewidth": 16,
 "tileheight": 16,
 "infinite": false,
 "orientation": "orthogonal",
 "renderorder": "right-down",
 "tiledversion": "1.11.0",
 "type": "map",
 "version": "1.10",
 "nextlayerid": 3,
 "nextobjectid": 55,
 "tilesets": [],
 "properties": [
  {
   "name": "name",
   "type": "string",
   "value": "Thirteenth Avenue (greybox)"
  },
  {
   "name": "backgroundColor",
   "type": "string",
   "value": "0x161b2e"
  }
 ],
 "layers": [
  {
   "id": 1,
   "name": "solids",
   "type": "objectgroup",
   "draworder": "index",
   "opacity": 1,
   "visible": true,
   "x": 0,
   "y": 0,
   "objects": [
    {
     "id": 1,
     "name": "",
     "class": "",
     "x": 0,
     "y": 320,
     "width": 352,
     "height": 112,
     "rotation": 0,
     "visible": true,
     "properties": [
      {
       "name": "kind",
       "type": "string",
       "value": "ground"
      }
     ]
    },
    {
     "id": 2,
     "name": "",
     "class": "",
     "x": 400,
     "y": 320,
     "width": 288,
     "height": 112,
     "rotation": 0,
     "visible": true,
     "properties": [
      {
       "name": "kind",
       "type": "string",
       "value": "ground"
      }
     ]
    },
    {
     "id": 3,
     "name": "",
     "class": "",
     "x": 688,
     "y": 320,
     "width": 224,
     "height": 112,
     "rotation": 0,
     "visible": true,
     "properties": [
      {
       "name": "kind",
       "type": "string",
       "value": "ground"
      }
     ]
    },
    {
     "id": 4,
     "name": "",
     "class": "",
     "x": 832,
     "y": 272,
     "width": 80,
     "height": 48,
     "rotation": 0,
     "visible": true,
     "properties": [
      {
       "name": "kind",
       "type": "string",
       "value": "platform"
      }
     ]
    },
    {
     "id": 5,
     "name": "",
     "class": "",
     "x": 976,
     "y": 320,
     "width": 256,
     "height": 112,
     "rotation": 0,
     "visible": true,
     "properties": [
      {
       "name": "kind",
       "type": "string",
       "value": "ground"
      }
     ]
    },
    {
     "id": 6,
     "name": "",
     "class": "",
     "x": 1104,
     "y": 272,
     "width": 64,
     "height": 48,
     "rotation": 0,
     "visible": true,
     "properties": [
      {
       "name": "kind",
       "type": "string",
       "value": "platform"
      }
     ]
    },
    {
     "id": 7,
     "name": "",
     "class": "",
     "x": 1296,
     "y": 320,
     "width": 368,
     "height": 112,
     "rotation": 0,
     "visible": true,
     "properties": [
      {
       "name": "kind",
       "type": "string",
       "value": "ground"
      }
     ]
    }
   ]
  },
  {
   "id": 2,
   "name": "entities",
   "type": "objectgroup",
   "draworder": "index",
   "opacity": 1,
   "visible": true,
   "x": 0,
   "y": 0,
   "objects": [
    {
     "id": 8,
     "name": "",
     "class": "spawn",
     "x": 48,
     "y": 320,
     "width": 16,
     "height": 16,
     "rotation": 0,
     "visible": true
    },
    {
     "id": 9,
     "name": "",
     "class": "goal",
     "x": 1584,
     "y": 320,
     "width": 16,
     "height": 16,
     "rotation": 0,
     "visible": true
    },
    {
     "id": 10,
     "name": "",
     "class": "checkpoint",
     "x": 704,
     "y": 320,
     "width": 16,
     "height": 16,
     "rotation": 0,
     "visible": true
    },
    {
     "id": 11,
     "name": "",
     "class": "checkpoint",
     "x": 1344,
     "y": 320,
     "width": 16,
     "height": 16,
     "rotation": 0,
     "visible": true
    },
    {
     "id": 12,
     "name": "",
     "class": "coin",
     "x": 96,
     "y": 288,
     "width": 16,
     "height": 16,
     "rotation": 0,
     "visible": true
    },
    {
     "id": 13,
     "name": "",
     "class": "coin",
     "x": 112,
     "y": 288,
     "width": 16,
     "height": 16,
     "rotation": 0,
     "visible": true
    },
    {
     "id": 14,
     "name": "",
     "class": "coin",
     "x": 128,
     "y": 288,
     "width": 16,
     "height": 16,
     "rotation": 0,
     "visible": true
    },
    {
     "id": 15,
     "name": "",
     "class": "coin",
     "x": 272,
     "y": 272,
     "width": 16,
     "height": 16,
     "rotation": 0,
     "visible": true
    },
    {
     "id": 16,
     "name": "",
     "class": "coin",
     "x": 288,
     "y": 272,
     "width": 16,
     "height": 16,
     "rotation": 0,
     "visible": true
    },
    {
     "id": 17,
     "name": "",
     "class": "coin",
     "x": 448,
     "y": 288,
     "width": 16,
     "height": 16,
     "rotation": 0,
     "visible": true
    },
    {
     "id": 18,
     "name": "",
     "class": "coin",
     "x": 464,
     "y": 288,
     "width": 16,
     "height": 16,
     "rotation": 0,
     "visible": true
    },
    {
     "id": 19,
     "name": "",
     "class": "coin",
     "x": 480,
     "y": 288,
     "width": 16,
     "height": 16,
     "rotation": 0,
     "visible": true
    },
    {
     "id": 20,
     "name": "",
     "class": "coin",
     "x": 592,
     "y": 208,
     "width": 16,
     "height": 16,
     "rotation": 0,
     "visible": true
    },
    {
     "id": 21,
     "name": "",
     "class": "coin",
     "x": 608,
     "y": 208,
     "width": 16,
     "height": 16,
     "rotation": 0,
     "visible": true
    },
    {
     "id": 22,
     "name": "",
     "class": "coin",
     "x": 624,
     "y": 208,
     "width": 16,
     "height": 16,
     "rotation": 0,
     "visible": true
    },
    {
     "id": 23,
     "name": "",
     "class": "coin",
     "x": 832,
     "y": 240,
     "width": 16,
     "height": 16,
     "rotation": 0,
     "visible": true
    },
    {
     "id": 24,
     "name": "",
     "class": "coin",
     "x": 848,
     "y": 240,
     "width": 16,
     "height": 16,
     "rotation": 0,
     "visible": true
    },
    {
     "id": 25,
     "name": "",
     "class": "coin",
     "x": 864,
     "y": 240,
     "width": 16,
     "height": 16,
     "rotation": 0,
     "visible": true
    },
    {
     "id": 26,
     "name": "",
     "class": "coin",
     "x": 880,
     "y": 240,
     "width": 16,
     "height": 16,
     "rotation": 0,
     "visible": true
    },
    {
     "id": 27,
     "name": "",
     "class": "coin",
     "x": 896,
     "y": 240,
     "width": 16,
     "height": 16,
     "rotation": 0,
     "visible": true
    },
    {
     "id": 28,
     "name": "",
     "class": "coin",
     "x": 1008,
     "y": 288,
     "width": 16,
     "height": 16,
     "rotation": 0,
     "visible": true
    },
    {
     "id": 29,
     "name": "",
     "class": "coin",
     "x": 1024,
     "y": 288,
     "width": 16,
     "height": 16,
     "rotation": 0,
     "visible": true
    },
    {
     "id": 30,
     "name": "",
     "class": "coin",
     "x": 1104,
     "y": 240,
     "width": 16,
     "height": 16,
     "rotation": 0,
     "visible": true
    },
    {
     "id": 31,
     "name": "",
     "class": "coin",
     "x": 1120,
     "y": 240,
     "width": 16,
     "height": 16,
     "rotation": 0,
     "visible": true
    },
    {
     "id": 32,
     "name": "",
     "class": "coin",
     "x": 1136,
     "y": 240,
     "width": 16,
     "height": 16,
     "rotation": 0,
     "visible": true
    },
    {
     "id": 33,
     "name": "",
     "class": "coin",
     "x": 1152,
     "y": 240,
     "width": 16,
     "height": 16,
     "rotation": 0,
     "visible": true
    },
    {
     "id": 34,
     "name": "",
     "class": "coin",
     "x": 1488,
     "y": 288,
     "width": 16,
     "height": 16,
     "rotation": 0,
     "visible": true
    },
    {
     "id": 35,
     "name": "",
     "class": "coin",
     "x": 1504,
     "y": 288,
     "width": 16,
     "height": 16,
     "rotation": 0,
     "visible": true
    },
    {
     "id": 36,
     "name": "",
     "class": "coin",
     "x": 1520,
     "y": 288,
     "width": 16,
     "height": 16,
     "rotation": 0,
     "visible": true
    },
    {
     "id": 37,
     "name": "",
     "class": "coin",
     "x": 1536,
     "y": 288,
     "width": 16,
     "height": 16,
     "rotation": 0,
     "visible": true
    },
    {
     "id": 38,
     "name": "",
     "class": "block",
     "x": 176,
     "y": 256,
     "width": 16,
     "height": 16,
     "rotation": 0,
     "visible": true,
     "properties": [
      {
       "name": "block",
       "type": "string",
       "value": "mystery"
      },
      {
       "name": "contents",
       "type": "string",
       "value": "cholent"
      }
     ]
    },
    {
     "id": 39,
     "name": "",
     "class": "block",
     "x": 224,
     "y": 256,
     "width": 16,
     "height": 16,
     "rotation": 0,
     "visible": true,
     "properties": [
      {
       "name": "block",
       "type": "string",
       "value": "mystery"
      },
      {
       "name": "contents",
       "type": "string",
       "value": "coin"
      }
     ]
    },
    {
     "id": 40,
     "name": "",
     "class": "block",
     "x": 592,
     "y": 240,
     "width": 16,
     "height": 16,
     "rotation": 0,
     "visible": true,
     "properties": [
      {
       "name": "block",
       "type": "string",
       "value": "brick"
      },
      {
       "name": "contents",
       "type": "string",
       "value": "coin"
      }
     ]
    },
    {
     "id": 41,
     "name": "",
     "class": "block",
     "x": 608,
     "y": 240,
     "width": 16,
     "height": 16,
     "rotation": 0,
     "visible": true,
     "properties": [
      {
       "name": "block",
       "type": "string",
       "value": "brick"
      },
      {
       "name": "contents",
       "type": "string",
       "value": "coin"
      }
     ]
    },
    {
     "id": 42,
     "name": "",
     "class": "block",
     "x": 624,
     "y": 240,
     "width": 16,
     "height": 16,
     "rotation": 0,
     "visible": true,
     "properties": [
      {
       "name": "block",
       "type": "string",
       "value": "brick"
      },
      {
       "name": "contents",
       "type": "string",
       "value": "coin"
      }
     ]
    },
    {
     "id": 43,
     "name": "",
     "class": "block",
     "x": 1440,
     "y": 256,
     "width": 16,
     "height": 16,
     "rotation": 0,
     "visible": true,
     "properties": [
      {
       "name": "block",
       "type": "string",
       "value": "mystery"
      },
      {
       "name": "contents",
       "type": "string",
       "value": "cholent"
      }
     ]
    },
    {
     "id": 44,
     "name": "",
     "class": "enemy",
     "x": 528,
     "y": 208,
     "width": 16,
     "height": 16,
     "rotation": 0,
     "visible": true,
     "properties": [
      {
       "name": "enemy",
       "type": "string",
       "value": "pigeon"
      }
     ]
    },
    {
     "id": 45,
     "name": "",
     "class": "enemy",
     "x": 784,
     "y": 192,
     "width": 16,
     "height": 16,
     "rotation": 0,
     "visible": true,
     "properties": [
      {
       "name": "enemy",
       "type": "string",
       "value": "pigeon"
      }
     ]
    },
    {
     "id": 46,
     "name": "",
     "class": "enemy",
     "x": 1056,
     "y": 208,
     "width": 16,
     "height": 16,
     "rotation": 0,
     "visible": true,
     "properties": [
      {
       "name": "enemy",
       "type": "string",
       "value": "pigeon"
      }
     ]
    },
    {
     "id": 47,
     "name": "",
     "class": "enemy",
     "x": 1168,
     "y": 240,
     "width": 16,
     "height": 16,
     "rotation": 0,
     "visible": true,
     "properties": [
      {
       "name": "enemy",
       "type": "string",
       "value": "pigeon"
      }
     ]
    },
    {
     "id": 48,
     "name": "",
     "class": "label",
     "x": 32,
     "y": 240,
     "width": 16,
     "height": 16,
     "rotation": 0,
     "visible": true,
     "properties": [
      {
       "name": "text",
       "type": "string",
       "value": "COINS ARE FREE. BOXES GO OVERHEAD."
      }
     ]
    },
    {
     "id": 49,
     "name": "",
     "class": "label",
     "x": 32,
     "y": 256,
     "width": 16,
     "height": 16,
     "rotation": 0,
     "visible": true,
     "properties": [
      {
       "name": "text",
       "type": "string",
       "value": "jump up into a box to open it"
      }
     ]
    },
    {
     "id": 50,
     "name": "",
     "class": "label",
     "x": 416,
     "y": 240,
     "width": 16,
     "height": 16,
     "rotation": 0,
     "visible": true,
     "properties": [
      {
       "name": "text",
       "type": "string",
       "value": "PIGEONS DIVE. LAND ON TOP OF ONE."
      }
     ]
    },
    {
     "id": 51,
     "name": "",
     "class": "label",
     "x": 544,
     "y": 272,
     "width": 16,
     "height": 16,
     "rotation": 0,
     "visible": true,
     "properties": [
      {
       "name": "text",
       "type": "string",
       "value": "CHOLENT BREAKS BRICKS FROM UNDERNEATH"
      }
     ]
    },
    {
     "id": 52,
     "name": "",
     "class": "label",
     "x": 704,
     "y": 240,
     "width": 16,
     "height": 16,
     "rotation": 0,
     "visible": true,
     "properties": [
      {
       "name": "text",
       "type": "string",
       "value": "CHECKPOINT"
      }
     ]
    },
    {
     "id": 53,
     "name": "",
     "class": "label",
     "x": 1344,
     "y": 240,
     "width": 16,
     "height": 16,
     "rotation": 0,
     "visible": true,
     "properties": [
      {
       "name": "text",
       "type": "string",
       "value": "CHECKPOINT"
      }
     ]
    },
    {
     "id": 54,
     "name": "",
     "class": "label",
     "x": 1536,
     "y": 240,
     "width": 16,
     "height": 16,
     "rotation": 0,
     "visible": true,
     "properties": [
      {
       "name": "text",
       "type": "string",
       "value": "TOUCH THE POST TO FINISH"
      }
     ]
    }
   ]
  }
 ]
}
