{
 "compressionlevel": -1,
 "width": 356,
 "height": 27,
 "tilewidth": 16,
 "tileheight": 16,
 "infinite": false,
 "orientation": "orthogonal",
 "renderorder": "right-down",
 "tiledversion": "1.11.0",
 "type": "map",
 "version": "1.10",
 "nextlayerid": 3,
 "nextobjectid": 82,
 "tilesets": [],
 "properties": [
  {
   "name": "name",
   "type": "string",
   "value": "The Gym"
  },
  {
   "name": "backgroundColor",
   "type": "string",
   "value": "0x121726"
  }
 ],
 "layers": [
  {
   "id": 1,
   "name": "solids",
   "type": "objectgroup",
   "draworder": "index",
   "opacity": 1,
   "visible": true,
   "x": 0,
   "y": 0,
   "objects": [
    {
     "id": 1,
     "name": "",
     "class": "",
     "x": 0,
     "y": 320,
     "width": 544,
     "height": 112,
     "rotation": 0,
     "visible": true,
     "properties": [
      {
       "name": "kind",
       "type": "string",
       "value": "ground"
      }
     ]
    },
    {
     "id": 2,
     "name": "",
     "class": "",
     "x": 544,
     "y": 320,
     "width": 480,
     "height": 112,
     "rotation": 0,
     "visible": true,
     "properties": [
      {
       "name": "kind",
       "type": "string",
       "value": "ground"
      }
     ]
    },
    {
     "id": 3,
     "name": "",
     "class": "",
     "x": 576,
     "y": 288,
     "width": 48,
     "height": 32,
     "rotation": 0,
     "visible": true,
     "properties": [
      {
       "name": "kind",
       "type": "string",
       "value": "platform"
      }
     ]
    },
    {
     "id": 4,
     "name": "",
     "class": "",
     "x": 672,
     "y": 272,
     "width": 48,
     "height": 48,
     "rotation": 0,
     "visible": true,
     "properties": [
      {
       "name": "kind",
       "type": "string",
       "value": "platform"
      }
     ]
    },
    {
     "id": 5,
     "name": "",
     "class": "",
     "x": 768,
     "y": 256,
     "width": 48,
     "height": 64,
     "rotation": 0,
     "visible": true,
     "properties": [
      {
       "name": "kind",
       "type": "string",
       "value": "platform"
      }
     ]
    },
    {
     "id": 6,
     "name": "",
     "class": "",
     "x": 864,
     "y": 240,
     "width": 48,
     "height": 80,
     "rotation": 0,
     "visible": true,
     "properties": [
      {
       "name": "kind",
       "type": "string",
       "value": "platform"
      }
     ]
    },
    {
     "id": 7,
     "name": "",
     "class": "",
     "x": 960,
     "y": 224,
     "width": 48,
     "height": 96,
     "rotation": 0,
     "visible": true,
     "properties": [
      {
       "name": "kind",
       "type": "string",
       "value": "platform"
      }
     ]
    },
    {
     "id": 8,
     "name": "",
     "class": "",
     "x": 1024,
     "y": 320,
     "width": 128,
     "height": 112,
     "rotation": 0,
     "visible": true,
     "properties": [
      {
       "name": "kind",
       "type": "string",
       "value": "ground"
      }
     ]
    },
    {
     "id": 9,
     "name": "",
     "class": "",
     "x": 1152,
     "y": 368,
     "width": 32,
     "height": 64,
     "rotation": 0,
     "visible": true,
     "properties": [
      {
       "name": "kind",
       "type": "string",
       "value": "ground"
      }
     ]
    },
    {
     "id": 10,
     "name": "",
     "class": "",
     "x": 1184,
     "y": 320,
     "width": 80,
     "height": 112,
     "rotation": 0,
     "visible": true,
     "properties": [
      {
       "name": "kind",
       "type": "string",
       "value": "ground"
      }
     ]
    },
    {
     "id": 11,
     "name": "",
     "class": "",
     "x": 1264,
     "y": 368,
     "width": 48,
     "height": 64,
     "rotation": 0,
     "visible": true,
     "properties": [
      {
       "name": "kind",
       "type": "string",
       "value": "ground"
      }
     ]
    },
    {
     "id": 12,
     "name": "",
     "class": "",
     "x": 1312,
     "y": 320,
     "width": 80,
     "height": 112,
     "rotation": 0,
     "visible": true,
     "properties": [
      {
       "name": "kind",
       "type": "string",
       "value": "ground"
      }
     ]
    },
    {
     "id": 13,
     "name": "",
     "class": "",
     "x": 1392,
     "y": 368,
     "width": 64,
     "height": 64,
     "rotation": 0,
     "visible": true,
     "properties": [
      {
       "name": "kind",
       "type": "string",
       "value": "ground"
      }
     ]
    },
    {
     "id": 14,
     "name": "",
     "class": "",
     "x": 1456,
     "y": 320,
     "width": 80,
     "height": 112,
     "rotation": 0,
     "visible": true,
     "properties": [
      {
       "name": "kind",
       "type": "string",
       "value": "ground"
      }
     ]
    },
    {
     "id": 15,
     "name": "",
     "class": "",
     "x": 1536,
     "y": 368,
     "width": 80,
     "height": 64,
     "rotation": 0,
     "visible": true,
     "properties": [
      {
       "name": "kind",
       "type": "string",
       "value": "ground"
      }
     ]
    },
    {
     "id": 16,
     "name": "",
     "class": "",
     "x": 1616,
     "y": 320,
     "width": 80,
     "height": 112,
     "rotation": 0,
     "visible": true,
     "properties": [
      {
       "name": "kind",
       "type": "string",
       "value": "ground"
      }
     ]
    },
    {
     "id": 17,
     "name": "",
     "class": "",
     "x": 1696,
     "y": 368,
     "width": 96,
     "height": 64,
     "rotation": 0,
     "visible": true,
     "properties": [
      {
       "name": "kind",
       "type": "string",
       "value": "ground"
      }
     ]
    },
    {
     "id": 18,
     "name": "",
     "class": "",
     "x": 1792,
     "y": 320,
     "width": 80,
     "height": 112,
     "rotation": 0,
     "visible": true,
     "properties": [
      {
       "name": "kind",
       "type": "string",
       "value": "ground"
      }
     ]
    },
    {
     "id": 19,
     "name": "",
     "class": "",
     "x": 1872,
     "y": 368,
     "width": 112,
     "height": 64,
     "rotation": 0,
     "visible": true,
     "properties": [
      {
       "name": "kind",
       "type": "string",
       "value": "ground"
      }
     ]
    },
    {
     "id": 20,
     "name": "",
     "class": "",
     "x": 1984,
     "y": 320,
     "width": 80,
     "height": 112,
     "rotation": 0,
     "visible": true,
     "properties": [
      {
       "name": "kind",
       "type": "string",
       "value": "ground"
      }
     ]
    },
    {
     "id": 21,
     "name": "",
     "class": "",
     "x": 2064,
     "y": 368,
     "width": 128,
     "height": 64,
     "rotation": 0,
     "visible": true,
     "properties": [
      {
       "name": "kind",
       "type": "string",
       "value": "ground"
      }
     ]
    },
    {
     "id": 22,
     "name": "",
     "class": "",
     "x": 2192,
     "y": 320,
     "width": 80,
     "height": 112,
     "rotation": 0,
     "visible": true,
     "properties": [
      {
       "name": "kind",
       "type": "string",
       "value": "ground"
      }
     ]
    },
    {
     "id": 23,
     "name": "",
     "class": "",
     "x": 2272,
     "y": 368,
     "width": 144,
     "height": 64,
     "rotation": 0,
     "visible": true,
     "properties": [
      {
       "name": "kind",
       "type": "string",
       "value": "ground"
      }
     ]
    },
    {
     "id": 24,
     "name": "",
     "class": "",
     "x": 2416,
     "y": 320,
     "width": 80,
     "height": 112,
     "rotation": 0,
     "visible": true,
     "properties": [
      {
       "name": "kind",
       "type": "string",
       "value": "ground"
      }
     ]
    },
    {
     "id": 25,
     "name": "",
     "class": "",
     "x": 2496,
     "y": 368,
     "width": 160,
     "height": 64,
     "rotation": 0,
     "visible": true,
     "properties": [
      {
       "name": "kind",
       "type": "string",
       "value": "ground"
      }
     ]
    },
    {
     "id": 26,
     "name": "",
     "class": "",
     "x": 2656,
     "y": 320,
     "width": 80,
     "height": 112,
     "rotation": 0,
     "visible": true,
     "properties": [
      {
       "name": "kind",
       "type": "string",
       "value": "ground"
      }
     ]
    },
    {
     "id": 27,
     "name": "",
     "class": "",
     "x": 2736,
     "y": 368,
     "width": 176,
     "height": 64,
     "rotation": 0,
     "visible": true,
     "properties": [
      {
       "name": "kind",
       "type": "string",
       "value": "ground"
      }
     ]
    },
    {
     "id": 28,
     "name": "",
     "class": "",
     "x": 2912,
     "y": 320,
     "width": 80,
     "height": 112,
     "rotation": 0,
     "visible": true,
     "properties": [
      {
       "name": "kind",
       "type": "string",
       "value": "ground"
      }
     ]
    },
    {
     "id": 29,
     "name": "",
     "class": "",
     "x": 2992,
     "y": 368,
     "width": 192,
     "height": 64,
     "rotation": 0,
     "visible": true,
     "properties": [
      {
       "name": "kind",
       "type": "string",
       "value": "ground"
      }
     ]
    },
    {
     "id": 30,
     "name": "",
     "class": "",
     "x": 3184,
     "y": 320,
     "width": 80,
     "height": 112,
     "rotation": 0,
     "visible": true,
     "properties": [
      {
       "name": "kind",
       "type": "string",
       "value": "ground"
      }
     ]
    },
    {
     "id": 31,
     "name": "",
     "class": "",
     "x": 3264,
     "y": 320,
     "width": 96,
     "height": 112,
     "rotation": 0,
     "visible": true,
     "properties": [
      {
       "name": "kind",
       "type": "string",
       "value": "ground"
      }
     ]
    },
    {
     "id": 32,
     "name": "",
     "class": "",
     "x": 3360,
     "y": 320,
     "width": 96,
     "height": 112,
     "rotation": 0,
     "visible": true,
     "properties": [
      {
       "name": "kind",
       "type": "string",
       "value": "ground"
      }
     ]
    },
    {
     "id": 33,
     "name": "",
     "class": "",
     "x": 3456,
     "y": 256,
     "width": 256,
     "height": 176,
     "rotation": 0,
     "visible": true,
     "properties": [
      {
       "name": "kind",
       "type": "string",
       "value": "platform"
      }
     ]
    },
    {
     "id": 34,
     "name": "",
     "class": "",
     "x": 3712,
     "y": 304,
     "width": 80,
     "height": 128,
     "rotation": 0,
     "visible": true,
     "properties": [
      {
       "name": "kind",
       "type": "string",
       "value": "ground"
      }
     ]
    },
    {
     "id": 35,
     "name": "",
     "class": "",
     "x": 3792,
     "y": 256,
     "width": 224,
     "height": 176,
     "rotation": 0,
     "visible": true,
     "properties": [
      {
       "name": "kind",
       "type": "string",
       "value": "platform"
      }
     ]
    },
    {
     "id": 36,
     "name": "",
     "class": "",
     "x": 4016,
     "y": 320,
     "width": 544,
     "height": 112,
     "rotation": 0,
     "visible": true,
     "properties": [
      {
       "name": "kind",
       "type": "string",
       "value": "ground"
      }
     ]
    },
    {
     "id": 37,
     "name": "",
     "class": "",
     "x": 4016,
     "y": 304,
     "width": 48,
     "height": 16,
     "rotation": 0,
     "visible": true,
     "properties": [
      {
       "name": "kind",
       "type": "string",
       "value": "platform"
      }
     ]
    },
    {
     "id": 38,
     "name": "",
     "class": "",
     "x": 4064,
     "y": 288,
     "width": 48,
     "height": 32,
     "rotation": 0,
     "visible": true,
     "properties": [
      {
       "name": "kind",
       "type": "string",
       "value": "platform"
      }
     ]
    },
    {
     "id": 39,
     "name": "",
     "class": "",
     "x": 4112,
     "y": 272,
     "width": 48,
     "height": 48,
     "rotation": 0,
     "visible": true,
     "properties": [
      {
       "name": "kind",
       "type": "string",
       "value": "platform"
      }
     ]
    },
    {
     "id": 40,
     "name": "",
     "class": "",
     "x": 4160,
     "y": 256,
     "width": 48,
     "height": 64,
     "rotation": 0,
     "visible": true,
     "properties": [
      {
       "name": "kind",
       "type": "string",
       "value": "platform"
      }
     ]
    },
    {
     "id": 41,
     "name": "",
     "class": "",
     "x": 4208,
     "y": 240,
     "width": 48,
     "height": 80,
     "rotation": 0,
     "visible": true,
     "properties": [
      {
       "name": "kind",
       "type": "string",
       "value": "platform"
      }
     ]
    },
    {
     "id": 42,
     "name": "",
     "class": "",
     "x": 4256,
     "y": 224,
     "width": 128,
     "height": 96,
     "rotation": 0,
     "visible": true,
     "properties": [
      {
       "name": "kind",
       "type": "string",
       "value": "platform"
      }
     ]
    },
    {
     "id": 43,
     "name": "",
     "class": "",
     "x": 4560,
     "y": 320,
     "width": 464,
     "height": 112,
     "rotation": 0,
     "visible": true,
     "properties": [
      {
       "name": "kind",
       "type": "string",
       "value": "ground"
      }
     ]
    },
    {
     "id": 44,
     "name": "",
     "class": "",
     "x": 4624,
     "y": 256,
     "width": 288,
     "height": 32,
     "rotation": 0,
     "visible": true,
     "properties": [
      {
       "name": "kind",
       "type": "string",
       "value": "platform"
      }
     ]
    },
    {
     "id": 45,
     "name": "",
     "class": "",
     "x": 5024,
     "y": 320,
     "width": 416,
     "height": 112,
     "rotation": 0,
     "visible": true,
     "properties": [
      {
       "name": "kind",
       "type": "string",
       "value": "ground"
      }
     ]
    },
    {
     "id": 46,
     "name": "",
     "class": "",
     "x": 5120,
     "y": 256,
     "width": 224,
     "height": 48,
     "rotation": 0,
     "visible": true,
     "properties": [
      {
       "name": "kind",
       "type": "string",
       "value": "platform"
      }
     ]
    },
    {
     "id": 47,
     "name": "",
     "class": "",
     "x": 5440,
     "y": 320,
     "width": 256,
     "height": 112,
     "rotation": 0,
     "visible": true,
     "properties": [
      {
       "name": "kind",
       "type": "string",
       "value": "ground"
      }
     ]
    },
    {
     "id": 48,
     "name": "",
     "class": "",
     "x": 5664,
     "y": 128,
     "width": 32,
     "height": 304,
     "rotation": 0,
     "visible": true,
     "properties": [
      {
       "name": "kind",
       "type": "string",
       "value": "wall"
      }
     ]
    }
   ]
  },
  {
   "id": 2,
   "name": "entities",
   "type": "objectgroup",
   "draworder": "index",
   "opacity": 1,
   "visible": true,
   "x": 0,
   "y": 0,
   "objects": [
    {
     "id": 49,
     "name": "",
     "class": "spawn",
     "x": 48,
     "y": 320,
     "width": 16,
     "height": 16,
     "rotation": 0,
     "visible": true
    },
    {
     "id": 50,
     "name": "",
     "class": "label",
     "x": 32,
     "y": 240,
     "width": 16,
     "height": 16,
     "rotation": 0,
     "visible": true,
     "properties": [
      {
       "name": "text",
       "type": "string",
       "value": "A  FLAT GROUND"
      }
     ]
    },
    {
     "id": 51,
     "name": "",
     "class": "label",
     "x": 32,
     "y": 256,
     "width": 16,
     "height": 16,
     "rotation": 0,
     "visible": true,
     "properties": [
      {
       "name": "text",
       "type": "string",
       "value": "walk, hold SHIFT or X to run, turn around, stop"
      }
     ]
    },
    {
     "id": 52,
     "name": "",
     "class": "label",
     "x": 576,
     "y": 240,
     "width": 16,
     "height": 16,
     "rotation": 0,
     "visible": true,
     "properties": [
      {
       "name": "text",
       "type": "string",
       "value": "B  HOW HIGH?"
      }
     ]
    },
    {
     "id": 53,
     "name": "",
     "class": "label",
     "x": 576,
     "y": 256,
     "width": 16,
     "height": 16,
     "rotation": 0,
     "visible": true,
     "properties": [
      {
       "name": "text",
       "type": "string",
       "value": "each pillar is 1 tile taller. running gets you one higher."
      }
     ]
    },
    {
     "id": 54,
     "name": "",
     "class": "label",
     "x": 576,
     "y": 272,
     "width": 16,
     "height": 16,
     "rotation": 0,
     "visible": true,
     "properties": [
      {
       "name": "text",
       "type": "string",
       "value": "2"
      }
     ]
    },
    {
     "id": 55,
     "name": "",
     "class": "label",
     "x": 672,
     "y": 256,
     "width": 16,
     "height": 16,
     "rotation": 0,
     "visible": true,
     "properties": [
      {
       "name": "text",
       "type": "string",
       "value": "3"
      }
     ]
    },
    {
     "id": 56,
     "name": "",
     "class": "label",
     "x": 768,
     "y": 240,
     "width": 16,
     "height": 16,
     "rotation": 0,
     "visible": true,
     "properties": [
      {
       "name": "text",
       "type": "string",
       "value": "4"
      }
     ]
    },
    {
     "id": 57,
     "name": "",
     "class": "label",
     "x": 864,
     "y": 224,
     "width": 16,
     "height": 16,
     "rotation": 0,
     "visible": true,
     "properties": [
      {
       "name": "text",
       "type": "string",
       "value": "5"
      }
     ]
    },
    {
     "id": 58,
     "name": "",
     "class": "label",
     "x": 960,
     "y": 208,
     "width": 16,
     "height": 16,
     "rotation": 0,
     "visible": true,
     "properties": [
      {
       "name": "text",
       "type": "string",
       "value": "6"
      }
     ]
    },
    {
     "id": 59,
     "name": "",
     "class": "label",
     "x": 1056,
     "y": 240,
     "width": 16,
     "height": 16,
     "rotation": 0,
     "visible": true,
     "properties": [
      {
       "name": "text",
       "type": "string",
       "value": "C  HOW FAR?"
      }
     ]
    },
    {
     "id": 60,
     "name": "",
     "class": "label",
     "x": 1056,
     "y": 256,
     "width": 16,
     "height": 16,
     "rotation": 0,
     "visible": true,
     "properties": [
      {
       "name": "text",
       "type": "string",
       "value": "gaps grow by 1 tile. walking vs running should differ a lot."
      }
     ]
    },
    {
     "id": 61,
     "name": "",
     "class": "label",
     "x": 1056,
     "y": 272,
     "width": 16,
     "height": 16,
     "rotation": 0,
     "visible": true,
     "properties": [
      {
       "name": "text",
       "type": "string",
       "value": "measured: 3 tiles walking, 6 at a run."
      }
     ]
    },
    {
     "id": 62,
     "name": "",
     "class": "label",
     "x": 1152,
     "y": 336,
     "width": 16,
     "height": 16,
     "rotation": 0,
     "visible": true,
     "properties": [
      {
       "name": "text",
       "type": "string",
       "value": "2"
      }
     ]
    },
    {
     "id": 63,
     "name": "",
     "class": "label",
     "x": 1264,
     "y": 336,
     "width": 16,
     "height": 16,
     "rotation": 0,
     "visible": true,
     "properties": [
      {
       "name": "text",
       "type": "string",
       "value": "3"
      }
     ]
    },
    {
     "id": 64,
     "name": "",
     "class": "label",
     "x": 1392,
     "y": 336,
     "width": 16,
     "height": 16,
     "rotation": 0,
     "visible": true,
     "properties": [
      {
       "name": "text",
       "type": "string",
       "value": "4"
      }
     ]
    },
    {
     "id": 65,
     "name": "",
     "class": "label",
     "x": 1536,
     "y": 336,
     "width": 16,
     "height": 16,
     "rotation": 0,
     "visible": true,
     "properties": [
      {
       "name": "text",
       "type": "string",
       "value": "5"
      }
     ]
    },
    {
     "id": 66,
     "name": "",
     "class": "label",
     "x": 1696,
     "y": 336,
     "width": 16,
     "height": 16,
     "rotation": 0,
     "visible": true,
     "properties": [
      {
       "name": "text",
       "type": "string",
       "value": "6"
      }
     ]
    },
    {
     "id": 67,
     "name": "",
     "class": "label",
     "x": 1872,
     "y": 336,
     "width": 16,
     "height": 16,
     "rotation": 0,
     "visible": true,
     "properties": [
      {
       "name": "text",
       "type": "string",
       "value": "7"
      }
     ]
    },
    {
     "id": 68,
     "name": "",
     "class": "label",
     "x": 2064,
     "y": 336,
     "width": 16,
     "height": 16,
     "rotation": 0,
     "visible": true,
     "properties": [
      {
       "name": "text",
       "type": "string",
       "value": "8"
      }
     ]
    },
    {
     "id": 69,
     "name": "",
     "class": "label",
     "x": 2272,
     "y": 336,
     "width": 16,
     "height": 16,
     "rotation": 0,
     "visible": true,
     "properties": [
      {
       "name": "text",
       "type": "string",
       "value": "9"
      }
     ]
    },
    {
     "id": 70,
     "name": "",
     "class": "label",
     "x": 2496,
     "y": 336,
     "width": 16,
     "height": 16,
     "rotation": 0,
     "visible": true,
     "properties": [
      {
       "name": "text",
       "type": "string",
       "value": "10"
      }
     ]
    },
    {
     "id": 71,
     "name": "",
     "class": "label",
     "x": 2736,
     "y": 336,
     "width": 16,
     "height": 16,
     "rotation": 0,
     "visible": true,
     "properties": [
      {
       "name": "text",
       "type": "string",
       "value": "11"
      }
     ]
    },
    {
     "id": 72,
     "name": "",
     "class": "label",
     "x": 2992,
     "y": 336,
     "width": 16,
     "height": 16,
     "rotation": 0,
     "visible": true,
     "properties": [
      {
       "name": "text",
       "type": "string",
       "value": "12"
      }
     ]
    },
    {
     "id": 73,
     "name": "",
     "class": "label",
     "x": 3456,
     "y": 240,
     "width": 16,
     "height": 16,
     "rotation": 0,
     "visible": true,
     "properties": [
      {
       "name": "text",
       "type": "string",
       "value": "D  COYOTE TIME"
      }
     ]
    },
    {
     "id": 74,
     "name": "",
     "class": "label",
     "x": 3456,
     "y": 256,
     "width": 16,
     "height": 16,
     "rotation": 0,
     "visible": true,
     "properties": [
      {
       "name": "text",
       "type": "string",
       "value": "run off the edge, then jump a moment too late"
      }
     ]
    },
    {
     "id": 75,
     "name": "",
     "class": "label",
     "x": 4016,
     "y": 240,
     "width": 16,
     "height": 16,
     "rotation": 0,
     "visible": true,
     "properties": [
      {
       "name": "text",
       "type": "string",
       "value": "E  JUMP BUFFER"
      }
     ]
    },
    {
     "id": 76,
     "name": "",
     "class": "label",
     "x": 4016,
     "y": 256,
     "width": 16,
     "height": 16,
     "rotation": 0,
     "visible": true,
     "properties": [
      {
       "name": "text",
       "type": "string",
       "value": "run the stairs; off the top, press jump before you land"
      }
     ]
    },
    {
     "id": 77,
     "name": "",
     "class": "label",
     "x": 4560,
     "y": 240,
     "width": 16,
     "height": 16,
     "rotation": 0,
     "visible": true,
     "properties": [
      {
       "name": "text",
       "type": "string",
       "value": "F  HEAD BONK"
      }
     ]
    },
    {
     "id": 78,
     "name": "",
     "class": "label",
     "x": 4560,
     "y": 256,
     "width": 16,
     "height": 16,
     "rotation": 0,
     "visible": true,
     "properties": [
      {
       "name": "text",
       "type": "string",
       "value": "run under the slab, then try to jump under it"
      }
     ]
    },
    {
     "id": 79,
     "name": "",
     "class": "label",
     "x": 5024,
     "y": 240,
     "width": 16,
     "height": 16,
     "rotation": 0,
     "visible": true,
     "properties": [
      {
       "name": "text",
       "type": "string",
       "value": "G  CROUCH"
      }
     ]
    },
    {
     "id": 80,
     "name": "",
     "class": "label",
     "x": 5024,
     "y": 256,
     "width": 16,
     "height": 16,
     "rotation": 0,
     "visible": true,
     "properties": [
      {
       "name": "text",
       "type": "string",
       "value": "hold DOWN to duck through. try it again as Cholent."
      }
     ]
    },
    {
     "id": 81,
     "name": "",
     "class": "label",
     "x": 5472,
     "y": 240,
     "width": 16,
     "height": 16,
     "rotation": 0,
     "visible": true,
     "properties": [
      {
       "name": "text",
       "type": "string",
       "value": "H  END OF THE LINE"
      }
     ]
    }
   ]
  }
 ]
}
